ncols        12
nrows        10
xllcorner    0.000000000000
yllcorner    0.000000000000
cellsize     1000.000000000000
140.0 140 140 140 140 140 140 140 140 140 140 140 
140 140 140 140 140 140 140 140 140 140 140 140 
140 140 140 140 140 140 140 140 140 140 140 140 
140 140 140 140 140 140 140 140 140 140 140 140 
140 140 140 140 140 140 140 140 140 140 140 140 
140 140 140 140 140 140 140 140 140 140 140 140 
140 140 140 140 140 140 140 140 140 140 140 140 
140 140 140 140 140 140 140 140 140 140 140 140 
140 140 140 140 140 140 140 140 140 140 140 140 
140 140 140 140 140 140 140 140 140 140 140 140 
