ncols        19
nrows        32
xllcorner    299175.080884210533
yllcorner    1429348.617231579265
cellsize     910.138494736842
NODATA_value nan
422.26226806640625 419.048095703125 411.73846435546875 401.78564453125 392.884033203125 387.530181884765625 381.83856201171875 382.340972900390625 388.08575439453125 396.0877685546875 402.2664794921875 401.715057373046875 402.161865234375 404.023101806640625 404.690887451171875 403.937957763671875 406.414459228515625 410.11859130859375 412.607696533203125 
425.374359130859375 418.6436767578125 408.24224853515625 399.00054931640625 395.993560791015625 393.025299072265625 386.414276123046875 382.8787841796875 389.620086669921875 399.23822021484375 408.09033203125 409.008575439453125 407.8572998046875 409.298919677734375 412.6278076171875 410.796661376953125 410.479156494140625 415.30950927734375 418.311309814453125 
423.310028076171875 415.6181640625 405.739410400390625 402.410919189453125 404.88519287109375 401.931365966796875 395.811798095703125 386.23565673828125 392.3443603515625 402.8060302734375 410.26531982421875 413.83453369140625 415.262237548828125 416.66082763671875 421.22064208984375 420.0994873046875 415.687774658203125 418.118743896484375 424.251190185546875 
422.14556884765625 413.53790283203125 407.348052978515625 407.693450927734375 408.676727294921875 404.94061279296875 400.672149658203125 390.013427734375 394.584075927734375 405.40533447265625 412.73040771484375 418.870697021484375 422.694793701171875 425.326568603515625 430.074371337890625 428.062744140625 421.19305419921875 420.727325439453125 427.0281982421875 
416.428863525390625 410.450927734375 411.283447265625 411.55682373046875 408.061004638671875 404.06866455078125 403.832366943359375 394.86810302734375 396.72174072265625 407.204559326171875 414.972503662109375 419.782135009765625 424.73541259765625 429.49737548828125 431.9708251953125 428.47235107421875 423.51898193359375 423.70391845703125 429.63494873046875 
415.053192138671875 412.939910888671875 416.975189208984375 416.062225341796875 411.525726318359375 408.3646240234375 408.01934814453125 400.636993408203125 397.0504150390625 404.1571044921875 410.78228759765625 413.69818115234375 419.296722412109375 425.1180419921875 424.792877197265625 421.28094482421875 420.924041748046875 425.058197021484375 432.88916015625 
419.1380615234375 418.703521728515625 423.1624755859375 422.525360107421875 419.18634033203125 415.865814208984375 413.06683349609375 407.207244873046875 399.216705322265625 398.30938720703125 402.575225830078125 406.16571044921875 411.56793212890625 416.480621337890625 415.11859130859375 414.9317626953125 419.416778564453125 425.75079345703125 432.864654541015625 
423.074310302734375 424.67791748046875 430.13128662109375 430.5986328125 426.260650634765625 421.016998291015625 415.764495849609375 410.752349853515625 401.517791748046875 398.30938720703125 398.30938720703125 400.680328369140625 405.030059814453125 408.425506591796875 409.042938232421875 414.99078369140625 422.879669189453125 427.347381591796875 429.816741943359375 
429.4105224609375 433.31036376953125 437.8521728515625 435.736328125 428.960205078125 420.872894287109375 413.148162841796875 406.671783447265625 398.84686279296875 398.30938720703125 399.5078125 399.6026611328125 401.50250244140625 404.414825439453125 408.96197509765625 417.70135498046875 422.65771484375 424.614593505859375 426.024444580078125 
438.502044677734375 443.334503173828125 443.931396484375 437.65234375 430.3763427734375 421.46630859375 412.616943359375 404.011932373046875 398.30938720703125 398.626922607421875 402.661529541015625 401.490966796875 400.99114990234375 404.617828369140625 411.17529296875 416.43115234375 416.1373291015625 417.2598876953125 420.113372802734375 
447.880096435546875 450.230377197265625 445.64617919921875 437.58941650390625 430.13470458984375 422.3702392578125 413.96234130859375 405.805816650390625 401.248199462890625 402.00274658203125 402.10504150390625 401.630859375 401.478118896484375 403.67584228515625 408.12744140625 410.603973388671875 411.833953857421875 414.627166748046875 417.975982666015625 
457.203887939453125 455.5389404296875 446.735870361328125 436.815093994140625 429.173583984375 422.12664794921875 416.2425537109375 409.869659423828125 408.39703369140625 409.1346435546875 404.512176513671875 401.478118896484375 403.29229736328125 405.23406982421875 406.05718994140625 408.644134521484375 412.604217529296875 420.424591064453125 425.04302978515625 
467.01739501953125 462.369659423828125 450.400299072265625 439.450653076171875 432.80718994140625 427.20703125 423.159149169921875 417.588043212890625 414.74639892578125 413.259674072265625 407.329681396484375 401.916046142578125 406.925048828125 413.26129150390625 413.38470458984375 414.6219482421875 416.70001220703125 424.209197998046875 430.244781494140625 
468.196746826171875 463.104705810546875 450.779693603515625 441.723724365234375 436.49908447265625 432.35064697265625 427.186492919921875 413.91558837890625 413.91558837890625 413.91558837890625 413.91558837890625 413.91558837890625 413.91558837890625 420.555267333984375 421.54803466796875 422.087799072265625 423.671173095703125 424.110443115234375 430.112030029296875 
459.197540283203125 454.2359619140625 446.083465576171875 440.52154541015625 434.87872314453125 430.8519287109375 426.412445068359375 413.91558837890625 413.91558837890625 413.91558837890625 413.91558837890625 413.91558837890625 413.91558837890625 420.239715576171875 423.7930908203125 427.269927978515625 430.68011474609375 429.571136474609375 431.424896240234375 
456.032623291015625 449.465911865234375 445.207244873046875 440.158599853515625 434.148773193359375 430.07550048828125 428.104583740234375 426.051910400390625 422.439483642578125 417.825408935546875 413.91558837890625 413.91558837890625 413.91558837890625 414.49407958984375 420.5240478515625 425.712127685546875 431.1939697265625 435.2529296875 435.789642333984375 
460.318756103515625 453.807891845703125 448.877288818359375 441.59088134765625 437.4400634765625 433.9222412109375 432.375823974609375 429.92291259765625 424.949432373046875 419.208526611328125 413.91558837890625 413.91558837890625 413.91558837890625 413.91558837890625 417.225830078125 420.84210205078125 428.003509521484375 435.765228271484375 442.330657958984375 
465.3818359375 458.40283203125 451.36895751953125 445.303375244140625 443.18865966796875 440.4598388671875 438.654876708984375 433.172637939453125 426.708648681640625 421.57415771484375 416.5570068359375 413.91558837890625 413.91558837890625 413.91558837890625 413.91558837890625 420.16839599609375 427.17620849609375 437.501983642578125 448.1798095703125 
471.114349365234375 462.12860107421875 455.339111328125 452.342254638671875 450.810699462890625 448.062103271484375 444.798309326171875 437.550567626953125 430.6435546875 424.473480224609375 418.608184814453125 413.91558837890625 413.91558837890625 413.91558837890625 416.756561279296875 421.722015380859375 429.751983642578125 442.349029541015625 450.760040283203125 
471.8748779296875 465.502197265625 462.004974365234375 457.8189697265625 454.54010009765625 450.1746826171875 445.57208251953125 440.0792236328125 433.10028076171875 425.928680419921875 418.890167236328125 413.91558837890625 413.91558837890625 413.91558837890625 418.68670654296875 423.715240478515625 430.928680419921875 439.699432373046875 444.1600341796875 
467.9080810546875 463.29345703125 462.987945556640625 456.41241455078125 452.173004150390625 447.44244384765625 441.632781982421875 438.40228271484375 430.998443603515625 422.40875244140625 416.701507568359375 413.711334228515625 413.91558837890625 416.82513427734375 420.971649169921875 424.759857177734375 428.804168701171875 432.88006591796875 436.954376220703125 
465.068939208984375 457.943145751953125 455.600494384765625 450.941253662109375 445.089385986328125 442.505615234375 436.54119873046875 432.126708984375 426.473236083984375 421.13189697265625 420.4110107421875 420.890533447265625 413.91558837890625 414.65130615234375 416.83111572265625 419.28192138671875 422.669769287109375 426.18585205078125 426.62744140625 
464.05755615234375 457.707977294921875 451.778045654296875 445.37115478515625 439.959503173828125 437.096923828125 436.00274658203125 432.068145751953125 427.33966064453125 427.261077880859375 430.232452392578125 430.953704833984375 423.179290771484375 417.439666748046875 415.4432373046875 417.2379150390625 419.730255126953125 421.481597900390625 424.598114013671875 
462.509124755859375 457.2640380859375 451.7578125 445.16387939453125 443.306549072265625 442.3912353515625 442.357757568359375 437.428131103515625 434.01641845703125 434.45440673828125 434.893096923828125 431.690704345703125 426.433807373046875 419.38275146484375 417.006256103515625 422.662994384765625 428.279571533203125 428.32080078125 431.7470703125 
460.772064208984375 452.95074462890625 451.271881103515625 453.769256591796875 449.83355712890625 452.232574462890625 446.29913330078125 441.1978759765625 443.74468994140625 441.2838134765625 437.4139404296875 432.7620849609375 427.36846923828125 418.77392578125 421.13531494140625 430.112152099609375 439.610687255859375 437.828582763671875 439.97161865234375 
460.795257568359375 453.864501953125 456.17413330078125 460.124755859375 455.509857177734375 456.41571044921875 448.739471435546875 448.66961669921875 451.830596923828125 443.96832275390625 437.334991455078125 432.837371826171875 424.979278564453125 418.77392578125 427.261749267578125 435.229949951171875 443.9434814453125 448.524810791015625 450.456634521484375 
459.0296630859375 459.33563232421875 463.13946533203125 464.81842041015625 461.4447021484375 455.6793212890625 452.549468994140625 453.621917724609375 453.048675537109375 443.730072021484375 436.11981201171875 431.3834228515625 425.4774169921875 418.77392578125 427.1041259765625 434.3411865234375 445.60223388671875 457.019195556640625 465.1754150390625 
463.801422119140625 468.6148681640625 473.610931396484375 471.413177490234375 466.395538330078125 458.55987548828125 454.233642578125 449.751953125 446.6192626953125 441.416412353515625 435.07220458984375 431.042877197265625 424.506439208984375 419.067169189453125 426.930633544921875 434.2734375 446.20806884765625 455.03094482421875 472.0406494140625 
470.580078125 476.771484375 480.011383056640625 471.602813720703125 463.061431884765625 458.823699951171875 452.273681640625 448.112335205078125 443.965057373046875 439.17657470703125 436.215057373046875 430.208282470703125 422.6650390625 421.489501953125 428.18646240234375 437.3963623046875 446.814208984375 454.091156005859375 462.9296875 
476.256927490234375 481.281585693359375 477.75372314453125 468.900238037109375 463.148956298828125 459.80889892578125 456.54339599609375 455.57818603515625 448.396087646484375 441.071563720703125 435.663482666015625 431.119140625 428.351715087890625 424.072509765625 427.627899169921875 440.278961181640625 450.714630126953125 458.88250732421875 462.060394287109375 
483.929107666015625 483.307037353515625 474.150726318359375 468.122100830078125 471.301055908203125 468.93658447265625 465.083526611328125 456.730072021484375 447.249267578125 439.315765380859375 435.046661376953125 438.694000244140625 436.542022705078125 427.431427001953125 430.108612060546875 437.557769775390625 444.71826171875 452.352325439453125 452.063262939453125 
489.38580322265625 483.3265380859375 475.483795166015625 477.20477294921875 478.848052978515625 474.424041748046875 464.375213623046875 454.45147705078125 446.239654541015625 439.718017578125 443.68316650390625 447.4267578125 439.54522705078125 428.0098876953125 427.431427001953125 428.96319580078125 435.348907470703125 440.68768310546875 447.23388671875 
