ncols        19
nrows        32
xllcorner    299175.080884210533
yllcorner    1429348.617231579265
cellsize     910.138494736842
NODATA_value nan
418.0 415 405 394 384 381 373 373 381 392 397 392 395 400 399 399 404 405 407 
424 411 401 388 387 388 380 374 382 391 403 405 403 404 409 404 405 411 412 
417 409 396 392 398 391 385 375 380 397 405 411 411 412 414 413 409 411 419 
417 409 396 399 405 402 397 381 380 401 408 413 418 420 423 422 415 414 421 
406 403 402 407 403 398 396 383 381 401 410 418 420 425 431 424 420 418 423 
407 404 411 410 404 402 404 390 384 387 406 405 412 418 417 414 415 420 426 
412 409 419 417 412 412 407 398 392 387 395 402 405 411 408 409 413 420 428 
414 416 425 425 422 417 412 408 395 388 392 396 399 403 403 408 416 425 426 
421 424 431 432 423 414 403 400 392 391 394 394 396 399 403 410 419 420 422 
428 437 440 432 421 415 404 395 389 392 401 398 397 399 408 412 410 411 413 
437 447 438 431 426 419 408 401 392 393 395 394 396 397 401 403 405 407 409 
449 449 441 432 422 414 409 403 402 406 399 395 395 400 400 404 405 411 418 
458 456 441 432 426 419 416 413.79400634765625 411.873199462890625 411.12982177734375 404.16485595703125 399.4580078125 398 408 406 408 410 415 426 
465 459 444 439 435 431 424.09326171875 401 401 401 401 401 404.185089111328125 415 417 418 417 417 425 
450 444 439 433 426 423 422.70623779296875 401 401 401 401 401 410.81475830078125 416 418 426 427 421 424 
447 443 439 437 427 425 423 422.52593994140625 420.2197265625 415.4127197265625 401 401 401 411.747039794921875 413 419 425 431 428 
455 445 443 435 432 427 428 426 420 416.604248046875 401 401 401 401 415.1129150390625 415 421 428 437 
456 451 446 436 436 434 433 424 421 418 414.27850341796875 401 401 401 401 417.084197998046875 422 431 438 
461 455 447 445 447 441 437 431 424 417 413 414.3052978515625 401 401 413.8782958984375 416 421 435 444 
468 457 454 452 452 442 442 434 429 422 413 411.454925537109375 401 412.43682861328125 412 416 425 433 438 
460 457 457 448 445 441 433 433 423 414 409 411.35565185546875 401 412.912567138671875 417 421 424 424 429 
460 447 447 447 435 435 433 423 418 412 411 414.44525146484375 401 411.825653076171875 413 415 417 418 419 
457 450 443 436 432 428 426 422 423 417 424 426 417.08966064453125 412 412 411 411 414 418 
453 449 445 435 435 434 438 429 426 429 430 425 422 415 413 416 420 418 426 
455 447 443 443 442 444 439 434 438 437 434 429 420 413 414 419 433 429 432 
453 448 448 456 448 453 439 439 446 438 434 425 415 414 416 431 438 439 440 
451 448 456 458 455 448 445 450 448 438 432 427 420 414 418 428 438 454 456 
457 461 465 465 463 452 447 443 439 434 424 422 415 415 420 429 437 443 459 
460 471 476 462 455 452 447 441 438 431 429 422 415 416 419 428 442 444 454 
468 473 470 460 455 452 448 450 444 437 427 422 419 416 416 434 444 451 454 
476 474 467 461 461 460 457 448 439 432 430 432 432 419 419 430 434 441 443 
479 477 468 469 474 468 456 447 440 435 434 440 433 419 420 421 429 434 438 
