ncols        19
nrows        32
xllcorner    299175.080884210533
yllcorner    1429348.617231579265
cellsize     910.138494736842
NODATA_value nan
27230.0 26966 26701 26968 26969 26970 27236 27236 26971 26972 27240 27241 27241 26976 27244 27244 27246 27246 27247 
26699 26434 26701 26968 26969 26970 26970 26971 26705 26706 26707 26975 26976 26976 26978 26979 26979 26714 26982 
26433 26434 26701 26701 26702 26704 26439 26705 26439 26440 26707 26442 26710 26711 26711 26713 26714 26714 26449 
25900 26168 26435 26435 26437 26438 26173 26439 26439 26174 26441 26442 26444 26445 26446 26448 26448 26448 26449 
25901 26168 26168 26169 25905 25906 25907 26174 26174 25908 25643 25645 25645 25646 25648 25649 26182 26183 26183 
25635 25902 25902 25638 25905 25906 25907 25907 25908 25908 25643 25378 25379 25380 25382 25383 25383 25650 25651 
25635 25635 25635 25638 25638 25639 25641 25642 25642 25642 25377 25112 25113 25114 25116 25116 25383 25384 25385 
25369 25369 25369 25372 25372 24842 25375 25110 25111 25377 25111 25112 24847 24848 24849 25116 25117 25118 24855 
25102 25103 25103 24840 24841 24842 24577 24844 25111 25111 25111 25112 24847 24848 24849 24850 24851 24587 24588 
24836 24837 24837 24574 24575 24576 24577 24578 24845 24578 24579 24847 24847 24316 24583 24319 24320 24320 24321 
24570 24570 24307 24574 24043 24310 24577 24312 24578 24578 24579 24314 24315 24050 24317 24052 24319 24320 24321 
24304 24304 24041 24042 24043 24044 24045 24312 24312 24313 24313 24315 24049 24050 24317 24052 24319 24054 24322 
24038 23774 23775 24042 24043 24044 24045 24045 24046 23782 24049 24049 24050 23784 24052 24052 24054 24054 23789 
23240 23241 23775 23776 23777 23777 23779 23779 23515 23516 23517 23783 23517 23518 23786 23787 23788 23788 23523 
23241 23242 23243 23244 23245 23246 23247 23248 23515 23516 23517 23517 23518 23518 22987 22988 23522 23523 23523 
22975 22976 23243 22978 23245 23246 23247 23248 23249 23249 23249 22984 22720 22720 22987 22988 22723 23257 23257 
22709 22976 22711 22978 22978 22980 22981 22981 22717 22984 22984 22984 22719 22720 22456 22456 22723 22724 22725 
22709 22709 22445 22712 22713 22713 22449 22450 22717 22718 22719 22719 22720 22720 22189 22456 22457 22458 22725 
22443 22178 22445 22445 22446 22447 22449 22450 22185 22186 22453 22453 22189 22454 22189 22190 22191 22192 22459 
21911 22178 22178 22179 21915 21650 21650 21652 21653 21654 21654 21922 22189 21922 21923 21924 21925 21661 21661 
21379 21379 21380 21382 21382 21650 21385 21386 21653 21654 21921 21921 21922 21922 21657 21924 21394 21395 21396 
21379 21114 21115 21382 21117 21117 21385 21386 21387 21654 21654 21655 21656 21656 21391 21127 21128 21128 21129 
21379 21114 21115 21116 21117 21118 21119 21386 21387 21387 21388 21389 21390 21391 21391 21126 21127 21128 21129 
20581 21114 20849 21116 21117 21117 21118 21119 21121 21121 21121 21124 21124 21125 21126 21127 21128 21128 21129 
20581 20582 20849 20849 20850 20851 20853 20854 20854 20855 20857 20326 20593 20860 20593 20594 20595 20863 20863 
20315 20582 20582 20583 20584 20320 20587 20587 20587 20058 20325 20326 20593 20593 20593 20328 20595 20597 20598 
20049 20315 20049 20316 20318 20320 20320 20321 20057 19792 19792 20326 20061 20327 20061 20062 20063 20064 20332 
20049 20049 20049 20052 19787 19788 19523 19790 19525 19792 19793 19794 20061 20061 19795 19796 19797 19798 19799 
19781 19516 19519 19520 19521 19522 19523 19524 19525 19792 19527 19528 19794 19528 19529 19530 19531 19798 19533 
19516 19516 19253 19254 19255 19256 19523 19523 19525 19260 19261 19528 19528 19528 19263 19264 19531 19000 19002 
19249 18986 18987 19254 19255 19256 19256 18992 18993 19260 19261 19261 19262 19263 19264 18998 18733 18734 18735 
18983 18720 18987 18987 18988 18724 18725 18726 18993 18994 18994 18995 18731 18997 18731 18998 18733 18734 18735 
