ncols        19
nrows        32
xllcorner    299175.080884210533
yllcorner    1429348.617231579265
cellsize     910.138494736842
NODATA_value 255
589 590 591 592 593 594 595 596 597 598 599 600 601 602 603 604 605 606 607 
570 553 573 593 594 595 595 596 577 578 579 600 601 601 603 604 604 586 588 
551 553 573 573 574 576 558 577 558 559 579 561 582 583 583 585 586 586 569 
532 534 554 554 556 557 539 558 558 540 560 561 563 564 565 567 567 567 550 
513 534 534 535 518 519 520 540 540 521 503 505 505 506 508 509 548 549 531 
494 515 515 498 518 519 520 520 521 521 503 485 486 487 489 490 490 510 512 
475 495 495 498 498 499 501 502 502 502 484 466 467 468 470 470 490 491 493 
456 476 476 479 479 443 482 464 465 484 465 466 448 449 450 470 471 472 474 
437 457 457 441 442 443 425 445 465 465 465 466 448 449 450 451 452 435 455 
418 438 438 422 423 424 425 426 446 426 427 448 448 411 431 414 415 415 436 
399 418 402 422 385 405 425 407 426 426 427 409 410 392 412 394 414 415 417 
380 399 383 384 385 386 387 407 407 408 408 410 391 392 412 394 414 396 398 
361 363 364 384 385 386 387 387 388 371 391 391 392 373 394 394 396 396 379 
342 324 364 365 366 366 368 368 351 352 353 372 353 354 375 376 377 377 360 
323 325 326 327 328 329 330 331 351 352 353 353 354 354 317 318 358 359 341 
304 306 326 308 328 329 330 331 332 332 332 314 297 297 317 318 300 340 322 
285 306 288 308 308 310 311 311 294 314 314 314 296 297 280 280 300 301 303 
266 286 269 289 290 290 273 274 294 295 296 296 297 297 260 280 281 282 284 
247 249 269 269 270 271 273 274 256 257 277 277 260 278 260 261 262 263 265 
228 249 249 250 233 215 215 217 218 219 219 240 260 240 241 242 243 226 246 
209 191 192 194 194 215 197 198 218 219 239 239 240 240 222 242 206 207 227 
190 173 174 194 176 176 197 198 199 219 219 220 221 221 203 186 187 187 208 
171 173 174 175 176 177 178 198 199 199 200 201 202 203 203 185 186 187 189 
152 173 155 175 176 176 177 178 180 180 180 183 183 184 185 186 187 187 170 
133 135 155 155 156 157 159 160 160 161 163 126 146 166 146 147 148 169 151 
114 135 135 136 137 120 140 140 140 105 125 126 146 146 146 128 148 150 132 
95 115 96 116 118 120 120 121 104 86 86 126 108 127 108 109 110 111 113 
76 96 96 99 81 82 64 84 66 86 87 88 108 108 89 90 91 92 94 
57 57 60 61 62 63 64 65 66 86 68 69 88 69 70 71 72 92 75 
38 57 41 42 43 44 64 64 66 48 49 69 69 69 51 52 72 35 56 
19 21 22 42 43 44 44 27 28 48 49 49 50 51 52 33 15 16 37 
0 1 2 3 4 5 6 7 8 9 10 11 12 13 14 15 16 17 18 
