ncols        19
nrows        32
xllcorner    299175.080884210533
yllcorner    1429348.617231579265
cellsize     910.138494736842
NODATA_value -3.4028234663852885981e+38
0.0083330003544688224792 0.0083330003544688224792 0.0083330003544688224792 0.0083330003544688224792 0.0083330003544688224792 0.0083330003544688224792 0.0083330003544688224792 0.0083330003544688224792 0.0083330003544688224792 0.0083330003544688224792 0.0083330003544688224792 0.0083330003544688224792 0.0083330003544688224792 0.0083330003544688224792 0.0083330003544688224792 0.0083330003544688224792 0.0083330003544688224792 0.0083330003544688224792 0.0083330003544688224792 
0.0083330003544688224792 0.0083330003544688224792 0.0083330003544688224792 0.0083330003544688224792 0.0083330003544688224792 0.0083330003544688224792 0.0083330003544688224792 0.0083330003544688224792 0.0083330003544688224792 0.0083330003544688224792 0.0083330003544688224792 0.0083330003544688224792 0.0083330003544688224792 0.0083330003544688224792 0.0083330003544688224792 0.0083330003544688224792 0.0083330003544688224792 0.0083330003544688224792 0.0083330003544688224792 
0.0083330003544688224792 0.0083330003544688224792 0.0083330003544688224792 0.0083330003544688224792 0.0083330003544688224792 0.0083330003544688224792 0.0083330003544688224792 0.0083330003544688224792 0.0083330003544688224792 0.0083330003544688224792 0.0083330003544688224792 0.0083330003544688224792 0.0083330003544688224792 0.0083330003544688224792 0.0083330003544688224792 0.0083330003544688224792 0.0083330003544688224792 0.0083330003544688224792 0.0083330003544688224792 
0.0083330003544688224792 0.0083330003544688224792 0.0083330003544688224792 0.0083330003544688224792 0.0083330003544688224792 0.0083330003544688224792 0.0083330003544688224792 0.0083330003544688224792 0.0083330003544688224792 0.0083330003544688224792 0.0083330003544688224792 0.0083330003544688224792 0.0083330003544688224792 0.0083330003544688224792 0.0083330003544688224792 0.0083330003544688224792 0.0083330003544688224792 0.0083330003544688224792 0.0083330003544688224792 
0.0083330003544688224792 0.0083330003544688224792 0.0083330003544688224792 0.0083330003544688224792 0.0083330003544688224792 0.0083330003544688224792 0.0083330003544688224792 0.0083330003544688224792 0.0083330003544688224792 0.0083330003544688224792 0.0083330003544688224792 0.0083330003544688224792 0.0083330003544688224792 0.0083330003544688224792 0.0083330003544688224792 0.0083330003544688224792 0.0083330003544688224792 0.0083330003544688224792 0.0083330003544688224792 
0.0083330003544688224792 0.0083330003544688224792 0.0083330003544688224792 0.0083330003544688224792 0.0083330003544688224792 0.0083330003544688224792 0.0083330003544688224792 0.0083330003544688224792 0.0083330003544688224792 0.0083330003544688224792 0.0083330003544688224792 0.0083330003544688224792 0.0083330003544688224792 0.0083330003544688224792 0.0083330003544688224792 0.0083330003544688224792 0.0083330003544688224792 0.0083330003544688224792 0.0083330003544688224792 
0.0083330003544688224792 0.0083330003544688224792 0.0083330003544688224792 0.0083330003544688224792 0.0083330003544688224792 0.0083330003544688224792 0.0083330003544688224792 0.0083330003544688224792 0.0083330003544688224792 0.0083330003544688224792 0.0083330003544688224792 0.0083330003544688224792 0.0083330003544688224792 0.0083330003544688224792 0.0083330003544688224792 0.0083330003544688224792 0.0083330003544688224792 0.0083330003544688224792 0.0083330003544688224792 
0.0083330003544688224792 0.0083330003544688224792 0.0083330003544688224792 0.0083330003544688224792 0.0083330003544688224792 0.0083330003544688224792 0.0083330003544688224792 0.0083330003544688224792 0.0041669998317956924438 0.0083330003544688224792 0.0083330003544688224792 0.0083330003544688224792 0.0083330003544688224792 0.0083330003544688224792 0.0083330003544688224792 0.0083330003544688224792 0.0083330003544688224792 0.0083330003544688224792 0.0083330003544688224792 
0.0083330003544688224792 0.0083330003544688224792 0.0083330003544688224792 0.0083330003544688224792 0.0083330003544688224792 0.0083330003544688224792 0.0083330003544688224792 0.0083330003544688224792 0.0041669998317956924438 0.0041669998317956924438 0.0041669998317956924438 0.0041669998317956924438 0.0041669998317956924438 0.0041669998317956924438 0.0041669998317956924438 0.0083330003544688224792 0.0083330003544688224792 0.0083330003544688224792 0.0083330003544688224792 
0.0083330003544688224792 0.0083330003544688224792 0.0083330003544688224792 0.0083330003544688224792 0.0083330003544688224792 0.0083330003544688224792 0.0083330003544688224792 0.0041669998317956924438 0.0041669998317956924438 0.0041669998317956924438 0.0041669998317956924438 0.0041669998317956924438 0.0041669998317956924438 0.0041669998317956924438 0.0041669998317956924438 0.0041669998317956924438 0.0041669998317956924438 0.0041669998317956924438 0.0041669998317956924438 
0.0083330003544688224792 0.0083330003544688224792 0.0083330003544688224792 0.0083330003544688224792 0.0083330003544688224792 0.0083330003544688224792 0.0041669998317956924438 0.0041669998317956924438 0.0041669998317956924438 0.0041669998317956924438 0.0041669998317956924438 0.0041669998317956924438 0.0041669998317956924438 0.0041669998317956924438 0.0041669998317956924438 0.0041669998317956924438 0.0041669998317956924438 0.0041669998317956924438 0.0041669998317956924438 
0.0083330003544688224792 0.0083330003544688224792 0.0083330003544688224792 0.0083330003544688224792 0.0083330003544688224792 0.0041669998317956924438 0.0041669998317956924438 0.0041669998317956924438 0.0041669998317956924438 0.0041669998317956924438 0.0041669998317956924438 0.0041669998317956924438 0.0041669998317956924438 0.0041669998317956924438 0.0041669998317956924438 0.0041669998317956924438 0.0041669998317956924438 0.0041669998317956924438 0.0041669998317956924438 
0.0083330003544688224792 0.0083330003544688224792 0.0083330003544688224792 0.0083330003544688224792 0.0041669998317956924438 0.0041669998317956924438 0.0041669998317956924438 0.0041669998317956924438 0.0041669998317956924438 0.0041669998317956924438 0.0041669998317956924438 0.0041669998317956924438 0.0041669998317956924438 0.0041669998317956924438 0.0041669998317956924438 0.0041669998317956924438 0.0041669998317956924438 0.0041669998317956924438 0.0041669998317956924438 
0.0083330003544688224792 0.0083330003544688224792 0.0083330003544688224792 0.0041669998317956924438 0.0041669998317956924438 0.0041669998317956924438 0.0041669998317956924438 0.0041669998317956924438 0.0041669998317956924438 0.0041669998317956924438 0.0041669998317956924438 0.0041669998317956924438 0.0041669998317956924438 0.0041669998317956924438 0.0041669998317956924438 0.0041669998317956924438 0.0041669998317956924438 0.0041669998317956924438 0.0041669998317956924438 
0.0083330003544688224792 0.0083330003544688224792 0.0041669998317956924438 0.0041669998317956924438 0.0041669998317956924438 0.0041669998317956924438 0.0041669998317956924438 0.0041669998317956924438 0.0041669998317956924438 0.0041669998317956924438 0.0041669998317956924438 0.0041669998317956924438 0.0041669998317956924438 0.0041669998317956924438 0.0041669998317956924438 0.0041669998317956924438 0.0041669998317956924438 0.0041669998317956924438 0.0041669998317956924438 
0.0083330003544688224792 0.0083330003544688224792 0.0041669998317956924438 0.0041669998317956924438 0.0041669998317956924438 0.0041669998317956924438 0.0041669998317956924438 0.0041669998317956924438 0.0041669998317956924438 0.0041669998317956924438 0.0041669998317956924438 0.0041669998317956924438 0.0041669998317956924438 0.0041669998317956924438 0.0041669998317956924438 0.0041669998317956924438 0.0041669998317956924438 0.0041669998317956924438 0.0041669998317956924438 
0.0083330003544688224792 0.0041669998317956924438 0.0041669998317956924438 0.0041669998317956924438 0.0041669998317956924438 0.0041669998317956924438 0.0041669998317956924438 0.0041669998317956924438 0.0041669998317956924438 0.0041669998317956924438 0.0041669998317956924438 0.0041669998317956924438 0.0041669998317956924438 0.0041669998317956924438 0.0041669998317956924438 0.0041669998317956924438 0.0041669998317956924438 0.0041669998317956924438 0.0041669998317956924438 
0.0041669998317956924438 0.0041669998317956924438 0.0041669998317956924438 0.0041669998317956924438 0.0041669998317956924438 0.0041669998317956924438 0.0041669998317956924438 0.0041669998317956924438 0.0041669998317956924438 0.0041669998317956924438 0.0041669998317956924438 0.0041669998317956924438 0.0041669998317956924438 0.0041669998317956924438 0.0041669998317956924438 0.0041669998317956924438 0.0041669998317956924438 0.0041669998317956924438 0.0041669998317956924438 
0.0041669998317956924438 0.0041669998317956924438 0.0041669998317956924438 0.0041669998317956924438 0.0041669998317956924438 0.0041669998317956924438 0.0041669998317956924438 0.0041669998317956924438 0.0041669998317956924438 0.0041669998317956924438 0.0041669998317956924438 0.0041669998317956924438 0.0041669998317956924438 0.0041669998317956924438 0.0041669998317956924438 0.0041669998317956924438 0.0041669998317956924438 0.0041669998317956924438 0.0041669998317956924438 
0.0041669998317956924438 0.0041669998317956924438 0.0041669998317956924438 0.0041669998317956924438 0.0041669998317956924438 0.0041669998317956924438 0.0041669998317956924438 0.0041669998317956924438 0.0041669998317956924438 0.0041669998317956924438 0.0041669998317956924438 0.0041669998317956924438 0.0041669998317956924438 0.0041669998317956924438 0.0041669998317956924438 0.0041669998317956924438 0.0041669998317956924438 0.0041669998317956924438 0.0041669998317956924438 
0.0041669998317956924438 0.0041669998317956924438 0.0041669998317956924438 0.0041669998317956924438 0.0041669998317956924438 0.0041669998317956924438 0.0041669998317956924438 0.0041669998317956924438 0.0041669998317956924438 0.0041669998317956924438 0.0041669998317956924438 0.0041669998317956924438 0.0041669998317956924438 0.0041669998317956924438 0.0041669998317956924438 0.0041669998317956924438 0.0041669998317956924438 0.0041669998317956924438 0.0041669998317956924438 
0.0041669998317956924438 0.0041669998317956924438 0.0041669998317956924438 0.0041669998317956924438 0.0041669998317956924438 0.0041669998317956924438 0.0041669998317956924438 0.0041669998317956924438 0.0041669998317956924438 0.0041669998317956924438 0.0041669998317956924438 0.0041669998317956924438 0.0041669998317956924438 0.0041669998317956924438 0.0041669998317956924438 0.0041669998317956924438 0.0041669998317956924438 0.0041669998317956924438 0.0041669998317956924438 
0.0041669998317956924438 0.0041669998317956924438 0.0041669998317956924438 0.0041669998317956924438 0.0041669998317956924438 0.0041669998317956924438 0.0041669998317956924438 0.0041669998317956924438 0.0041669998317956924438 0.0041669998317956924438 0.0041669998317956924438 0.0041669998317956924438 0.0041669998317956924438 0.0041669998317956924438 0.0041669998317956924438 0.0041669998317956924438 0.0041669998317956924438 0.0041669998317956924438 0.0041669998317956924438 
0.0041669998317956924438 0.0041669998317956924438 0.0041669998317956924438 0.0041669998317956924438 0.0041669998317956924438 0.0041669998317956924438 0.0041669998317956924438 0.0041669998317956924438 0.0041669998317956924438 0.0041669998317956924438 0.0041669998317956924438 0.0041669998317956924438 0.0041669998317956924438 0.0041669998317956924438 0.0041669998317956924438 0.0041669998317956924438 0.0041669998317956924438 0.0041669998317956924438 0.0041669998317956924438 
0.0041669998317956924438 0.0041669998317956924438 0.0041669998317956924438 0.0041669998317956924438 0.0041669998317956924438 0.0041669998317956924438 0.0041669998317956924438 0.0041669998317956924438 0.0041669998317956924438 0.0041669998317956924438 0.0041669998317956924438 0.0041669998317956924438 0.0041669998317956924438 0.0041669998317956924438 0.0041669998317956924438 0.0041669998317956924438 0.0041669998317956924438 0.0041669998317956924438 0.0041669998317956924438 
0.0041669998317956924438 0.0041669998317956924438 0.0041669998317956924438 0.0041669998317956924438 0.0041669998317956924438 0.0041669998317956924438 0.0041669998317956924438 0.0041669998317956924438 0.0041669998317956924438 0.0041669998317956924438 0.0041669998317956924438 0.0041669998317956924438 0.0041669998317956924438 0.0041669998317956924438 0.0041669998317956924438 0.0041669998317956924438 0.0041669998317956924438 0.0041669998317956924438 0.0041669998317956924438 
0.0041669998317956924438 0.0041669998317956924438 0.0041669998317956924438 0.0041669998317956924438 0.0041669998317956924438 0.0041669998317956924438 0.0041669998317956924438 0.0041669998317956924438 0.0041669998317956924438 0.0041669998317956924438 0.0041669998317956924438 0.0041669998317956924438 0.0041669998317956924438 0.0041669998317956924438 0.0041669998317956924438 0.0041669998317956924438 0.0041669998317956924438 0.0041669998317956924438 0.0041669998317956924438 
0.0041669998317956924438 0.0041669998317956924438 0.0041669998317956924438 0.0041669998317956924438 0.0041669998317956924438 0.0041669998317956924438 0.0041669998317956924438 0.0041669998317956924438 0.0041669998317956924438 0.0041669998317956924438 0.0041669998317956924438 0.0041669998317956924438 0.0041669998317956924438 0.0041669998317956924438 0.0041669998317956924438 0.0041669998317956924438 0.0041669998317956924438 0.0041669998317956924438 0.0041669998317956924438 
0.0041669998317956924438 0.0041669998317956924438 0.0041669998317956924438 0.0041669998317956924438 0.0041669998317956924438 0.0041669998317956924438 0.0041669998317956924438 0.0041669998317956924438 0.0041669998317956924438 0.0041669998317956924438 0.0041669998317956924438 0.0041669998317956924438 0.0041669998317956924438 0.0041669998317956924438 0.0041669998317956924438 0.0041669998317956924438 0.0041669998317956924438 0.0041669998317956924438 0.0041669998317956924438 
0.0041669998317956924438 0.0041669998317956924438 0.0041669998317956924438 0.0041669998317956924438 0.0041669998317956924438 0.0041669998317956924438 0.0041669998317956924438 0.0041669998317956924438 0.0041669998317956924438 0.0041669998317956924438 0.0041669998317956924438 0.0041669998317956924438 0.0041669998317956924438 0.0041669998317956924438 0.0041669998317956924438 0.0041669998317956924438 0.0041669998317956924438 0.0041669998317956924438 0.0041669998317956924438 
0.0041669998317956924438 0.0041669998317956924438 0.0041669998317956924438 0.0041669998317956924438 0.0041669998317956924438 0.0041669998317956924438 0.0041669998317956924438 0.0041669998317956924438 0.0041669998317956924438 0.0041669998317956924438 0.0041669998317956924438 0.0041669998317956924438 0.0041669998317956924438 0.0041669998317956924438 0.0041669998317956924438 0.0041669998317956924438 0.0041669998317956924438 0.0041669998317956924438 0.0041669998317956924438 
0.0041669998317956924438 0.0041669998317956924438 0.0041669998317956924438 0.0041669998317956924438 0.0041669998317956924438 0.0041669998317956924438 0.0041669998317956924438 0.0041669998317956924438 0.0041669998317956924438 0.0041669998317956924438 0.0041669998317956924438 0.0041669998317956924438 0.0041669998317956924438 0.0041669998317956924438 0.0041669998317956924438 0.0041669998317956924438 0.0041669998317956924438 0.0041669998317956924438 0.0041669998317956924438 
