ncols        19
nrows        32
xllcorner    299175.080884210533
yllcorner    1429348.617231579265
cellsize     910.138494736842
NODATA_value nan
1500.0 1500 1500 1500 1500 1500 1500 1500 1500 1500 1500 1500 1500 1500 1500 1500 1500 1500 1500 
1500 1500 1500 1500 1500 1500 1500 1500 1500 1500 1500 1500 1500 1500 1500 1500 1500 1500 1500 
1500 1500 1500 1500 1500 1500 1500 1500 1500 1500 1500 1500 1500 1500 1500 1500 1500 1500 1500 
1500 1500 1500 1500 1500 1500 1500 1500 1500 1500 1500 1500 1500 1500 1500 1500 1500 1500 1500 
1500 1500 1500 1500 1500 1500 1500 1500 1500 1500 1500 1500 1500 1500 1500 1500 1240 1340 1500 
1500 1500 1500 1500 1500 1500 1500 1500 1500 1500 1500 1470 1500 1400 1400 1360 1410 1440 1500 
1500 1500 1500 1500 1500 1500 1500 1500 1500 1500 1500 1470 1500 1400 1400 1360 1500 1500 1500 
1500 1500 1500 1500 1500 1500 1500 1500 1500 1500 1450 1170 1370 1320 1320 1500 1500 1500 1500 
1500 1500 1500 1500 1500 1500 1500 1500 1500 1150 1150 1030 1140 1140 1250 1500 1500 1500 1500 
1500 1500 1500 1500 1500 1500 1500 1500 1150 1500 750 1150 1150 1150 1150 1500 1500 1500 1500 
1500 1500 1500 1500 1500 1500 1500 1150 1150 1150 750 400 750 750.00006103515625 1150 1150 1150 1500 1500 
1500 1500 1500 1500 1500 1500 1500 1500 1410 1150 1150 400.000030517578125 400.00006103515625 1500 1500 1500 1500 1500 1500 
1500 1500 1500 1500 1500 1500 1500 1150 1150 750 749.99993896484375 750 750 1150 1500 1500 1500 1500 1500 
1500 1500 1500 1500 1500 1500 1500 1500 750.00006103515625 750 10.000010490417480469 399.999969482421875 399.999969482421875 750 1150 1500 1500 1500 1500 
1500 1500 1500 1500 1500 1500 1500 1500 1500 750 10 10.000026702880859375 10.000010490417480469 399.999969482421875 750 1150 1500 1500 1500 
1500 1500 1500 1500 1500 1500 1500 1500 1500 750 10.000037193298339844 400 10 10.000009536743164062 400.000030517578125 1150 1500 1500 1500 
1500 1500 1500 1500 1500 1500 1500 1500 1150 750 400 400 10.000026702880859375 10.000009536743164062 400.000030517578125 1150 1500 1500 1500 
1500 1500 1500 1500 1500 1500 1500 1500 1460 1150 400.000030517578125 400.000030517578125 400 10.000009536743164062 400 750.00006103515625 1410 1500 1500 
1500 1500 1500 1500 1500 1500 1500 1500 1500 1500 750.00006103515625 749.99993896484375 400 10.000037193298339844 400.000030517578125 1150 1500 1500 1340 
1500 1500 1500 1500 1500 1500 1500 1500 1500 1500 1499.9998779296875 400 340 400 750 1500 1500 1460 1210 
1500 1500 1500 1500 1500 1500 1500 1500 1500 750.00006103515625 750.00006103515625 400.00006103515625 400.000030517578125 400 400.000030517578125 1499.9998779296875 1500 1290 1160 
1500 1500 1500 1500 1500 1500 1500 1500 1500 1500 1500 1500 750.00006103515625 400.00006103515625 400 400.000091552734375 1500 1150 1270 
1500 1500 1500 1500 1500 1500 1500 1500 1500 1500 1500 1500 1500 1150 400.00006103515625 1150 1500 1500 1500 
1500 1500 1500 1500 1500 1500 1500 1500 1500 1500 1500 1500 1500 1500 1150 1500 1500 1500 1500 
1500 1500 1500 1500 1500 1500 1500 1500 1500 1500 1500 1500 1500 1500 1500 1500 1500 1500 1500 
1500 1500 1500 1500 1500 1500 1500 1500 1500 1500 1500 1500 1500 1500 1500 1500 1500 1500 1500 
1450 1500 1490 1500 1500 1500 1500 1500 1500 1500 1500 1500 1500 1500 1500 1500 1500 1500 1500 
1500 1480 1440 1400 1490 1500 1500 1500 1500 1500 1500 1500 1500 1150 1500 1500 1500 1500 1500 
1500 1500 1500 1430 1500 1500 1500 1500 1500 1500 1500 1500 1500 1500 1500 1500 1500 1500 1500 
1500 1430 1500 1500 1500 1500 1500 1500 1500 1500 1500 1500 1500 1500 1500 1500 1500 1500 1500 
1150 1000 1490 1500 1500 1500 1500 1500 1500 1400 1400 1500 1500 1500 1500 1500 1500 1500 1500 
1260 1240 1500 1380 1270 1410 1500 1500 1490 1230 1460 1500 1500 1500 1500 1260 1260 1450 1500 
