ncols        19
nrows        32
xllcorner    299175.080884210533
yllcorner    1429348.617231579265
cellsize     910.138494736842
382.63763427734375 382.04681396484375 381.38140869140625 380.695159912109375 380.012969970703125 379.336669921875 378.795928955078125 373.202362060546875 379.163360595703125 380.298858642578125 381.4537353515625 382.837127685546875 384.517791748046875 386.448089599609375 388.55157470703125 390.787322998046875 393.140289306640625 395.58380126953125 398.093658447265625 
384.206787109375 383.601531982421875 382.923675537109375 382.226959228515625 381.5382080078125 380.731475830078125 379.7025146484375 380.33837890625 379.630096435546875 381.6009521484375 383.14404296875 384.584991455078125 386.26123046875 388.1915283203125 390.296875 392.521087646484375 394.8389892578125 397.234588623046875 399.69708251953125 
385.888580322265625 385.275634765625 384.58929443359375 383.877105712890625 383.12432861328125 381.74114990234375 376.753021240234375 363.8997802734375 373.647491455078125 381.635467529296875 384.7091064453125 386.352752685546875 387.990234375 389.877288818359375 391.956756591796875 394.15667724609375 396.441650390625 398.7978515625 401.22052001953125 
387.67755126953125 387.065338134765625 386.38177490234375 385.684478759765625 385.0283203125 384.18585205078125 381.758331298828125 374.74993896484375 371.327545166015625 381.2423095703125 386.13165283203125 388.145111083984375 389.732666015625 391.528778076171875 393.54608154296875 395.70306396484375 397.950286865234375 400.269622802734375 402.6563720703125 
389.564300537109375 388.961395263671875 388.2890625 387.61077880859375 387.022125244140625 386.493194580078125 385.5555419921875 384.404266357421875 395.244140625 386.12445068359375 388.0849609375 389.953216552734375 391.462188720703125 393.134857177734375 395.058135986328125 397.1539306640625 399.356170654296875 401.638397216796875 403.9927978515625 
391.535003662109375 390.948150634765625 390.292816162109375 389.63006591796875 389.063934326171875 388.625274658203125 387.973175048828125 387.096466064453125 395.873809814453125 386.9151611328125 389.243194580078125 391.532379150390625 393.07958984375 394.63897705078125 396.458404541015625 398.4869384765625 400.63970947265625 402.8841552734375 405.211456298828125 
393.571990966796875 393.00469970703125 392.367950439453125 391.716094970703125 391.150482177734375 390.754302978515625 390.331573486328125 389.243621826171875 387.98626708984375 393.2220458984375 390.503326416015625 392.902252197265625 394.488006591796875 395.951751708984375 397.687713623046875 399.67108154296875 401.7744140625 403.979705810546875 406.284332275390625 
395.656768798828125 395.108673095703125 394.487335205078125 393.837677001953125 393.245941162109375 392.8173828125 392.527252197265625 392.03857421875 391.154083251953125 396.32647705078125 392.901763916015625 394.450592041015625 395.686737060546875 396.97857666015625 398.674163818359375 400.692169189453125 402.735107421875 404.89263916015625 407.174072265625 
397.773162841796875 397.24066162109375 396.62841796875 395.9713134765625 395.33209228515625 394.785614013671875 394.2957763671875 393.425140380859375 390.893829345703125 388.6038818359375 394.32757568359375 396.15106201171875 396.84710693359375 397.841400146484375 399.638031005859375 401.628265380859375 403.49853515625 405.58917236328125 407.834869384765625 
399.910125732421875 399.387603759765625 398.775909423828125 398.101776123046875 397.404815673828125 396.70965576171875 395.85406494140625 393.6580810546875 384.889312744140625 388.8070068359375 395.4100341796875 396.429779052734375 397.43157958984375 398.139190673828125 399.978271484375 402.106658935546875 404.18878173828125 406.269317626953125 408.42364501953125 
402.061737060546875 401.543487548828125 400.923095703125 400.22332763671875 399.473785400390625 398.703460693359375 398.202789306640625 397.645721435546875 395.71875 396.36981201171875 393.24395751953125 390.798797607421875 395.954742431640625 396.97125244140625 399.914459228515625 402.655731201171875 404.99853515625 407.004608154296875 409.001007080078125 
404.22735595703125 403.708587646484375 403.07012939453125 402.33477783203125 401.526580810546875 400.958740234375 400.62139892578125 400.255828857421875 399.791259765625 399.630645751953125 397.705657958984375 391.73114013671875 394.958526611328125 397.82025146484375 399.924041748046875 403.517822265625 406.3084716796875 408.722869873046875 411.0018310546875 
406.4110107421875 405.8919677734375 405.221527099609375 404.439422607421875 403.86517333984375 403.441314697265625 402.88922119140625 402.228424072265625 401.45111083984375 400.49151611328125 398.10711669921875 389.867706298828125 396.142669677734375 399.2391357421875 401.913604736328125 404.972869873046875 407.823944091796875 410.432464599609375 412.91278076171875 
408.620513916015625 408.116912841796875 407.383148193359375 406.856292724609375 406.4638671875 405.878753662109375 405.08636474609375 404.05126953125 402.67742919921875 400.459747314453125 393.285980224609375 367.037811279296875 391.639678955078125 399.531494140625 403.125091552734375 406.264068603515625 409.20733642578125 411.945159912109375 414.53826904296875 
410.85791015625 410.454010009765625 409.886962890625 409.55780029296875 409.0404052734375 408.289093017578125 407.258514404296875 405.889007568359375 404.120452880859375 401.88092041015625 398.6182861328125 392.268218994140625 397.478057861328125 400.904754638671875 404.0052490234375 407.150115966796875 410.23577880859375 413.13653564453125 415.842864990234375 
413.057281494140625 412.639678955078125 412.56195068359375 412.212677001953125 411.6002197265625 410.691131591796875 409.424468994140625 407.721160888671875 405.539520263671875 402.9573974609375 400.204864501953125 397.84503173828125 398.6378173828125 400.91265869140625 403.9166259765625 407.300567626953125 410.73565673828125 413.93310546875 416.81927490234375 
415.235198974609375 415.171661376953125 415.228851318359375 414.87066650390625 414.1676025390625 413.10028076171875 411.5872802734375 409.502899169921875 406.755096435546875 403.428466796875 399.9359130859375 397.28924560546875 397.11212158203125 399.234375 402.63720703125 406.672393798828125 410.72412109375 414.36004638671875 417.492279052734375 
417.880584716796875 418.133331298828125 418.04339599609375 417.5887451171875 416.766754150390625 415.53125 413.768585205078125 411.29583740234375 407.942230224609375 403.75567626953125 399.26483154296875 395.69573974609375 394.79180908203125 396.98876953125 401.0223388671875 405.83197021484375 410.519989013671875 414.572357177734375 417.92584228515625 
421.027679443359375 421.160186767578125 420.942047119140625 420.36529541015625 419.40509033203125 417.996185302734375 416.006561279296875 413.228424072265625 409.45361328125 404.69683837890625 399.527130126953125 395.23419189453125 393.719573974609375 395.975921630859375 400.427490234375 405.612640380859375 410.55755615234375 414.76312255859375 418.18768310546875 
424.25750732421875 424.25537109375 423.906402587890625 423.19488525390625 422.08355712890625 420.499359130859375 418.31732177734375 415.362823486328125 411.474029541015625 406.637298583984375 401.33984375 396.59698486328125 394.4610595703125 396.913299560546875 401.590789794921875 406.528045654296875 411.079345703125 415.010345458984375 418.288848876953125 
427.547760009765625 427.40948486328125 426.927581787109375 426.075164794921875 424.805419921875 423.04248046875 420.68267822265625 417.63104248046875 413.8697509765625 409.256988525390625 404.18450927734375 398.874237060546875 395.864776611328125 399.058563232421875 404.15240478515625 408.250396728515625 411.7947998046875 415.1405029296875 418.171966552734375 
430.877166748046875 430.611175537109375 429.999908447265625 429.0106201171875 427.588226318359375 425.6497802734375 423.098388671875 419.902435302734375 416.460968017578125 412.008880615234375 407.665283203125 402.113677978515625 398.487762451171875 402.377655029296875 407.879852294921875 409.97320556640625 412.055084228515625 414.8955078125 417.887664794921875 
434.2379150390625 433.850860595703125 433.1192626953125 432.008697509765625 430.463592529296875 428.398101806640625 425.672119140625 421.995941162109375 419.669036865234375 416.452239990234375 412.90740966796875 408.856109619140625 406.29034423828125 409.121734619140625 415.4432373046875 411.495635986328125 411.35400390625 414.499481201171875 417.97637939453125 
437.61956787109375 437.115997314453125 436.273651123046875 435.064788818359375 433.451690673828125 431.39385986328125 428.8734130859375 425.997100830078125 423.38031005859375 420.60858154296875 417.799407958984375 415.052764892578125 413.157012939453125 413.3447265625 417.006256103515625 415.489013671875 416.24639892578125 418.353912353515625 420.947418212890625 
441.002197265625 440.38531494140625 439.439056396484375 438.143341064453125 436.48016357421875 434.440338134765625 432.052490234375 429.426055908203125 426.78082275390625 424.108367919921875 421.518646240234375 419.117401123046875 416.74945068359375 413.04730224609375 417.172698974609375 418.676971435546875 420.080657958984375 422.048095703125 424.3204345703125 
444.359405517578125 443.63385009765625 442.587860107421875 441.20654296875 439.482696533203125 437.42230224609375 435.059478759765625 432.468536376953125 429.75677490234375 426.993896484375 424.2945556640625 421.75048828125 419.33465576171875 418.77392578125 419.31982421875 421.1568603515625 423.057586669921875 425.20855712890625 427.509490966796875 
447.66290283203125 446.8367919921875 445.6954345703125 444.22515869140625 442.424224853515625 440.30389404296875 437.890289306640625 435.231109619140625 432.3914794921875 429.44488525390625 426.47515869140625 423.386199951171875 419.7105712890625 418.77392578125 420.595977783203125 423.07012939453125 425.455535888671875 427.900726318359375 430.3807373046875 
450.8897705078125 449.973236083984375 448.73968505859375 447.179840087890625 445.29241943359375 443.086639404296875 440.58050537109375 437.803192138671875 434.798370361328125 431.624481201171875 428.257293701171875 423.938232421875 419.8365478515625 418.1312255859375 421.81903076171875 424.759063720703125 427.508880615234375 430.248016357421875 432.958343505859375 
454.02593994140625 453.029052734375 451.707366943359375 450.058349609375 448.08135986328125 445.78094482421875 443.165374755859375 440.249114990234375 437.06610107421875 433.66973876953125 430.030517578125 425.6649169921875 422.6650390625 419.93414306640625 423.16632080078125 426.324859619140625 429.3331298828125 432.33905029296875 435.295684814453125 
457.056610107421875 455.990203857421875 454.58355712890625 452.848388671875 450.785491943359375 448.39263916015625 445.66552734375 442.60858154296875 439.2509765625 435.67291259765625 432.018768310546875 428.145782470703125 423.455078125 424.072509765625 423.95538330078125 427.573822021484375 430.915985107421875 434.21185302734375 437.433380126953125 
459.951629638671875 458.822021484375 457.342620849609375 455.534332275390625 453.39556884765625 450.9200439453125 448.09454345703125 444.90728759765625 441.35662841796875 437.48138427734375 433.7530517578125 430.488006591796875 426.67449951171875 427.431427001953125 425.49420166015625 428.48211669921875 432.223297119140625 435.888702392578125 439.405242919921875 
462.6641845703125 461.470001220703125 459.9454345703125 458.093780517578125 455.897369384765625 453.35888671875 450.465576171875 447.18475341796875 443.42193603515625 438.79327392578125 436.053802490234375 432.72271728515625 428.9176025390625 428.0098876953125 425.9544677734375 428.13116455078125 433.2255859375 437.428558349609375 441.25537109375 
