ncols        19
nrows        32
xllcorner    299175.080884210533
yllcorner    1429348.617231579265
cellsize     910.138494736842
NODATA_value nan
322.26226806640625 319.048095703125 311.73846435546875 301.78564453125 292.884033203125 287.530181884765625 281.83856201171875 282.340972900390625 288.08575439453125 296.0877685546875 302.2664794921875 301.715057373046875 302.161865234375 304.023101806640625 304.690887451171875 303.937957763671875 306.414459228515625 310.11859130859375 312.607696533203125 
325.374359130859375 318.6436767578125 308.24224853515625 299.00054931640625 295.993560791015625 293.025299072265625 286.414276123046875 282.8787841796875 289.620086669921875 299.23822021484375 308.09033203125 309.008575439453125 307.8572998046875 309.298919677734375 312.6278076171875 310.796661376953125 310.479156494140625 315.30950927734375 318.311309814453125 
323.310028076171875 315.6181640625 305.739410400390625 302.410919189453125 304.88519287109375 301.931365966796875 295.811798095703125 286.23565673828125 292.3443603515625 302.8060302734375 310.26531982421875 313.83453369140625 315.262237548828125 316.66082763671875 321.22064208984375 320.0994873046875 315.687774658203125 318.118743896484375 324.251190185546875 
322.14556884765625 313.53790283203125 307.348052978515625 307.693450927734375 308.676727294921875 304.94061279296875 300.672149658203125 290.013427734375 294.584075927734375 305.40533447265625 312.73040771484375 318.870697021484375 322.694793701171875 325.326568603515625 330.074371337890625 328.062744140625 321.19305419921875 320.727325439453125 327.0281982421875 
316.428863525390625 310.450927734375 311.283447265625 311.55682373046875 308.061004638671875 304.06866455078125 303.832366943359375 294.86810302734375 296.72174072265625 307.204559326171875 314.972503662109375 319.782135009765625 324.73541259765625 329.49737548828125 331.9708251953125 328.47235107421875 323.51898193359375 323.70391845703125 329.63494873046875 
315.053192138671875 312.939910888671875 316.975189208984375 316.062225341796875 311.525726318359375 308.3646240234375 308.01934814453125 300.636993408203125 297.0504150390625 304.1571044921875 310.78228759765625 313.69818115234375 319.296722412109375 325.1180419921875 324.792877197265625 321.28094482421875 320.924041748046875 325.058197021484375 332.88916015625 
319.1380615234375 318.703521728515625 323.1624755859375 322.525360107421875 319.18634033203125 315.865814208984375 313.06683349609375 307.207244873046875 299.216705322265625 298.30938720703125 302.575225830078125 306.16571044921875 311.56793212890625 316.480621337890625 315.11859130859375 314.9317626953125 319.416778564453125 325.75079345703125 332.864654541015625 
323.074310302734375 324.67791748046875 330.13128662109375 330.5986328125 326.260650634765625 321.016998291015625 315.764495849609375 310.752349853515625 301.517791748046875 295.92816162109375 297.2623291015625 300.680328369140625 305.030059814453125 308.425506591796875 309.042938232421875 314.99078369140625 322.879669189453125 327.347381591796875 329.816741943359375 
329.4105224609375 333.31036376953125 337.8521728515625 335.736328125 328.960205078125 320.872894287109375 313.148162841796875 306.671783447265625 298.84686279296875 297.4339599609375 299.5078125 299.6026611328125 301.50250244140625 304.414825439453125 308.96197509765625 317.70135498046875 322.65771484375 324.614593505859375 326.024444580078125 
338.502044677734375 343.334503173828125 343.931396484375 337.65234375 330.3763427734375 321.46630859375 312.616943359375 304.011932373046875 296.974395751953125 298.626922607421875 302.661529541015625 301.490966796875 300.99114990234375 304.617828369140625 311.17529296875 316.43115234375 316.1373291015625 317.2598876953125 320.113372802734375 
347.880096435546875 350.230377197265625 345.64617919921875 337.58941650390625 330.13470458984375 322.3702392578125 313.96234130859375 305.805816650390625 301.248199462890625 302.00274658203125 302.10504150390625 301.630859375 301.478118896484375 303.67584228515625 308.12744140625 310.603973388671875 311.833953857421875 314.627166748046875 317.975982666015625 
357.203887939453125 355.5389404296875 346.735870361328125 336.815093994140625 329.173583984375 322.12664794921875 316.2425537109375 309.869659423828125 308.39703369140625 309.1346435546875 304.512176513671875 301.4376220703125 303.29229736328125 305.23406982421875 306.05718994140625 308.644134521484375 312.604217529296875 320.424591064453125 325.04302978515625 
367.01739501953125 362.369659423828125 350.400299072265625 339.450653076171875 332.80718994140625 327.20703125 323.159149169921875 317.588043212890625 314.74639892578125 313.259674072265625 307.329681396484375 301.916046142578125 306.925048828125 313.26129150390625 313.38470458984375 314.6219482421875 316.70001220703125 324.209197998046875 330.244781494140625 
368.196746826171875 363.104705810546875 350.779693603515625 341.723724365234375 336.49908447265625 332.35064697265625 327.186492919921875 322.028472900390625 318.15472412109375 313.84417724609375 309.089385986328125 305.484527587890625 311.37017822265625 320.555267333984375 321.54803466796875 322.087799072265625 323.671173095703125 324.110443115234375 330.112030029296875 
359.197540283203125 354.2359619140625 346.083465576171875 340.52154541015625 334.87872314453125 330.8519287109375 326.412445068359375 322.604644775390625 319.4610595703125 315.50592041015625 312.00860595703125 310.940948486328125 313.629547119140625 320.239715576171875 323.7930908203125 327.269927978515625 330.68011474609375 329.571136474609375 331.424896240234375 
356.032623291015625 349.465911865234375 345.207244873046875 340.158599853515625 334.148773193359375 330.07550048828125 328.104583740234375 326.051910400390625 322.439483642578125 317.825408935546875 312.844573974609375 312 312.50640869140625 314.49407958984375 320.5240478515625 325.712127685546875 331.1939697265625 335.2529296875 335.789642333984375 
360.318756103515625 353.807891845703125 348.877288818359375 341.59088134765625 337.4400634765625 333.9222412109375 332.375823974609375 329.92291259765625 324.949432373046875 319.208526611328125 314.021881103515625 312.18438720703125 312.000030517578125 312.857940673828125 317.225830078125 320.84210205078125 328.003509521484375 335.765228271484375 342.330657958984375 
365.3818359375 358.40283203125 351.36895751953125 345.303375244140625 343.18865966796875 340.4598388671875 338.654876708984375 333.172637939453125 326.708648681640625 321.57415771484375 316.5570068359375 313.8629150390625 312.212371826171875 313.49822998046875 316.01812744140625 320.16839599609375 327.17620849609375 337.501983642578125 348.1798095703125 
371.114349365234375 362.12860107421875 355.339111328125 352.342254638671875 350.810699462890625 348.062103271484375 344.798309326171875 337.550567626953125 330.6435546875 324.473480224609375 318.608184814453125 315.610595703125 312.441802978515625 314.615203857421875 316.756561279296875 321.722015380859375 329.751983642578125 342.349029541015625 350.760040283203125 
371.8748779296875 365.502197265625 362.004974365234375 357.8189697265625 354.54010009765625 350.1746826171875 345.57208251953125 340.0792236328125 333.10028076171875 325.928680419921875 318.890167236328125 313.90985107421875 312.47076416015625 315.873687744140625 318.68670654296875 323.715240478515625 330.928680419921875 339.699432373046875 344.1600341796875 
367.9080810546875 363.29345703125 362.987945556640625 356.41241455078125 352.173004150390625 347.44244384765625 341.632781982421875 338.40228271484375 330.998443603515625 322.40875244140625 316.701507568359375 313.711334228515625 312.746337890625 316.82513427734375 320.971649169921875 324.759857177734375 328.804168701171875 332.88006591796875 336.954376220703125 
365.068939208984375 357.943145751953125 355.600494384765625 350.941253662109375 345.089385986328125 342.505615234375 336.54119873046875 332.126708984375 326.473236083984375 321.13189697265625 320.4110107421875 320.890533447265625 315.584747314453125 314.65130615234375 316.83111572265625 319.28192138671875 322.669769287109375 326.18585205078125 326.62744140625 
364.05755615234375 357.707977294921875 351.778045654296875 345.37115478515625 339.959503173828125 337.096923828125 336.00274658203125 332.068145751953125 327.33966064453125 327.261077880859375 330.232452392578125 330.953704833984375 323.179290771484375 317.439666748046875 315.4432373046875 317.2379150390625 319.730255126953125 321.481597900390625 324.598114013671875 
362.509124755859375 357.2640380859375 351.7578125 345.16387939453125 343.306549072265625 342.3912353515625 342.357757568359375 337.428131103515625 334.01641845703125 334.45440673828125 334.893096923828125 331.690704345703125 326.433807373046875 319.38275146484375 317.006256103515625 322.662994384765625 328.279571533203125 328.32080078125 331.7470703125 
360.772064208984375 352.95074462890625 351.271881103515625 353.769256591796875 349.83355712890625 352.232574462890625 346.29913330078125 341.1978759765625 343.74468994140625 341.2838134765625 337.4139404296875 332.7620849609375 327.36846923828125 318.77392578125 321.13531494140625 330.112152099609375 339.610687255859375 337.828582763671875 339.97161865234375 
360.795257568359375 353.864501953125 356.17413330078125 360.124755859375 355.509857177734375 356.41571044921875 348.739471435546875 348.66961669921875 351.830596923828125 343.96832275390625 337.334991455078125 332.837371826171875 324.979278564453125 318.501953125 327.261749267578125 335.229949951171875 343.9434814453125 348.524810791015625 350.456634521484375 
359.0296630859375 359.33563232421875 363.13946533203125 364.81842041015625 361.4447021484375 355.6793212890625 352.549468994140625 353.621917724609375 353.048675537109375 343.730072021484375 336.11981201171875 331.3834228515625 325.4774169921875 318.51300048828125 327.1041259765625 334.3411865234375 345.60223388671875 357.019195556640625 365.1754150390625 
363.801422119140625 368.6148681640625 373.610931396484375 371.413177490234375 366.395538330078125 358.55987548828125 354.233642578125 349.751953125 346.6192626953125 341.416412353515625 335.07220458984375 331.042877197265625 324.506439208984375 319.067169189453125 326.930633544921875 334.2734375 346.20806884765625 355.03094482421875 372.0406494140625 
370.580078125 376.771484375 380.011383056640625 371.602813720703125 363.061431884765625 358.823699951171875 352.273681640625 348.112335205078125 343.965057373046875 339.17657470703125 336.215057373046875 330.208282470703125 322.6650390625 321.489501953125 328.18646240234375 337.3963623046875 346.814208984375 354.091156005859375 362.9296875 
376.256927490234375 381.281585693359375 377.75372314453125 368.900238037109375 363.148956298828125 359.80889892578125 356.54339599609375 355.57818603515625 348.396087646484375 341.071563720703125 335.663482666015625 331.119140625 328.351715087890625 324.072509765625 327.627899169921875 340.278961181640625 350.714630126953125 358.88250732421875 362.060394287109375 
383.929107666015625 383.307037353515625 374.150726318359375 368.122100830078125 371.301055908203125 368.93658447265625 365.083526611328125 356.730072021484375 347.249267578125 339.315765380859375 335.046661376953125 338.694000244140625 336.542022705078125 327.431427001953125 330.108612060546875 337.557769775390625 344.71826171875 352.352325439453125 352.063262939453125 
389.38580322265625 383.3265380859375 375.483795166015625 377.20477294921875 378.848052978515625 374.424041748046875 364.375213623046875 354.45147705078125 346.239654541015625 339.718017578125 343.68316650390625 347.4267578125 339.54522705078125 328.0098876953125 327.017608642578125 328.96319580078125 335.348907470703125 340.68768310546875 347.23388671875 
