ncols        19
nrows        32
xllcorner    299175.080884210533
yllcorner    1429348.617231579265
cellsize     910.138494736842
0.0 0 0 0 0 0 0 0 0 0 0 0 0 0 0 0 0 0 0 
0 0 0 0 0 0 0 0 0 0 0 0 0 0 0 0 0 0 0 
0 0 0 0 0 0 0 31697.021484375 0 0 0 0 0 0 0 0 0 0 0 
0 0 0 0 0 0 0 0 52192.78125 0 0 0 0 0 0 0 0 0 0 
0 0 0 0 0 0 0 0 0 0 0 0 0 0 0 0 0 0 0 
0 0 0 0 0 0 0 0 0 0 0 0 0 0 0 0 0 0 0 
0 0 0 0 0 0 0 0 0 0 0 0 0 0 0 0 0 0 0 
0 0 0 0 0 0 0 0 0 0 0 0 0 0 0 0 0 0 0 
0 0 0 0 0 0 0 0 0 20140.84765625 0 0 0 0 0 0 0 0 0 
0 0 0 0 0 0 0 0 25487.19140625 16769.8203125 0 0 0 0 0 0 0 0 0 
0 0 0 0 0 0 0 0 0 0 13183.767578125 15105.4912109375 0 0 0 0 0 0 0 
0 0 0 0 0 0 0 0 0 0 0 14679.8271484375 0 0 0 0 0 0 0 
0 0 0 0 0 0 0 0 0 0 0 13730.4658203125 0 0 0 0 0 0 0 
0 0 0 0 0 0 0 0 0 0 18625.447265625 24752.69140625 0 0 0 0 0 0 0 
0 0 0 0 0 0 0 0 0 21988.73046875 0 0 0 0 0 0 0 0 0 
0 0 0 0 0 0 0 0 0 0 21561.951171875 0 0 0 0 0 0 0 0 
0 0 0 0 0 0 0 0 0 0 0 19142.412109375 33634.37890625 0 0 0 0 0 0 
0 0 0 0 0 0 0 0 0 0 0 0 33613.71875 0 0 0 0 0 0 
0 0 0 0 0 0 0 0 0 0 0 0 0 25393.212890625 0 0 0 0 0 
0 0 0 0 0 0 0 0 0 0 0 15799.87109375 23643.58203125 0 0 0 0 0 0 
0 0 0 0 0 0 0 0 0 0 0 0 17109.38671875 0 0 0 0 0 0 
0 0 0 0 0 0 0 0 0 0 0 0 0 11672.662109375 0 0 0 0 0 
0 0 0 0 0 0 0 0 0 0 0 0 0 0 0 0 0 0 1716.884765625 
0 0 0 0 0 0 0 0 0 0 0 0 0 0 0 0 0 0 0 
0 0 0 0 0 0 0 0 0 0 0 0 0 16300.3818359375 0 0 0 0 0 
0 0 0 0 0 0 0 0 0 0 0 0 0 0 0 0 0 0 0 
0 0 0 0 0 0 0 0 0 0 0 0 0 0 0 0 0 0 0 
0 0 0 0 0 0 0 0 0 0 0 0 0 0 0 0 0 0 0 
0 0 0 0 0 0 0 0 0 0 0 0 0 0 0 0 0 0 0 
0 0 0 0 0 0 0 0 0 0 0 0 0 0 0 0 0 0 0 
0 0 0 0 0 0 0 0 0 0 0 0 0 0 0 0 0 0 0 
0 0 0 0 0 0 0 0 0 0 0 0 0 0 0 0 0 0 0 
