ncols        19
nrows        32
xllcorner    299175.080884210533
yllcorner    1429348.617231579265
cellsize     910.138494736842
NODATA_value nan
0.14058314263820648193 0.14448821544647216797 0.14058314263820648193 0.14058314263820648193 0.14448821544647216797 0.14058314263820648193 0.14058314263820648193 0.14058314263820648193 0.14058314263820648193 0.14448821544647216797 0.14448821544647216797 0.14448821544647216797 0.1366780400276184082 0.14448821544647216797 0.14058314263820648193 0.14058314263820648193 0.15577748417854309082 0.15577748417854309082 0.15577748417854309082 
0.14058314263820648193 0.14448821544647216797 0.14448821544647216797 0.14058314263820648193 0.14448821544647216797 0.14448821544647216797 0.14448821544647216797 0.14058314263820648193 0.12971010804176330566 0.13331314921379089355 0.13331314921379089355 0.12971010804176330566 0.13331314921379089355 0.14448821544647216797 0.14448821544647216797 0.14448821544647216797 0.14448821544647216797 0.15577748417854309082 0.15145032107830047607 
0.14448821544647216797 0.14448821544647216797 0.14448821544647216797 0.14448821544647216797 0.14448821544647216797 0.14058314263820648193 0.12971010804176330566 0.12971010804176330566 0.12971010804176330566 0.13331314921379089355 0.13331314921379089355 0.13331314921379089355 0.13331314921379089355 0.12971010804176330566 0.12971010804176330566 0.12971010804176330566 0.13331314921379089355 0.15145032107830047607 0.15577748417854309082 
0.14839330315589904785 0.14058314263820648193 0.14058314263820648193 0.14448821544647216797 0.12971010804176330566 0.12971010804176330566 0.12971010804176330566 0.12971010804176330566 0.12971010804176330566 0.12971010804176330566 0.13331314921379089355 0.13331314921379089355 0.12971010804176330566 0.12971010804176330566 0.12971010804176330566 0.12971010804176330566 0.13331314921379089355 0.15145032107830047607 0.15145032107830047607 
0.14839330315589904785 0.14058314263820648193 0.14058314263820648193 0.14448821544647216797 0.12971010804176330566 0.12971010804176330566 0.13331314921379089355 0.13331314921379089355 0.12971010804176330566 0.13331314921379089355 0.12971010804176330566 0.12971010804176330566 0.12971010804176330566 0.12971010804176330566 0.12971010804176330566 0.12610703706741333008 0.12610703706741333008 0.12971010804176330566 0.12971010804176330566 
0.14058314263820648193 0.14448821544647216797 0.12971010804176330566 0.13331314921379089355 0.12971010804176330566 0.12971010804176330566 0.13331314921379089355 0.13331314921379089355 0.12971010804176330566 0.13331314921379089355 0.12971010804176330566 0.12250396609306335449 0.12610703706741333008 0.12610703706741333008 0.12610703706741333008 0.12971010804176330566 0.12971010804176330566 0.12610703706741333008 0.12610703706741333008 
0.14448821544647216797 0.13331314921379089355 0.12971010804176330566 0.13331314921379089355 0.12971010804176330566 0.12971010804176330566 0.13331314921379089355 0.13331314921379089355 0.12971010804176330566 0.12971010804176330566 0.12971010804176330566 0.12250396609306335449 0.12610703706741333008 0.12610703706741333008 0.12610703706741333008 0.12971010804176330566 0.12610703706741333008 0.12610703706741333008 0.12610703706741333008 
0.13331314921379089355 0.13331314921379089355 0.12971010804176330566 0.12971010804176330566 0.12971010804176330566 0.12971010804176330566 0.13331314921379089355 0.12971010804176330566 0.12610703706741333008 0.12610703706741333008 0.12610703706741333008 0.12610703706741333008 0.12610703706741333008 0.12610703706741333008 0.12610703706741333008 0.12610703706741333008 0.12610703706741333008 0.12610703706741333008 0.12610703706741333008 
0.13331314921379089355 0.13331314921379089355 0.12971010804176330566 0.12971010804176330566 0.12971010804176330566 0.12971010804176330566 0.12610703706741333008 0.12610703706741333008 0.12610703706741333008 0.12971010804176330566 0.13331314921379089355 0.12250396609306335449 0.12971010804176330566 0.12971010804176330566 0.12971010804176330566 0.12610703706741333008 0.12971010804176330566 0.12610703706741333008 0.12610703706741333008 
0.13691622018814086914 0.12971010804176330566 0.12971010804176330566 0.13331314921379089355 0.13331314921379089355 0.12971010804176330566 0.12610703706741333008 0.12610703706741333008 0.12610703706741333008 0.12610703706741333008 0.13331314921379089355 0.12971010804176330566 0.12971010804176330566 0.12971010804176330566 0.12971010804176330566 0.12250396609306335449 0.12610703706741333008 0.12610703706741333008 0.12971010804176330566 
0.13331314921379089355 0.13331314921379089355 0.12971010804176330566 0.12971010804176330566 0.12971010804176330566 0.12971010804176330566 0.12610703706741333008 0.12610703706741333008 0.13331314921379089355 0.12610703706741333008 0.13331314921379089355 0.13331314921379089355 0.12610703706741333008 0.12610703706741333008 0.12610703706741333008 0.12610703706741333008 0.12971010804176330566 0.12610703706741333008 0.12610703706741333008 
0.13331314921379089355 0.13331314921379089355 0.12971010804176330566 0.12971010804176330566 0.12971010804176330566 0.12971010804176330566 0.12610703706741333008 0.12610703706741333008 0.12610703706741333008 0.13331314921379089355 0.12971010804176330566 0.12971010804176330566 0.12971010804176330566 0.12971010804176330566 0.12971010804176330566 0.12971010804176330566 0.12610703706741333008 0.12610703706741333008 0.12971010804176330566 
0.13331314921379089355 0.13331314921379089355 0.12971010804176330566 0.12971010804176330566 0.12971010804176330566 0.12610703706741333008 0.12610703706741333008 0.12610703706741333008 0.12610703706741333008 0.12971010804176330566 0.13331314921379089355 0.12971010804176330566 0.12971010804176330566 0.12971010804176330566 0.12610703706741333008 0.12610703706741333008 0.12971010804176330566 0.12971010804176330566 0.12971010804176330566 
0.13331314921379089355 0.13331314921379089355 0.12971010804176330566 0.12971010804176330566 0.12971010804176330566 0.12971010804176330566 0.12971010804176330566 0.12610703706741333008 0.12971010804176330566 0.14051926136016845703 0.14772538840770721436 0.13691622018814086914 0.13691622018814086914 0.12610703706741333008 0.12610703706741333008 0.12610703706741333008 0.12610703706741333008 0.12971010804176330566 0.12971010804176330566 
0.13331314921379089355 0.13331314921379089355 0.12971010804176330566 0.12971010804176330566 0.12971010804176330566 0.12971010804176330566 0.12610703706741333008 0.12610703706741333008 0.12610703706741333008 0.12610703706741333008 0.11529786884784698486 0.11529786884784698486 0.11529786884784698486 0.13691622018814086914 0.12971010804176330566 0.12250396609306335449 0.12610703706741333008 0.12610703706741333008 0.12971010804176330566 
0.12971010804176330566 0.12971010804176330566 0.12971010804176330566 0.12971010804176330566 0.12971010804176330566 0.12971010804176330566 0.12610703706741333008 0.12610703706741333008 0.12610703706741333008 0.12610703706741333008 0.11529786884784698486 0.14772538840770721436 0.11529786884784698486 0.15132842957973480225 0.14772538840770721436 0.12610703706741333008 0.12971010804176330566 0.12610703706741333008 0.12971010804176330566 
0.12971010804176330566 0.12971010804176330566 0.12971010804176330566 0.12610703706741333008 0.12610703706741333008 0.12971010804176330566 0.12610703706741333008 0.12610703706741333008 0.12610703706741333008 0.12610703706741333008 0.14772538840770721436 0.14772538840770721436 0.11529786884784698486 0.15132842957973480225 0.14772538840770721436 0.12610703706741333008 0.12971010804176330566 0.12610703706741333008 0.12610703706741333008 
0.12971010804176330566 0.13331314921379089355 0.13331314921379089355 0.12610703706741333008 0.12610703706741333008 0.12610703706741333008 0.12971010804176330566 0.12971010804176330566 0.12610703706741333008 0.12250396609306335449 0.13691622018814086914 0.13691622018814086914 0.14772538840770721436 0.15493148565292358398 0.13691622018814086914 0.12971010804176330566 0.12971010804176330566 0.12610703706741333008 0.12610703706741333008 
0.12971010804176330566 0.12971010804176330566 0.12971010804176330566 0.12971010804176330566 0.12971010804176330566 0.12971010804176330566 0.12971010804176330566 0.13331314921379089355 0.12971010804176330566 0.12610703706741333008 0.12250396609306335449 0.12250396609306335449 0.14412231743335723877 0.15493148565292358398 0.14051926136016845703 0.12610703706741333008 0.12971010804176330566 0.12610703706741333008 0.12971010804176330566 
0.12610703706741333008 0.12610703706741333008 0.12971010804176330566 0.12971010804176330566 0.12610703706741333008 0.12610703706741333008 0.12610703706741333008 0.12250396609306335449 0.12610703706741333008 0.12250396609306335449 0.12250396609306335449 0.12610703706741333008 0.14772538840770721436 0.13691622018814086914 0.12610703706741333008 0.12250396609306335449 0.12951602041721343994 0.12951602041721343994 0.12951602041721343994 
0.12610703706741333008 0.12610703706741333008 0.12610703706741333008 0.12610703706741333008 0.12610703706741333008 0.12610703706741333008 0.12610703706741333008 0.12610703706741333008 0.12250396609306335449 0.12971010804176330566 0.12971010804176330566 0.13691690564155578613 0.15541920065879821777 0.14431783556938171387 0.12951602041721343994 0.12951602041721343994 0.12581554055213928223 0.13321647047996520996 0.13321647047996520996 
0.12610703706741333008 0.12610703706741333008 0.12610703706741333008 0.12610703706741333008 0.12610703706741333008 0.12971010804176330566 0.12610703706741333008 0.12610703706741333008 0.12971010804176330566 0.12250396609306335449 0.12250396609306335449 0.12581554055213928223 0.12951602041721343994 0.14061737060546875 0.13321647047996520996 0.13321647047996520996 0.13321647047996520996 0.13321647047996520996 0.13321647047996520996 
0.12610703706741333008 0.12610703706741333008 0.12610703706741333008 0.12610703706741333008 0.12610703706741333008 0.12610703706741333008 0.12581554055213928223 0.12951602041721343994 0.12951602041721343994 0.12951602041721343994 0.12581554055213928223 0.12951602041721343994 0.12951602041721343994 0.12581554055213928223 0.12951602041721343994 0.12951602041721343994 0.13321647047996520996 0.12951602041721343994 0.12951602041721343994 
0.12610703706741333008 0.1189009249210357666 0.12581554055213928223 0.12951602041721343994 0.12951602041721343994 0.12951602041721343994 0.12951602041721343994 0.12951602041721343994 0.12951602041721343994 0.12951602041721343994 0.12581554055213928223 0.12951602041721343994 0.12951602041721343994 0.12951602041721343994 0.12581554055213928223 0.12951602041721343994 0.12581554055213928223 0.12581554055213928223 0.12581554055213928223 
0.12951602041721343994 0.12211507558822631836 0.12581554055213928223 0.12951602041721343994 0.12951602041721343994 0.12951602041721343994 0.12951602041721343994 0.12951602041721343994 0.12951602041721343994 0.12951602041721343994 0.12951602041721343994 0.12581554055213928223 0.12951602041721343994 0.13691690564155578613 0.12581554055213928223 0.12951602041721343994 0.12951602041721343994 0.12951602041721343994 0.12951602041721343994 
0.12581554055213928223 0.12581554055213928223 0.12581554055213928223 0.12581554055213928223 0.12951602041721343994 0.12581554055213928223 0.12951602041721343994 0.12951602041721343994 0.12951602041721343994 0.12951602041721343994 0.12951602041721343994 0.12581554055213928223 0.12951602041721343994 0.13691690564155578613 0.12581554055213928223 0.12951602041721343994 0.12951602041721343994 0.12951602041721343994 0.12951602041721343994 
0.12951602041721343994 0.12951602041721343994 0.12581554055213928223 0.12951602041721343994 0.13321647047996520996 0.12951602041721343994 0.12951602041721343994 0.12581554055213928223 0.12581554055213928223 0.12951602041721343994 0.12951602041721343994 0.12581554055213928223 0.12951602041721343994 0.13691690564155578613 0.12581554055213928223 0.12951602041721343994 0.12951602041721343994 0.12951602041721343994 0.12951602041721343994 
0.12581554055213928223 0.12951602041721343994 0.12951602041721343994 0.12581554055213928223 0.12951602041721343994 0.13321647047996520996 0.12951602041721343994 0.12951602041721343994 0.12951602041721343994 0.12951602041721343994 0.12581554055213928223 0.12951602041721343994 0.12581554055213928223 0.12581554055213928223 0.12951602041721343994 0.12951602041721343994 0.12951602041721343994 0.12951602041721343994 0.13321647047996520996 
0.12581554055213928223 0.12581554055213928223 0.12951602041721343994 0.12951602041721343994 0.12581554055213928223 0.12581554055213928223 0.12581554055213928223 0.12581554055213928223 0.12581554055213928223 0.12581554055213928223 0.12581554055213928223 0.12581554055213928223 0.12581554055213928223 0.13321647047996520996 0.12581554055213928223 0.12951602041721343994 0.12951602041721343994 0.12951602041721343994 0.12951602041721343994 
0.12951602041721343994 0.12581554055213928223 0.12951602041721343994 0.12951602041721343994 0.12951602041721343994 0.12581554055213928223 0.12951602041721343994 0.12951602041721343994 0.12951602041721343994 0.12581554055213928223 0.12951602041721343994 0.12951602041721343994 0.12581554055213928223 0.12951602041721343994 0.12581554055213928223 0.12951602041721343994 0.12951602041721343994 0.12951602041721343994 0.12951602041721343994 
0.12581554055213928223 0.12951602041721343994 0.12951602041721343994 0.12951602041721343994 0.12951602041721343994 0.12581554055213928223 0.12951602041721343994 0.12951602041721343994 0.13321647047996520996 0.12951602041721343994 0.12581554055213928223 0.12951602041721343994 0.12581554055213928223 0.13691690564155578613 0.12951602041721343994 0.13321647047996520996 0.13321647047996520996 0.12951602041721343994 0.12951602041721343994 
0.12951602041721343994 0.12951602041721343994 0.13321647047996520996 0.12951602041721343994 0.12951602041721343994 0.12951602041721343994 0.12581554055213928223 0.12581554055213928223 0.12951602041721343994 0.12951602041721343994 0.12951602041721343994 0.12581554055213928223 0.12951602041721343994 0.13321647047996520996 0.12951602041721343994 0.13691690564155578613 0.13691690564155578613 0.12951602041721343994 0.12951602041721343994 
