ncols        19
nrows        32
xllcorner    299175.080884210533
yllcorner    1429348.617231579265
cellsize     910.138494736842
383.116851806640625 382.58258056640625 381.967041015625 381.273712158203125 380.351287841796875 378.68341064453125 375.987213134765625 372.614471435546875 377.364105224609375 380.216064453125 381.92724609375 383.39617919921875 385.01824951171875 386.85040283203125 388.847991943359375 390.981353759765625 393.239501953125 395.595428466796875 398.02227783203125 
384.7342529296875 384.1904296875 383.571990966796875 382.898162841796875 382.095001220703125 380.74591064453125 378.341278076171875 379.003570556640625 378.810699462890625 381.76422119140625 383.718292236328125 385.221588134765625 386.81524658203125 388.622283935546875 390.602630615234375 392.7127685546875 394.93011474609375 397.2369384765625 399.617584228515625 
386.46661376953125 385.92120361328125 385.305328369140625 384.646270751953125 383.917083740234375 382.828216552734375 380.81298828125 378.29412841796875 380.25323486328125 383.06329345703125 385.38922119140625 387.010467529296875 388.5662841796875 390.32305908203125 392.269256591796875 394.3492431640625 396.530853271484375 398.798065185546875 401.139923095703125 
388.309722900390625 387.771209716796875 387.167877197265625 386.538299560546875 385.902984619140625 385.0726318359375 383.489654541015625 381.344390869140625 383.936309814453125 383.991455078125 386.8046875 388.718963623046875 390.271759033203125 391.962066650390625 393.8555908203125 395.89617919921875 398.041534423828125 400.272705078125 402.580718994140625 
390.25335693359375 389.72943115234375 389.1439208984375 388.539947509765625 387.96343994140625 387.279266357421875 385.8570556640625 383.220703125 385.0731201171875 384.447235107421875 388.09130859375 390.34503173828125 391.911041259765625 393.52447509765625 395.350555419921875 397.34332275390625 399.4501953125 401.648101806640625 403.927001953125 
392.28375244140625 391.77978515625 391.214447021484375 390.62872314453125 390.079803466796875 389.50250244140625 388.391815185546875 386.0557861328125 383.930755615234375 385.71875 389.5074462890625 391.893035888671875 393.438629150390625 394.9676513671875 396.722015380859375 398.667236328125 400.735198974609375 402.901702880859375 405.15802001953125 
394.383880615234375 393.90283203125 393.357818603515625 392.784393310546875 392.244171142578125 391.75445556640625 391.059539794921875 389.5592041015625 387.225677490234375 386.854949951171875 390.7745361328125 393.261871337890625 394.767730712890625 396.21710205078125 397.9176025390625 399.83795166015625 401.868743896484375 404.00408935546875 406.24456787109375 
396.536224365234375 396.078765869140625 395.552490234375 394.984588623046875 394.4271240234375 393.935333251953125 393.453704833984375 392.73651123046875 391.50042724609375 391.627716064453125 392.92962646484375 394.641326904296875 395.85760498046875 397.1824951171875 398.8719482421875 400.84344482421875 402.82489013671875 404.92132568359375 407.147186279296875 
398.72528076171875 398.290496826171875 397.78070068359375 397.2149658203125 396.625823974609375 396.048858642578125 395.446533203125 394.592010498046875 393.372650146484375 395.66839599609375 395.228424072265625 396.176422119140625 396.88861083984375 397.983551025390625 399.803558349609375 401.764617919921875 403.580230712890625 405.61798095703125 407.817901611328125 
400.937652587890625 400.5244140625 400.02923583984375 399.466339111328125 398.851409912109375 398.18310546875 397.34637451171875 395.881317138671875 394.264190673828125 397.121490478515625 396.6866455078125 397.171661376953125 397.43304443359375 398.193084716796875 400.1019287109375 402.256927490234375 404.251434326171875 406.288360595703125 408.41375732421875 
403.164276123046875 402.771026611328125 402.288116455078125 401.73077392578125 401.111907958984375 400.43414306640625 400.03289794921875 399.61968994140625 398.341766357421875 398.722381591796875 400.31158447265625 399.8043212890625 396.762298583984375 397.0106201171875 400.010528564453125 402.933074951171875 405.010894775390625 406.99505615234375 409.0076904296875 
405.3997802734375 405.02447509765625 404.548736572265625 403.99493408203125 403.379974365234375 403.10565185546875 403.12957763671875 403.0103759765625 402.6629638671875 402.180877685546875 400.598876953125 401.1015625 394.726318359375 398.743743896484375 400.014434814453125 404.4129638671875 407.212249755859375 409.490631103515625 411.618072509765625 
407.64263916015625 407.2847900390625 406.802825927734375 406.242645263671875 406.028594970703125 406.13653564453125 406.17083740234375 406.134246826171875 405.93585205078125 405.125579833984375 402.949859619140625 401.823577880859375 400.783233642578125 402.984039306640625 404.829742431640625 407.444366455078125 409.833465576171875 412.021453857421875 414.149383544921875 
409.89471435546875 409.56524658203125 409.040802001953125 408.85540771484375 408.99041748046875 409.05877685546875 409.085357666015625 409.0858154296875 408.872802734375 407.801239013671875 407.466705322265625 404.17559814453125 404.970672607421875 407.087738037109375 408.661590576171875 410.473541259765625 412.403594970703125 414.3670654296875 416.3724365234375 
412.1539306640625 411.92803955078125 411.640167236328125 411.75872802734375 411.816314697265625 411.80718994140625 411.758209228515625 411.681640625 411.3917236328125 413.06121826171875 409.052490234375 408.099212646484375 409.300994873046875 410.557647705078125 411.7081298828125 413.042999267578125 414.62017822265625 416.365509033203125 418.22479248046875 
414.356719970703125 414.134368896484375 414.378082275390625 414.5028076171875 414.4818115234375 414.34613037109375 414.128143310546875 413.859405517578125 413.420013427734375 412.400146484375 412.844573974609375 410.358184814453125 410.78460693359375 412.275360107421875 413.663543701171875 414.915985107421875 416.325408935546875 417.929656982421875 419.678436279296875 
416.508026123046875 416.674713134765625 417.07342529296875 417.152008056640625 417.0098876953125 416.691650390625 416.223663330078125 415.638580322265625 414.932708740234375 413.887542724609375 412.315765380859375 412.12786865234375 412.000030517578125 412.33685302734375 414.502777099609375 416.05621337890625 417.481048583984375 419.029052734375 420.715423583984375 
419.126312255859375 419.620697021484375 419.834686279296875 419.76336669921875 419.436279296875 418.87432861328125 418.0904541015625 417.105499267578125 415.9661865234375 414.699188232421875 413.243072509765625 411.851226806640625 412.212371826171875 412.906005859375 415.039886474609375 416.709075927734375 418.1396484375 419.657958984375 421.315338134765625 
422.233917236328125 422.57830810546875 422.61700439453125 422.3544921875 421.7939453125 420.932342529296875 419.763702392578125 418.298858642578125 416.590118408203125 414.745849609375 412.95709228515625 411.54949951171875 411.8541259765625 414.615203857421875 415.282867431640625 416.891876220703125 418.278045654296875 419.77569580078125 421.436981201171875 
425.393798828125 425.568634033203125 425.423828125 424.949005126953125 424.122650146484375 422.916046142578125 421.300750732421875 419.275482177734375 416.877197265625 414.13201904296875 411.371673583984375 409.03985595703125 412.47076416015625 413.70733642578125 415.47637939453125 416.7039794921875 417.864501953125 419.320709228515625 421.027496337890625 
428.594390869140625 428.597991943359375 428.268310546875 427.57647705078125 426.47613525390625 424.905120849609375 422.805755615234375 420.170074462890625 417.067718505859375 413.116912841796875 409.054473876953125 410.96612548828125 412.67822265625 413.801513671875 415.228851318359375 415.89263916015625 416.737396240234375 418.202972412109375 420.081451416015625 
431.825408935546875 431.669281005859375 431.16595458984375 430.272796630859375 428.92071533203125 427.01239013671875 424.431243896484375 421.13720703125 417.7230224609375 412.0599365234375 412.97137451171875 413.665771484375 413.885467529296875 414.65130615234375 414.77630615234375 414.194427490234375 414.6436767578125 416.42181396484375 418.85003662109375 
435.08697509765625 434.78399658203125 434.12664794921875 433.06744384765625 431.5311279296875 429.393829345703125 426.418060302734375 421.98504638671875 420.53411865234375 417.942413330078125 417.01800537109375 416.498870849609375 415.911865234375 415.37353515625 415.4432373046875 408.36517333984375 410.581268310546875 413.65106201171875 417.034637451171875 
438.373443603515625 437.934326171875 437.144378662109375 435.96563720703125 434.34625244140625 432.228546142578125 429.582366943359375 426.5638427734375 424.278411865234375 422.033416748046875 420.32525634765625 418.90948486328125 417.56756591796875 416.45037841796875 417.006256103515625 415.411865234375 416.1163330078125 418.203094482421875 420.85516357421875 
441.6669921875 441.1009521484375 440.19537353515625 438.921295166015625 437.255645751953125 435.187225341796875 432.7559814453125 430.12225341796875 427.625396728515625 425.194366455078125 422.932342529296875 420.793121337890625 418.7181396484375 416.58013916015625 417.544586181640625 418.429107666015625 419.894256591796875 421.898406982421875 424.1995849609375 
444.94158935546875 444.25689697265625 443.243804931640625 441.881500244140625 440.16168212890625 438.093231201171875 435.7213134765625 433.1395263671875 430.47412109375 427.74725341796875 425.0072021484375 422.26031494140625 419.4608154296875 413.660552978515625 418.831573486328125 420.80377197265625 422.85577392578125 425.085845947265625 427.42535400390625 
448.168243408203125 447.37518310546875 446.25970458984375 444.806915283203125 443.013885498046875 440.894317626953125 438.478973388671875 435.8160400390625 432.952789306640625 429.913665771484375 426.723846435546875 423.314422607421875 419.665435791015625 413.956390380859375 420.01580810546875 422.708740234375 425.259521484375 427.79351806640625 430.314483642578125 
451.32354736328125 450.433502197265625 449.220672607421875 447.675018310546875 445.794952392578125 443.59130859375 441.080078125 438.280853271484375 435.208099365234375 431.87225341796875 428.2401123046875 424.032318115234375 420.463897705078125 418.1448974609375 421.487152099609375 424.4752197265625 427.334136962890625 430.14508056640625 432.89093017578125 
454.392974853515625 453.416900634765625 452.110931396484375 450.471893310546875 448.499298095703125 446.19775390625 443.570220947265625 440.6199951171875 437.3499755859375 433.77740478515625 429.88531494140625 425.36737060546875 419.245941162109375 420.04693603515625 423.04876708984375 426.092620849609375 429.1622314453125 432.22967529296875 435.2191162109375 
457.361785888671875 456.311004638671875 454.915496826171875 453.185882568359375 451.123016357421875 448.723663330078125 445.979736328125 442.883056640625 439.439453125 435.706451416015625 431.843048095703125 427.828094482421875 423.623077392578125 420.561492919921875 424.194671630859375 427.412353515625 430.74774169921875 434.095703125 437.349853515625 
460.199310302734375 459.081298828125 457.609039306640625 455.8023681640625 453.659271240234375 451.172332763671875 448.325286865234375 445.0975341796875 441.47564697265625 437.4991455078125 433.69525146484375 430.00604248046875 425.635009765625 418.06085205078125 424.49920654296875 428.193389892578125 432.05780029296875 435.777374267578125 439.321258544921875 
462.859100341796875 461.67340087890625 460.152587890625 458.299285888671875 456.095306396484375 453.541412353515625 450.622467041015625 447.300811767578125 443.477447509765625 438.77880859375 435.832305908203125 432.14410400390625 427.541290283203125 418.244232177734375 423.81512451171875 427.941680908203125 433.096343994140625 437.336090087890625 441.178497314453125 
