ncols        19
nrows        32
xllcorner    299175.080884210533
yllcorner    1429348.617231579265
cellsize     910.138494736842
NODATA_value nan
0.091421276330947875977 0.093960754573345184326 0.091421276330947875977 0.091421276330947875977 0.093960754573345184326 0.091421276330947875977 0.091421276330947875977 0.091421276330947875977 0.0914212837815284729 0.09396076202392578125 0.09396076202392578125 0.09396076202392578125 0.088881798088550567627 0.093960754573345184326 0.091421276330947875977 0.091421276330947875977 0.17332237958908081055 0.17332237958908081055 0.17332237958908081055 
0.091421276330947875977 0.093960754573345184326 0.093960754573345184326 0.091421276330947875977 0.093960754573345184326 0.093960754573345184326 0.09396076202392578125 0.0914212837815284729 0.16354405879974365234 0.16808694601058959961 0.16808694601058959961 0.16354405879974365234 0.16808694601058959961 0.09396076202392578125 0.09396076202392578125 0.09396076202392578125 0.09396076202392578125 0.17332237958908081055 0.16850785911083221436 
0.093960754573345184326 0.093960754573345184326 0.093960754573345184326 0.093960754573345184326 0.09396076202392578125 0.0914212837815284729 0.16354405879974365234 0.16354405879974365234 0.16354405879974365234 0.16808694601058959961 0.16808694601058959961 0.16808694601058959961 0.16808694601058959961 0.16354405879974365234 0.16354405879974365234 0.16354405879974365234 0.16808694601058959961 0.16850785911083221436 0.17332237958908081055 
0.096500225365161895752 0.091421276330947875977 0.091421276330947875977 0.093960754573345184326 0.16354405879974365234 0.16354405879974365234 0.16354405879974365234 0.16354405879974365234 0.16354405879974365234 0.16354405879974365234 0.16808694601058959961 0.16808694601058959961 0.16354405879974365234 0.16354405879974365234 0.16354405879974365234 0.16354405879974365234 0.16808694601058959961 0.16850785911083221436 0.16850785911083221436 
0.096500225365161895752 0.091421276330947875977 0.0914212837815284729 0.09396076202392578125 0.16354405879974365234 0.16354405879974365234 0.16808694601058959961 0.16808694601058959961 0.16354405879974365234 0.16808694601058959961 0.16354405879974365234 0.16354405879974365234 0.16354405879974365234 0.16354405879974365234 0.16354405879974365234 0.15900117158889770508 0.15900117158889770508 0.16354405879974365234 0.16354405879974365234 
0.091421276330947875977 0.09396076202392578125 0.16354405879974365234 0.16808694601058959961 0.16354405879974365234 0.16354405879974365234 0.16808694601058959961 0.16808694601058959961 0.16354405879974365234 0.16808694601058959961 0.16354405879974365234 0.15445828437805175781 0.15900117158889770508 0.15900117158889770508 0.15900117158889770508 0.16354405879974365234 0.16354405879974365234 0.15900117158889770508 0.15900117158889770508 
0.09396076202392578125 0.16808694601058959961 0.16354405879974365234 0.16808694601058959961 0.16354405879974365234 0.16354405879974365234 0.16808694601058959961 0.16808694601058959961 0.16354405879974365234 0.16354405879974365234 0.16354405879974365234 0.15445828437805175781 0.15900117158889770508 0.15900117158889770508 0.15900117158889770508 0.16354405879974365234 0.15900117158889770508 0.15900117158889770508 0.15900117158889770508 
0.16808694601058959961 0.16808694601058959961 0.16354405879974365234 0.16354405879974365234 0.16354405879974365234 0.16354405879974365234 0.16808694601058959961 0.16354405879974365234 0.15900117158889770508 0.15900117158889770508 0.15900117158889770508 0.15900117158889770508 0.15900117158889770508 0.15900117158889770508 0.15900117158889770508 0.15900117158889770508 0.15900117158889770508 0.15900117158889770508 0.15900117158889770508 
0.16808694601058959961 0.16808694601058959961 0.16354405879974365234 0.16354405879974365234 0.16354405879974365234 0.16354405879974365234 0.15900117158889770508 0.15900117158889770508 0.15900117158889770508 0.16354405879974365234 0.16808694601058959961 0.15445828437805175781 0.16354405879974365234 0.16354405879974365234 0.16354405879974365234 0.15900117158889770508 0.16354405879974365234 0.15900117158889770508 0.15900117158889770508 
0.17262983322143554688 0.16354405879974365234 0.16354405879974365234 0.16808694601058959961 0.16808694601058959961 0.16354405879974365234 0.15900117158889770508 0.15900117158889770508 0.15900117158889770508 0.15900117158889770508 0.16808694601058959961 0.16354405879974365234 0.16354405879974365234 0.16354405879974365234 0.16354405879974365234 0.15445828437805175781 0.15900117158889770508 0.15900117158889770508 0.16354405879974365234 
0.16808694601058959961 0.16808694601058959961 0.16354405879974365234 0.16354405879974365234 0.16354405879974365234 0.16354405879974365234 0.15900117158889770508 0.15900117158889770508 0.16808694601058959961 0.15900117158889770508 0.16808694601058959961 0.16808694601058959961 0.15900117158889770508 0.15900117158889770508 0.15900117158889770508 0.15900117158889770508 0.16354405879974365234 0.15900117158889770508 0.15900117158889770508 
0.16808694601058959961 0.16808694601058959961 0.16354405879974365234 0.16354405879974365234 0.16354405879974365234 0.16354405879974365234 0.15900117158889770508 0.15900117158889770508 0.15900117158889770508 0.16808694601058959961 0.16354405879974365234 0.16354405879974365234 0.16354405879974365234 0.16354405879974365234 0.16354405879974365234 0.16354405879974365234 0.15900117158889770508 0.15900117158889770508 0.16354405879974365234 
0.16808694601058959961 0.16808694601058959961 0.16354405879974365234 0.16354405879974365234 0.16354405879974365234 0.15900117158889770508 0.15900117158889770508 0.15900117158889770508 0.15900117158889770508 0.16354405879974365234 0.16808694601058959961 0.16354405879974365234 0.16354405879974365234 0.16354405879974365234 0.15900117158889770508 0.15900117158889770508 0.16354405879974365234 0.16354405879974365234 0.16354405879974365234 
0.16808694601058959961 0.16808694601058959961 0.16354405879974365234 0.16354405879974365234 0.16354405879974365234 0.16354405879974365234 0.16354405879974365234 0.15900117158889770508 0.16354405879974365234 0.17717272043228149414 0.18625850975513458252 0.17262983322143554688 0.17262983322143554688 0.15900117158889770508 0.15900117158889770508 0.15900117158889770508 0.15900117158889770508 0.16354405879974365234 0.16354405879974365234 
0.16808694601058959961 0.16808694601058959961 0.16354405879974365234 0.16354405879974365234 0.16354405879974365234 0.16354405879974365234 0.15900117158889770508 0.15900117158889770508 0.15900117158889770508 0.15900117158889770508 0.14537249505519866943 0.14537249505519866943 0.14537249505519866943 0.17262983322143554688 0.16354405879974365234 0.15445828437805175781 0.15900117158889770508 0.15900117158889770508 0.16354405879974365234 
0.16354405879974365234 0.16354405879974365234 0.16354405879974365234 0.16354405879974365234 0.16354405879974365234 0.16354405879974365234 0.15900117158889770508 0.15900117158889770508 0.15900117158889770508 0.15900117158889770508 0.14537249505519866943 0.18625850975513458252 0.14537249505519866943 0.19080139696598052979 0.18625850975513458252 0.15900117158889770508 0.16354405879974365234 0.15900117158889770508 0.16354405879974365234 
0.16354405879974365234 0.16354405879974365234 0.16354405879974365234 0.15900117158889770508 0.15900117158889770508 0.16354405879974365234 0.15900117158889770508 0.15900117158889770508 0.15900117158889770508 0.15900117158889770508 0.18625850975513458252 0.18625850975513458252 0.14537249505519866943 0.19080139696598052979 0.18625850975513458252 0.15900117158889770508 0.16354405879974365234 0.15900117158889770508 0.15900117158889770508 
0.16354405879974365234 0.16808694601058959961 0.16808694601058959961 0.15900117158889770508 0.15900117158889770508 0.15900117158889770508 0.16354405879974365234 0.16354405879974365234 0.15900117158889770508 0.15445828437805175781 0.17262983322143554688 0.17262983322143554688 0.18625850975513458252 0.1953442990779876709 0.17262983322143554688 0.16354405879974365234 0.16354405879974365234 0.15900117158889770508 0.15900117158889770508 
0.16354405879974365234 0.16354405879974365234 0.16354405879974365234 0.16354405879974365234 0.16354405879974365234 0.16354405879974365234 0.16354405879974365234 0.16808694601058959961 0.16354405879974365234 0.15900117158889770508 0.15445828437805175781 0.15445828437805175781 0.18171562254428863525 0.1953442990779876709 0.17717272043228149414 0.15900117158889770508 0.16354405879974365234 0.15900117158889770508 0.16354405879974365234 
0.15900117158889770508 0.15900117158889770508 0.16354405879974365234 0.16354405879974365234 0.15900117158889770508 0.15900117158889770508 0.15900117158889770508 0.15445828437805175781 0.15900117158889770508 0.15445828437805175781 0.15445828437805175781 0.15900117158889770508 0.18625850975513458252 0.17262983322143554688 0.15900117158889770508 0.15445828437805175781 0.14765448868274688721 0.14765448868274688721 0.14765448868274688721 
0.15900117158889770508 0.15900117158889770508 0.15900117158889770508 0.15900117158889770508 0.15900117158889770508 0.15900117158889770508 0.15900117158889770508 0.15900117158889770508 0.15445828437805175781 0.16354405879974365234 0.16354405879974365234 0.15609189867973327637 0.17718538641929626465 0.16452929377555847168 0.14765448868274688721 0.14765448868274688721 0.1434358060359954834 0.15187320113182067871 0.15187320113182067871 
0.15900117158889770508 0.15900117158889770508 0.15900117158889770508 0.15900117158889770508 0.15900117158889770508 0.16354405879974365234 0.15900117158889770508 0.15900117158889770508 0.16354405879974365234 0.15445828437805175781 0.15445828437805175781 0.1434358060359954834 0.14765448868274688721 0.16031059622764587402 0.15187320113182067871 0.15187320113182067871 0.15187320113182067871 0.15187320113182067871 0.15187320113182067871 
0.15900117158889770508 0.15900117158889770508 0.15900117158889770508 0.15900117158889770508 0.15900117158889770508 0.15900117158889770508 0.1434358060359954834 0.14765448868274688721 0.14765448868274688721 0.14765448868274688721 0.1434358060359954834 0.14765448868274688721 0.14765448868274688721 0.1434358060359954834 0.14765448868274688721 0.14765448868274688721 0.15187320113182067871 0.14765448868274688721 0.14765448868274688721 
0.15900117158889770508 0.14991539716720581055 0.1434358060359954834 0.14765448868274688721 0.14765448868274688721 0.14765448868274688721 0.14765448868274688721 0.14765448868274688721 0.14765448868274688721 0.14765448868274688721 0.1434358060359954834 0.14765448868274688721 0.14765448868274688721 0.14765448868274688721 0.1434358060359954834 0.14765448868274688721 0.1434358060359954834 0.1434358060359954834 0.1434358060359954834 
0.14765448868274688721 0.13921710848808288574 0.1434358060359954834 0.14765448868274688721 0.14765448868274688721 0.14765448868274688721 0.14765448868274688721 0.14765448868274688721 0.14765448868274688721 0.14765448868274688721 0.14765448868274688721 0.1434358060359954834 0.14765448868274688721 0.15609189867973327637 0.1434358060359954834 0.14765448868274688721 0.14765448868274688721 0.14765448868274688721 0.14765448868274688721 
0.1434358060359954834 0.1434358060359954834 0.1434358060359954834 0.1434358060359954834 0.14765448868274688721 0.1434358060359954834 0.14765448868274688721 0.14765448868274688721 0.14765448868274688721 0.14765448868274688721 0.14765448868274688721 0.1434358060359954834 0.14765448868274688721 0.15609189867973327637 0.1434358060359954834 0.14765448868274688721 0.14765448868274688721 0.14765448868274688721 0.14765448868274688721 
0.14765448868274688721 0.14765448868274688721 0.1434358060359954834 0.14765448868274688721 0.15187320113182067871 0.14765448868274688721 0.14765448868274688721 0.1434358060359954834 0.1434358060359954834 0.14765448868274688721 0.14765448868274688721 0.1434358060359954834 0.14765448868274688721 0.15609189867973327637 0.1434358060359954834 0.14765448868274688721 0.14765448868274688721 0.14765448868274688721 0.14765448868274688721 
0.1434358060359954834 0.14765448868274688721 0.14765448868274688721 0.1434358060359954834 0.14765448868274688721 0.15187320113182067871 0.14765448868274688721 0.14765448868274688721 0.14765448868274688721 0.14765448868274688721 0.1434358060359954834 0.14765448868274688721 0.1434358060359954834 0.1434358060359954834 0.14765448868274688721 0.14765448868274688721 0.14765448868274688721 0.14765448868274688721 0.15187320113182067871 
0.1434358060359954834 0.1434358060359954834 0.14765448868274688721 0.14765448868274688721 0.1434358060359954834 0.1434358060359954834 0.1434358060359954834 0.1434358060359954834 0.1434358060359954834 0.1434358060359954834 0.1434358060359954834 0.1434358060359954834 0.1434358060359954834 0.15187320113182067871 0.1434358060359954834 0.14765448868274688721 0.14765448868274688721 0.14765448868274688721 0.14765448868274688721 
0.14765448868274688721 0.1434358060359954834 0.14765448868274688721 0.14765448868274688721 0.14765448868274688721 0.1434358060359954834 0.14765448868274688721 0.14765448868274688721 0.14765448868274688721 0.1434358060359954834 0.14765448868274688721 0.14765448868274688721 0.1434358060359954834 0.14765448868274688721 0.1434358060359954834 0.14765448868274688721 0.14765448868274688721 0.14765448868274688721 0.14765448868274688721 
0.1434358060359954834 0.14765448868274688721 0.14765448868274688721 0.14765448868274688721 0.14765448868274688721 0.1434358060359954834 0.14765448868274688721 0.14765448868274688721 0.15187320113182067871 0.14765448868274688721 0.1434358060359954834 0.14765448868274688721 0.1434358060359954834 0.15609189867973327637 0.14765448868274688721 0.15187320113182067871 0.15187320113182067871 0.14765448868274688721 0.14765448868274688721 
0.14765448868274688721 0.14765448868274688721 0.15187320113182067871 0.14765448868274688721 0.14765448868274688721 0.14765448868274688721 0.1434358060359954834 0.1434358060359954834 0.14765448868274688721 0.14765448868274688721 0.14765448868274688721 0.1434358060359954834 0.14765448868274688721 0.15187320113182067871 0.14765448868274688721 0.15609189867973327637 0.15609189867973327637 0.14765448868274688721 0.14765448868274688721 
