ncols        19
nrows        32
xllcorner    299175.080884210533
yllcorner    1429348.617231579265
cellsize     910.138494736842
NODATA_value nan
55.590423583984375 55.590423583984375 55.590423583984375 55.590423583984375 55.590423583984375 55.590423583984375 55.590423583984375 55.590423583984375 55.590423583984375 55.590423583984375 55.590423583984375 55.590423583984375 55.590423583984375 55.590423583984375 55.590423583984375 55.590423583984375 197.242279052734375 197.242279052734375 197.242279052734375 
55.590423583984375 55.590423583984375 55.590423583984375 55.590423583984375 55.590423583984375 55.590423583984375 55.590423583984375 55.590423583984375 88.08709716796875 88.08709716796875 88.08709716796875 88.08709716796875 88.08709716796875 55.590423583984375 55.590423583984375 55.590423583984375 55.590423583984375 197.242279052734375 197.242279052734375 
55.590423583984375 55.590423583984375 55.590423583984375 55.590423583984375 55.590423583984375 55.590423583984375 88.08709716796875 88.08709716796875 88.08709716796875 88.08709716796875 88.08709716796875 88.08709716796875 88.08709716796875 88.08709716796875 88.08709716796875 88.08709716796875 88.08709716796875 197.242279052734375 197.242279052734375 
55.590423583984375 55.590423583984375 55.590423583984375 55.590423583984375 88.08709716796875 88.08709716796875 88.08709716796875 88.08709716796875 88.08709716796875 88.08709716796875 88.08709716796875 88.08709716796875 88.08709716796875 88.08709716796875 88.08709716796875 88.08709716796875 88.08709716796875 197.242279052734375 197.242279052734375 
55.590423583984375 55.590423583984375 55.590423583984375 55.590423583984375 88.08709716796875 88.08709716796875 88.08709716796875 88.08709716796875 88.08709716796875 88.08709716796875 88.08709716796875 88.08709716796875 88.08709716796875 88.08709716796875 88.08709716796875 88.08709716796875 88.08709716796875 88.08709716796875 88.08709716796875 
55.590423583984375 55.590423583984375 88.08709716796875 88.08709716796875 88.08709716796875 88.08709716796875 88.08709716796875 88.08709716796875 88.08709716796875 88.08709716796875 88.08709716796875 88.08709716796875 88.08709716796875 88.08709716796875 88.08709716796875 88.08709716796875 88.08709716796875 88.08709716796875 88.08709716796875 
55.590423583984375 88.08709716796875 88.08709716796875 88.08709716796875 88.08709716796875 88.08709716796875 88.08709716796875 88.08709716796875 88.08709716796875 88.08709716796875 88.08709716796875 88.08709716796875 88.08709716796875 88.08709716796875 88.08709716796875 88.08709716796875 88.08709716796875 88.08709716796875 88.08709716796875 
88.08709716796875 88.08709716796875 88.08709716796875 88.08709716796875 88.08709716796875 88.08709716796875 88.08709716796875 88.08709716796875 88.08709716796875 88.08709716796875 88.08709716796875 88.08709716796875 88.08709716796875 88.08709716796875 88.08709716796875 88.08709716796875 88.08709716796875 88.08709716796875 88.08709716796875 
88.08709716796875 88.08709716796875 88.08709716796875 88.08709716796875 88.08709716796875 88.08709716796875 88.08709716796875 88.08709716796875 88.08709716796875 88.08709716796875 88.08709716796875 88.08709716796875 88.08709716796875 88.08709716796875 88.08709716796875 88.08709716796875 88.08709716796875 88.08709716796875 88.08709716796875 
88.08709716796875 88.08709716796875 88.08709716796875 88.08709716796875 88.08709716796875 88.08709716796875 88.08709716796875 88.08709716796875 88.08709716796875 88.08709716796875 88.08709716796875 88.08709716796875 88.08709716796875 88.08709716796875 88.08709716796875 88.08709716796875 88.08709716796875 88.08709716796875 88.08709716796875 
88.08709716796875 88.08709716796875 88.08709716796875 88.08709716796875 88.08709716796875 88.08709716796875 88.08709716796875 88.08709716796875 88.08709716796875 88.08709716796875 88.08709716796875 88.08709716796875 88.08709716796875 88.08709716796875 88.08709716796875 88.08709716796875 88.08709716796875 88.08709716796875 88.08709716796875 
88.08709716796875 88.08709716796875 88.08709716796875 88.08709716796875 88.08709716796875 88.08709716796875 88.08709716796875 88.08709716796875 88.08709716796875 88.08709716796875 88.08709716796875 88.08709716796875 88.08709716796875 88.08709716796875 88.08709716796875 88.08709716796875 88.08709716796875 88.08709716796875 88.08709716796875 
88.08709716796875 88.08709716796875 88.08709716796875 88.08709716796875 88.08709716796875 88.08709716796875 88.08709716796875 88.08709716796875 88.08709716796875 88.08709716796875 88.08709716796875 88.08709716796875 88.08709716796875 88.08709716796875 88.08709716796875 88.08709716796875 88.08709716796875 88.08709716796875 88.08709716796875 
88.08709716796875 88.08709716796875 88.08709716796875 88.08709716796875 88.08709716796875 88.08709716796875 88.08709716796875 88.08709716796875 88.08709716796875 88.08709716796875 88.08709716796875 88.08709716796875 88.08709716796875 88.08709716796875 88.08709716796875 88.08709716796875 88.08709716796875 88.08709716796875 88.08709716796875 
88.08709716796875 88.08709716796875 88.08709716796875 88.08709716796875 88.08709716796875 88.08709716796875 88.08709716796875 88.08709716796875 88.08709716796875 88.08709716796875 88.08709716796875 88.08709716796875 88.08709716796875 88.08709716796875 88.08709716796875 88.08709716796875 88.08709716796875 88.08709716796875 88.08709716796875 
88.08709716796875 88.08709716796875 88.08709716796875 88.08709716796875 88.08709716796875 88.08709716796875 88.08709716796875 88.08709716796875 88.08709716796875 88.08709716796875 88.08709716796875 88.08709716796875 88.08709716796875 88.08709716796875 88.08709716796875 88.08709716796875 88.08709716796875 88.08709716796875 88.08709716796875 
88.08709716796875 88.08709716796875 88.08709716796875 88.08709716796875 88.08709716796875 88.08709716796875 88.08709716796875 88.08709716796875 88.08709716796875 88.08709716796875 88.08709716796875 88.08709716796875 88.08709716796875 88.08709716796875 88.08709716796875 88.08709716796875 88.08709716796875 88.08709716796875 88.08709716796875 
88.08709716796875 88.08709716796875 88.08709716796875 88.08709716796875 88.08709716796875 88.08709716796875 88.08709716796875 88.08709716796875 88.08709716796875 88.08709716796875 88.08709716796875 88.08709716796875 88.08709716796875 88.08709716796875 88.08709716796875 88.08709716796875 88.08709716796875 88.08709716796875 88.08709716796875 
88.08709716796875 88.08709716796875 88.08709716796875 88.08709716796875 88.08709716796875 88.08709716796875 88.08709716796875 88.08709716796875 88.08709716796875 88.08709716796875 88.08709716796875 88.08709716796875 88.08709716796875 88.08709716796875 88.08709716796875 88.08709716796875 88.08709716796875 88.08709716796875 88.08709716796875 
88.08709716796875 88.08709716796875 88.08709716796875 88.08709716796875 88.08709716796875 88.08709716796875 88.08709716796875 88.08709716796875 88.08709716796875 88.08709716796875 88.08709716796875 88.08709716796875 88.08709716796875 88.08709716796875 88.08709716796875 88.08709716796875 81.8325347900390625 81.8325347900390625 81.8325347900390625 
88.08709716796875 88.08709716796875 88.08709716796875 88.08709716796875 88.08709716796875 88.08709716796875 88.08709716796875 88.08709716796875 88.08709716796875 88.08709716796875 88.08709716796875 81.8325347900390625 81.8325347900390625 81.8325347900390625 81.8325347900390625 81.8325347900390625 81.8325347900390625 81.8325347900390625 81.8325347900390625 
88.08709716796875 88.08709716796875 88.08709716796875 88.08709716796875 88.08709716796875 88.08709716796875 88.08709716796875 88.08709716796875 88.08709716796875 88.08709716796875 88.08709716796875 81.8325347900390625 81.8325347900390625 81.8325347900390625 81.8325347900390625 81.8325347900390625 81.8325347900390625 81.8325347900390625 81.8325347900390625 
88.08709716796875 88.08709716796875 88.08709716796875 88.08709716796875 88.08709716796875 88.08709716796875 81.8325347900390625 81.8325347900390625 81.8325347900390625 81.8325347900390625 81.8325347900390625 81.8325347900390625 81.8325347900390625 81.8325347900390625 81.8325347900390625 81.8325347900390625 81.8325347900390625 81.8325347900390625 81.8325347900390625 
88.08709716796875 88.08709716796875 81.8325347900390625 81.8325347900390625 81.8325347900390625 81.8325347900390625 81.8325347900390625 81.8325347900390625 81.8325347900390625 81.8325347900390625 81.8325347900390625 81.8325347900390625 81.8325347900390625 81.8325347900390625 81.8325347900390625 81.8325347900390625 81.8325347900390625 81.8325347900390625 81.8325347900390625 
81.8325347900390625 81.8325347900390625 81.8325347900390625 81.8325347900390625 81.8325347900390625 81.8325347900390625 81.8325347900390625 81.8325347900390625 81.8325347900390625 81.8325347900390625 81.8325347900390625 81.8325347900390625 81.8325347900390625 81.8325347900390625 81.8325347900390625 81.8325347900390625 81.8325347900390625 81.8325347900390625 81.8325347900390625 
81.8325347900390625 81.8325347900390625 81.8325347900390625 81.8325347900390625 81.8325347900390625 81.8325347900390625 81.8325347900390625 81.8325347900390625 81.8325347900390625 81.8325347900390625 81.8325347900390625 81.8325347900390625 81.8325347900390625 81.8325347900390625 81.8325347900390625 81.8325347900390625 81.8325347900390625 81.8325347900390625 81.8325347900390625 
81.8325347900390625 81.8325347900390625 81.8325347900390625 81.8325347900390625 81.8325347900390625 81.8325347900390625 81.8325347900390625 81.8325347900390625 81.8325347900390625 81.8325347900390625 81.8325347900390625 81.8325347900390625 81.8325347900390625 81.8325347900390625 81.8325347900390625 81.8325347900390625 81.8325347900390625 81.8325347900390625 81.8325347900390625 
81.8325347900390625 81.8325347900390625 81.8325347900390625 81.8325347900390625 81.8325347900390625 81.8325347900390625 81.8325347900390625 81.8325347900390625 81.8325347900390625 81.8325347900390625 81.8325347900390625 81.8325347900390625 81.8325347900390625 81.8325347900390625 81.8325347900390625 81.8325347900390625 81.8325347900390625 81.8325347900390625 81.8325347900390625 
81.8325347900390625 81.8325347900390625 81.8325347900390625 81.8325347900390625 81.8325347900390625 81.8325347900390625 81.8325347900390625 81.8325347900390625 81.8325347900390625 81.8325347900390625 81.8325347900390625 81.8325347900390625 81.8325347900390625 81.8325347900390625 81.8325347900390625 81.8325347900390625 81.8325347900390625 81.8325347900390625 81.8325347900390625 
81.8325347900390625 81.8325347900390625 81.8325347900390625 81.8325347900390625 81.8325347900390625 81.8325347900390625 81.8325347900390625 81.8325347900390625 81.8325347900390625 81.8325347900390625 81.8325347900390625 81.8325347900390625 81.8325347900390625 81.8325347900390625 81.8325347900390625 81.8325347900390625 81.8325347900390625 81.8325347900390625 81.8325347900390625 
81.8325347900390625 81.8325347900390625 81.8325347900390625 81.8325347900390625 81.8325347900390625 81.8325347900390625 81.8325347900390625 81.8325347900390625 81.8325347900390625 81.8325347900390625 81.8325347900390625 81.8325347900390625 81.8325347900390625 81.8325347900390625 81.8325347900390625 81.8325347900390625 81.8325347900390625 81.8325347900390625 81.8325347900390625 
81.8325347900390625 81.8325347900390625 81.8325347900390625 81.8325347900390625 81.8325347900390625 81.8325347900390625 81.8325347900390625 81.8325347900390625 81.8325347900390625 81.8325347900390625 81.8325347900390625 81.8325347900390625 81.8325347900390625 81.8325347900390625 81.8325347900390625 81.8325347900390625 81.8325347900390625 81.8325347900390625 81.8325347900390625 
