ncols        19
nrows        32
xllcorner    299175.080884210533
yllcorner    1429348.617231579265
cellsize     910.138494736842
NODATA_value nan
0.36000001430511474609 0.37000000476837158203 0.36000001430511474609 0.36000001430511474609 0.37000000476837158203 0.36000001430511474609 0.36000001430511474609 0.36000001430511474609 0.36000001430511474609 0.37000000476837158203 0.37000000476837158203 0.37000000476837158203 0.34999999403953552246 0.37000000476837158203 0.36000001430511474609 0.36000001430511474609 0.36000001430511474609 0.36000001430511474609 0.36000001430511474609 
0.36000001430511474609 0.37000000476837158203 0.37000000476837158203 0.36000001430511474609 0.37000000476837158203 0.37000000476837158203 0.37000000476837158203 0.36000001430511474609 0.36000001430511474609 0.37000000476837158203 0.37000000476837158203 0.36000001430511474609 0.37000000476837158203 0.37000000476837158203 0.37000000476837158203 0.37000000476837158203 0.37000000476837158203 0.36000001430511474609 0.34999999403953552246 
0.37000000476837158203 0.37000000476837158203 0.37000000476837158203 0.37000000476837158203 0.37000000476837158203 0.36000001430511474609 0.36000001430511474609 0.36000001430511474609 0.36000001430511474609 0.37000000476837158203 0.37000000476837158203 0.37000000476837158203 0.37000000476837158203 0.36000001430511474609 0.36000001430511474609 0.36000001430511474609 0.37000000476837158203 0.34999999403953552246 0.36000001430511474609 
0.37999999523162841797 0.36000001430511474609 0.36000001430511474609 0.37000000476837158203 0.36000001430511474609 0.36000001430511474609 0.36000001430511474609 0.36000001430511474609 0.36000001430511474609 0.36000001430511474609 0.37000000476837158203 0.37000000476837158203 0.36000001430511474609 0.36000001430511474609 0.36000001430511474609 0.36000001430511474609 0.37000000476837158203 0.34999999403953552246 0.34999999403953552246 
0.37999999523162841797 0.36000001430511474609 0.36000001430511474609 0.37000000476837158203 0.36000001430511474609 0.36000001430511474609 0.37000000476837158203 0.37000000476837158203 0.36000001430511474609 0.37000000476837158203 0.36000001430511474609 0.36000001430511474609 0.36000001430511474609 0.36000001430511474609 0.36000001430511474609 0.34999999403953552246 0.34999999403953552246 0.36000001430511474609 0.36000001430511474609 
0.36000001430511474609 0.37000000476837158203 0.36000001430511474609 0.37000000476837158203 0.36000001430511474609 0.36000001430511474609 0.37000000476837158203 0.37000000476837158203 0.36000001430511474609 0.37000000476837158203 0.36000001430511474609 0.34000000357627868652 0.34999999403953552246 0.34999999403953552246 0.34999999403953552246 0.36000001430511474609 0.36000001430511474609 0.34999999403953552246 0.34999999403953552246 
0.37000000476837158203 0.37000000476837158203 0.36000001430511474609 0.37000000476837158203 0.36000001430511474609 0.36000001430511474609 0.37000000476837158203 0.37000000476837158203 0.36000001430511474609 0.36000001430511474609 0.36000001430511474609 0.34000000357627868652 0.34999999403953552246 0.34999999403953552246 0.34999999403953552246 0.36000001430511474609 0.34999999403953552246 0.34999999403953552246 0.34999999403953552246 
0.37000000476837158203 0.37000000476837158203 0.36000001430511474609 0.36000001430511474609 0.36000001430511474609 0.36000001430511474609 0.37000000476837158203 0.36000001430511474609 0.34999999403953552246 0.34999999403953552246 0.34999999403953552246 0.34999999403953552246 0.34999999403953552246 0.34999999403953552246 0.34999999403953552246 0.34999999403953552246 0.34999999403953552246 0.34999999403953552246 0.34999999403953552246 
0.37000000476837158203 0.37000000476837158203 0.36000001430511474609 0.36000001430511474609 0.36000001430511474609 0.36000001430511474609 0.34999999403953552246 0.34999999403953552246 0.34999999403953552246 0.36000001430511474609 0.37000000476837158203 0.34000000357627868652 0.36000001430511474609 0.36000001430511474609 0.36000001430511474609 0.34999999403953552246 0.36000001430511474609 0.34999999403953552246 0.34999999403953552246 
0.37999999523162841797 0.36000001430511474609 0.36000001430511474609 0.37000000476837158203 0.37000000476837158203 0.36000001430511474609 0.34999999403953552246 0.34999999403953552246 0.34999999403953552246 0.34999999403953552246 0.37000000476837158203 0.36000001430511474609 0.36000001430511474609 0.36000001430511474609 0.36000001430511474609 0.34000000357627868652 0.34999999403953552246 0.34999999403953552246 0.36000001430511474609 
0.37000000476837158203 0.37000000476837158203 0.36000001430511474609 0.36000001430511474609 0.36000001430511474609 0.36000001430511474609 0.34999999403953552246 0.34999999403953552246 0.37000000476837158203 0.34999999403953552246 0.37000000476837158203 0.37000000476837158203 0.34999999403953552246 0.34999999403953552246 0.34999999403953552246 0.34999999403953552246 0.36000001430511474609 0.34999999403953552246 0.34999999403953552246 
0.37000000476837158203 0.37000000476837158203 0.36000001430511474609 0.36000001430511474609 0.36000001430511474609 0.36000001430511474609 0.34999999403953552246 0.34999999403953552246 0.34999999403953552246 0.37000000476837158203 0.36000001430511474609 0.36000001430511474609 0.36000001430511474609 0.36000001430511474609 0.36000001430511474609 0.36000001430511474609 0.34999999403953552246 0.34999999403953552246 0.36000001430511474609 
0.37000000476837158203 0.37000000476837158203 0.36000001430511474609 0.36000001430511474609 0.36000001430511474609 0.34999999403953552246 0.34999999403953552246 0.34999999403953552246 0.34999999403953552246 0.36000001430511474609 0.37000000476837158203 0.36000001430511474609 0.36000001430511474609 0.36000001430511474609 0.34999999403953552246 0.34999999403953552246 0.36000001430511474609 0.36000001430511474609 0.36000001430511474609 
0.37000000476837158203 0.37000000476837158203 0.36000001430511474609 0.36000001430511474609 0.36000001430511474609 0.36000001430511474609 0.36000001430511474609 0.34999999403953552246 0.36000001430511474609 0.38999998569488525391 0.40999999642372131348 0.37999999523162841797 0.37999999523162841797 0.34999999403953552246 0.34999999403953552246 0.34999999403953552246 0.34999999403953552246 0.36000001430511474609 0.36000001430511474609 
0.37000000476837158203 0.37000000476837158203 0.36000001430511474609 0.36000001430511474609 0.36000001430511474609 0.36000001430511474609 0.34999999403953552246 0.34999999403953552246 0.34999999403953552246 0.34999999403953552246 0.31999999284744262695 0.31999999284744262695 0.31999999284744262695 0.37999999523162841797 0.36000001430511474609 0.34000000357627868652 0.34999999403953552246 0.34999999403953552246 0.36000001430511474609 
0.36000001430511474609 0.36000001430511474609 0.36000001430511474609 0.36000001430511474609 0.36000001430511474609 0.36000001430511474609 0.34999999403953552246 0.34999999403953552246 0.34999999403953552246 0.34999999403953552246 0.31999999284744262695 0.40999999642372131348 0.31999999284744262695 0.41999998688697814941 0.40999999642372131348 0.34999999403953552246 0.36000001430511474609 0.34999999403953552246 0.36000001430511474609 
0.36000001430511474609 0.36000001430511474609 0.36000001430511474609 0.34999999403953552246 0.34999999403953552246 0.36000001430511474609 0.34999999403953552246 0.34999999403953552246 0.34999999403953552246 0.34999999403953552246 0.40999999642372131348 0.40999999642372131348 0.31999999284744262695 0.41999998688697814941 0.40999999642372131348 0.34999999403953552246 0.36000001430511474609 0.34999999403953552246 0.34999999403953552246 
0.36000001430511474609 0.37000000476837158203 0.37000000476837158203 0.34999999403953552246 0.34999999403953552246 0.34999999403953552246 0.36000001430511474609 0.36000001430511474609 0.34999999403953552246 0.34000000357627868652 0.37999999523162841797 0.37999999523162841797 0.40999999642372131348 0.43000000715255737305 0.37999999523162841797 0.36000001430511474609 0.36000001430511474609 0.34999999403953552246 0.34999999403953552246 
0.36000001430511474609 0.36000001430511474609 0.36000001430511474609 0.36000001430511474609 0.36000001430511474609 0.36000001430511474609 0.36000001430511474609 0.37000000476837158203 0.36000001430511474609 0.34999999403953552246 0.34000000357627868652 0.34000000357627868652 0.40000000596046447754 0.43000000715255737305 0.38999998569488525391 0.34999999403953552246 0.36000001430511474609 0.34999999403953552246 0.36000001430511474609 
0.34999999403953552246 0.34999999403953552246 0.36000001430511474609 0.36000001430511474609 0.34999999403953552246 0.34999999403953552246 0.34999999403953552246 0.34000000357627868652 0.34999999403953552246 0.34000000357627868652 0.34000000357627868652 0.34999999403953552246 0.40999999642372131348 0.37999999523162841797 0.34999999403953552246 0.34000000357627868652 0.34999999403953552246 0.34999999403953552246 0.34999999403953552246 
0.34999999403953552246 0.34999999403953552246 0.34999999403953552246 0.34999999403953552246 0.34999999403953552246 0.34999999403953552246 0.34999999403953552246 0.34999999403953552246 0.34000000357627868652 0.36000001430511474609 0.36000001430511474609 0.37000000476837158203 0.41999998688697814941 0.38999998569488525391 0.34999999403953552246 0.34999999403953552246 0.34000000357627868652 0.36000001430511474609 0.36000001430511474609 
0.34999999403953552246 0.34999999403953552246 0.34999999403953552246 0.34999999403953552246 0.34999999403953552246 0.36000001430511474609 0.34999999403953552246 0.34999999403953552246 0.36000001430511474609 0.34000000357627868652 0.34000000357627868652 0.34000000357627868652 0.34999999403953552246 0.37999999523162841797 0.36000001430511474609 0.36000001430511474609 0.36000001430511474609 0.36000001430511474609 0.36000001430511474609 
0.34999999403953552246 0.34999999403953552246 0.34999999403953552246 0.34999999403953552246 0.34999999403953552246 0.34999999403953552246 0.34000000357627868652 0.34999999403953552246 0.34999999403953552246 0.34999999403953552246 0.34000000357627868652 0.34999999403953552246 0.34999999403953552246 0.34000000357627868652 0.34999999403953552246 0.34999999403953552246 0.36000001430511474609 0.34999999403953552246 0.34999999403953552246 
0.34999999403953552246 0.33000001311302185059 0.34000000357627868652 0.34999999403953552246 0.34999999403953552246 0.34999999403953552246 0.34999999403953552246 0.34999999403953552246 0.34999999403953552246 0.34999999403953552246 0.34000000357627868652 0.34999999403953552246 0.34999999403953552246 0.34999999403953552246 0.34000000357627868652 0.34999999403953552246 0.34000000357627868652 0.34000000357627868652 0.34000000357627868652 
0.34999999403953552246 0.33000001311302185059 0.34000000357627868652 0.34999999403953552246 0.34999999403953552246 0.34999999403953552246 0.34999999403953552246 0.34999999403953552246 0.34999999403953552246 0.34999999403953552246 0.34999999403953552246 0.34000000357627868652 0.34999999403953552246 0.37000000476837158203 0.34000000357627868652 0.34999999403953552246 0.34999999403953552246 0.34999999403953552246 0.34999999403953552246 
0.34000000357627868652 0.34000000357627868652 0.34000000357627868652 0.34000000357627868652 0.34999999403953552246 0.34000000357627868652 0.34999999403953552246 0.34999999403953552246 0.34999999403953552246 0.34999999403953552246 0.34999999403953552246 0.34000000357627868652 0.34999999403953552246 0.37000000476837158203 0.34000000357627868652 0.34999999403953552246 0.34999999403953552246 0.34999999403953552246 0.34999999403953552246 
0.34999999403953552246 0.34999999403953552246 0.34000000357627868652 0.34999999403953552246 0.36000001430511474609 0.34999999403953552246 0.34999999403953552246 0.34000000357627868652 0.34000000357627868652 0.34999999403953552246 0.34999999403953552246 0.34000000357627868652 0.34999999403953552246 0.37000000476837158203 0.34000000357627868652 0.34999999403953552246 0.34999999403953552246 0.34999999403953552246 0.34999999403953552246 
0.34000000357627868652 0.34999999403953552246 0.34999999403953552246 0.34000000357627868652 0.34999999403953552246 0.36000001430511474609 0.34999999403953552246 0.34999999403953552246 0.34999999403953552246 0.34999999403953552246 0.34000000357627868652 0.34999999403953552246 0.34000000357627868652 0.34000000357627868652 0.34999999403953552246 0.34999999403953552246 0.34999999403953552246 0.34999999403953552246 0.36000001430511474609 
0.34000000357627868652 0.34000000357627868652 0.34999999403953552246 0.34999999403953552246 0.34000000357627868652 0.34000000357627868652 0.34000000357627868652 0.34000000357627868652 0.34000000357627868652 0.34000000357627868652 0.34000000357627868652 0.34000000357627868652 0.34000000357627868652 0.36000001430511474609 0.34000000357627868652 0.34999999403953552246 0.34999999403953552246 0.34999999403953552246 0.34999999403953552246 
0.34999999403953552246 0.34000000357627868652 0.34999999403953552246 0.34999999403953552246 0.34999999403953552246 0.34000000357627868652 0.34999999403953552246 0.34999999403953552246 0.34999999403953552246 0.34000000357627868652 0.34999999403953552246 0.34999999403953552246 0.34000000357627868652 0.34999999403953552246 0.34000000357627868652 0.34999999403953552246 0.34999999403953552246 0.34999999403953552246 0.34999999403953552246 
0.34000000357627868652 0.34999999403953552246 0.34999999403953552246 0.34999999403953552246 0.34999999403953552246 0.34000000357627868652 0.34999999403953552246 0.34999999403953552246 0.36000001430511474609 0.34999999403953552246 0.34000000357627868652 0.34999999403953552246 0.34000000357627868652 0.37000000476837158203 0.34999999403953552246 0.36000001430511474609 0.36000001430511474609 0.34999999403953552246 0.34999999403953552246 
0.34999999403953552246 0.34999999403953552246 0.36000001430511474609 0.34999999403953552246 0.34999999403953552246 0.34999999403953552246 0.34000000357627868652 0.34000000357627868652 0.34999999403953552246 0.34999999403953552246 0.34999999403953552246 0.34000000357627868652 0.34999999403953552246 0.36000001430511474609 0.34999999403953552246 0.37000000476837158203 0.37000000476837158203 0.34999999403953552246 0.34999999403953552246 
