ncols        19
nrows        32
xllcorner    299175.080884210533
yllcorner    1429348.617231579265
cellsize     910.138494736842
NODATA_value nan
0.24400001764297485352 0.24400001764297485352 0.24400001764297485352 0.24400001764297485352 0.24400001764297485352 0.24400001764297485352 0.24400001764297485352 0.24400001764297485352 0.24400001764297485352 0.24400001764297485352 0.24400001764297485352 0.24400001764297485352 0.24400001764297485352 0.24400001764297485352 0.24400001764297485352 0.24400001764297485352 0.16800001263618469238 0.16800001263618469238 0.16800001263618469238 
0.24400001764297485352 0.24400001764297485352 0.24400001764297485352 0.24400001764297485352 0.24400001764297485352 0.24400001764297485352 0.24400001764297485352 0.24400001764297485352 0.15300001204013824463 0.15300001204013824463 0.15300001204013824463 0.15300001204013824463 0.15300001204013824463 0.24400001764297485352 0.24400001764297485352 0.24400001764297485352 0.24400001764297485352 0.16800001263618469238 0.16800001263618469238 
0.24400001764297485352 0.24400001764297485352 0.24400001764297485352 0.24400001764297485352 0.24400001764297485352 0.24400001764297485352 0.15300001204013824463 0.15300001204013824463 0.15300001204013824463 0.15300001204013824463 0.15300001204013824463 0.15300001204013824463 0.15300001204013824463 0.15300001204013824463 0.15300001204013824463 0.15300001204013824463 0.15300001204013824463 0.16800001263618469238 0.16800001263618469238 
0.24400001764297485352 0.24400001764297485352 0.24400001764297485352 0.24400001764297485352 0.15300001204013824463 0.15300001204013824463 0.15300001204013824463 0.15300001204013824463 0.15300001204013824463 0.15300001204013824463 0.15300001204013824463 0.15300001204013824463 0.15300001204013824463 0.15300001204013824463 0.15300001204013824463 0.15300001204013824463 0.15300001204013824463 0.16800001263618469238 0.16800001263618469238 
0.24400001764297485352 0.24400001764297485352 0.24400001764297485352 0.24400001764297485352 0.15300001204013824463 0.15300001204013824463 0.15300001204013824463 0.15300001204013824463 0.15300001204013824463 0.15300001204013824463 0.15300001204013824463 0.15300001204013824463 0.15300001204013824463 0.15300001204013824463 0.15300001204013824463 0.15300001204013824463 0.15300001204013824463 0.15300001204013824463 0.15300001204013824463 
0.24400001764297485352 0.24400001764297485352 0.15300001204013824463 0.15300001204013824463 0.15300001204013824463 0.15300001204013824463 0.15300001204013824463 0.15300001204013824463 0.15300001204013824463 0.15300001204013824463 0.15300001204013824463 0.15300001204013824463 0.15300001204013824463 0.15300001204013824463 0.15300001204013824463 0.15300001204013824463 0.15300001204013824463 0.15300001204013824463 0.15300001204013824463 
0.24400001764297485352 0.15300001204013824463 0.15300001204013824463 0.15300001204013824463 0.15300001204013824463 0.15300001204013824463 0.15300001204013824463 0.15300001204013824463 0.15300001204013824463 0.15300001204013824463 0.15300001204013824463 0.15300001204013824463 0.15300001204013824463 0.15300001204013824463 0.15300001204013824463 0.15300001204013824463 0.15300001204013824463 0.15300001204013824463 0.15300001204013824463 
0.15300001204013824463 0.15300001204013824463 0.15300001204013824463 0.15300001204013824463 0.15300001204013824463 0.15300001204013824463 0.15300001204013824463 0.15300001204013824463 0.15300001204013824463 0.15300001204013824463 0.15300001204013824463 0.15300001204013824463 0.15300001204013824463 0.15300001204013824463 0.15300001204013824463 0.15300001204013824463 0.15300001204013824463 0.15300001204013824463 0.15300001204013824463 
0.15300001204013824463 0.15300001204013824463 0.15300001204013824463 0.15300001204013824463 0.15300001204013824463 0.15300001204013824463 0.15300001204013824463 0.15300001204013824463 0.15300001204013824463 0.15300001204013824463 0.15300001204013824463 0.15300001204013824463 0.15300001204013824463 0.15300001204013824463 0.15300001204013824463 0.15300001204013824463 0.15300001204013824463 0.15300001204013824463 0.15300001204013824463 
0.15300001204013824463 0.15300001204013824463 0.15300001204013824463 0.15300001204013824463 0.15300001204013824463 0.15300001204013824463 0.15300001204013824463 0.15300001204013824463 0.15300001204013824463 0.15300001204013824463 0.15300001204013824463 0.15300001204013824463 0.15300001204013824463 0.15300001204013824463 0.15300001204013824463 0.15300001204013824463 0.15300001204013824463 0.15300001204013824463 0.15300001204013824463 
0.15300001204013824463 0.15300001204013824463 0.15300001204013824463 0.15300001204013824463 0.15300001204013824463 0.15300001204013824463 0.15300001204013824463 0.15300001204013824463 0.15300001204013824463 0.15300001204013824463 0.15300001204013824463 0.15300001204013824463 0.15300001204013824463 0.15300001204013824463 0.15300001204013824463 0.15300001204013824463 0.15300001204013824463 0.15300001204013824463 0.15300001204013824463 
0.15300001204013824463 0.15300001204013824463 0.15300001204013824463 0.15300001204013824463 0.15300001204013824463 0.15300001204013824463 0.15300001204013824463 0.15300001204013824463 0.15300001204013824463 0.15300001204013824463 0.15300001204013824463 0.15300001204013824463 0.15300001204013824463 0.15300001204013824463 0.15300001204013824463 0.15300001204013824463 0.15300001204013824463 0.15300001204013824463 0.15300001204013824463 
0.15300001204013824463 0.15300001204013824463 0.15300001204013824463 0.15300001204013824463 0.15300001204013824463 0.15300001204013824463 0.15300001204013824463 0.15300001204013824463 0.15300001204013824463 0.15300001204013824463 0.15300001204013824463 0.15300001204013824463 0.15300001204013824463 0.15300001204013824463 0.15300001204013824463 0.15300001204013824463 0.15300001204013824463 0.15300001204013824463 0.15300001204013824463 
0.15300001204013824463 0.15300001204013824463 0.15300001204013824463 0.15300001204013824463 0.15300001204013824463 0.15300001204013824463 0.15300001204013824463 0.15300001204013824463 0.15300001204013824463 0.15300001204013824463 0.15300001204013824463 0.15300001204013824463 0.15300001204013824463 0.15300001204013824463 0.15300001204013824463 0.15300001204013824463 0.15300001204013824463 0.15300001204013824463 0.15300001204013824463 
0.15300001204013824463 0.15300001204013824463 0.15300001204013824463 0.15300001204013824463 0.15300001204013824463 0.15300001204013824463 0.15300001204013824463 0.15300001204013824463 0.15300001204013824463 0.15300001204013824463 0.15300001204013824463 0.15300001204013824463 0.15300001204013824463 0.15300001204013824463 0.15300001204013824463 0.15300001204013824463 0.15300001204013824463 0.15300001204013824463 0.15300001204013824463 
0.15300001204013824463 0.15300001204013824463 0.15300001204013824463 0.15300001204013824463 0.15300001204013824463 0.15300001204013824463 0.15300001204013824463 0.15300001204013824463 0.15300001204013824463 0.15300001204013824463 0.15300001204013824463 0.15300001204013824463 0.15300001204013824463 0.15300001204013824463 0.15300001204013824463 0.15300001204013824463 0.15300001204013824463 0.15300001204013824463 0.15300001204013824463 
0.15300001204013824463 0.15300001204013824463 0.15300001204013824463 0.15300001204013824463 0.15300001204013824463 0.15300001204013824463 0.15300001204013824463 0.15300001204013824463 0.15300001204013824463 0.15300001204013824463 0.15300001204013824463 0.15300001204013824463 0.15300001204013824463 0.15300001204013824463 0.15300001204013824463 0.15300001204013824463 0.15300001204013824463 0.15300001204013824463 0.15300001204013824463 
0.15300001204013824463 0.15300001204013824463 0.15300001204013824463 0.15300001204013824463 0.15300001204013824463 0.15300001204013824463 0.15300001204013824463 0.15300001204013824463 0.15300001204013824463 0.15300001204013824463 0.15300001204013824463 0.15300001204013824463 0.15300001204013824463 0.15300001204013824463 0.15300001204013824463 0.15300001204013824463 0.15300001204013824463 0.15300001204013824463 0.15300001204013824463 
0.15300001204013824463 0.15300001204013824463 0.15300001204013824463 0.15300001204013824463 0.15300001204013824463 0.15300001204013824463 0.15300001204013824463 0.15300001204013824463 0.15300001204013824463 0.15300001204013824463 0.15300001204013824463 0.15300001204013824463 0.15300001204013824463 0.15300001204013824463 0.15300001204013824463 0.15300001204013824463 0.15300001204013824463 0.15300001204013824463 0.15300001204013824463 
0.15300001204013824463 0.15300001204013824463 0.15300001204013824463 0.15300001204013824463 0.15300001204013824463 0.15300001204013824463 0.15300001204013824463 0.15300001204013824463 0.15300001204013824463 0.15300001204013824463 0.15300001204013824463 0.15300001204013824463 0.15300001204013824463 0.15300001204013824463 0.15300001204013824463 0.15300001204013824463 0.16500000655651092529 0.16500000655651092529 0.16500000655651092529 
0.15300001204013824463 0.15300001204013824463 0.15300001204013824463 0.15300001204013824463 0.15300001204013824463 0.15300001204013824463 0.15300001204013824463 0.15300001204013824463 0.15300001204013824463 0.15300001204013824463 0.15300001204013824463 0.16500000655651092529 0.16500000655651092529 0.16500000655651092529 0.16500000655651092529 0.16500000655651092529 0.16500000655651092529 0.16500000655651092529 0.16500000655651092529 
0.15300001204013824463 0.15300001204013824463 0.15300001204013824463 0.15300001204013824463 0.15300001204013824463 0.15300001204013824463 0.15300001204013824463 0.15300001204013824463 0.15300001204013824463 0.15300001204013824463 0.15300001204013824463 0.16500000655651092529 0.16500000655651092529 0.16500000655651092529 0.16500000655651092529 0.16500000655651092529 0.16500000655651092529 0.16500000655651092529 0.16500000655651092529 
0.15300001204013824463 0.15300001204013824463 0.15300001204013824463 0.15300001204013824463 0.15300001204013824463 0.15300001204013824463 0.16500000655651092529 0.16500000655651092529 0.16500000655651092529 0.16500000655651092529 0.16500000655651092529 0.16500000655651092529 0.16500000655651092529 0.16500000655651092529 0.16500000655651092529 0.16500000655651092529 0.16500000655651092529 0.16500000655651092529 0.16500000655651092529 
0.15300001204013824463 0.15300001204013824463 0.16500000655651092529 0.16500000655651092529 0.16500000655651092529 0.16500000655651092529 0.16500000655651092529 0.16500000655651092529 0.16500000655651092529 0.16500000655651092529 0.16500000655651092529 0.16500000655651092529 0.16500000655651092529 0.16500000655651092529 0.16500000655651092529 0.16500000655651092529 0.16500000655651092529 0.16500000655651092529 0.16500000655651092529 
0.16500000655651092529 0.16500000655651092529 0.16500000655651092529 0.16500000655651092529 0.16500000655651092529 0.16500000655651092529 0.16500000655651092529 0.16500000655651092529 0.16500000655651092529 0.16500000655651092529 0.16500000655651092529 0.16500000655651092529 0.16500000655651092529 0.16500000655651092529 0.16500000655651092529 0.16500000655651092529 0.16500000655651092529 0.16500000655651092529 0.16500000655651092529 
0.16500000655651092529 0.16500000655651092529 0.16500000655651092529 0.16500000655651092529 0.16500000655651092529 0.16500000655651092529 0.16500000655651092529 0.16500000655651092529 0.16500000655651092529 0.16500000655651092529 0.16500000655651092529 0.16500000655651092529 0.16500000655651092529 0.16500000655651092529 0.16500000655651092529 0.16500000655651092529 0.16500000655651092529 0.16500000655651092529 0.16500000655651092529 
0.16500000655651092529 0.16500000655651092529 0.16500000655651092529 0.16500000655651092529 0.16500000655651092529 0.16500000655651092529 0.16500000655651092529 0.16500000655651092529 0.16500000655651092529 0.16500000655651092529 0.16500000655651092529 0.16500000655651092529 0.16500000655651092529 0.16500000655651092529 0.16500000655651092529 0.16500000655651092529 0.16500000655651092529 0.16500000655651092529 0.16500000655651092529 
0.16500000655651092529 0.16500000655651092529 0.16500000655651092529 0.16500000655651092529 0.16500000655651092529 0.16500000655651092529 0.16500000655651092529 0.16500000655651092529 0.16500000655651092529 0.16500000655651092529 0.16500000655651092529 0.16500000655651092529 0.16500000655651092529 0.16500000655651092529 0.16500000655651092529 0.16500000655651092529 0.16500000655651092529 0.16500000655651092529 0.16500000655651092529 
0.16500000655651092529 0.16500000655651092529 0.16500000655651092529 0.16500000655651092529 0.16500000655651092529 0.16500000655651092529 0.16500000655651092529 0.16500000655651092529 0.16500000655651092529 0.16500000655651092529 0.16500000655651092529 0.16500000655651092529 0.16500000655651092529 0.16500000655651092529 0.16500000655651092529 0.16500000655651092529 0.16500000655651092529 0.16500000655651092529 0.16500000655651092529 
0.16500000655651092529 0.16500000655651092529 0.16500000655651092529 0.16500000655651092529 0.16500000655651092529 0.16500000655651092529 0.16500000655651092529 0.16500000655651092529 0.16500000655651092529 0.16500000655651092529 0.16500000655651092529 0.16500000655651092529 0.16500000655651092529 0.16500000655651092529 0.16500000655651092529 0.16500000655651092529 0.16500000655651092529 0.16500000655651092529 0.16500000655651092529 
0.16500000655651092529 0.16500000655651092529 0.16500000655651092529 0.16500000655651092529 0.16500000655651092529 0.16500000655651092529 0.16500000655651092529 0.16500000655651092529 0.16500000655651092529 0.16500000655651092529 0.16500000655651092529 0.16500000655651092529 0.16500000655651092529 0.16500000655651092529 0.16500000655651092529 0.16500000655651092529 0.16500000655651092529 0.16500000655651092529 0.16500000655651092529 
0.16500000655651092529 0.16500000655651092529 0.16500000655651092529 0.16500000655651092529 0.16500000655651092529 0.16500000655651092529 0.16500000655651092529 0.16500000655651092529 0.16500000655651092529 0.16500000655651092529 0.16500000655651092529 0.16500000655651092529 0.16500000655651092529 0.16500000655651092529 0.16500000655651092529 0.16500000655651092529 0.16500000655651092529 0.16500000655651092529 0.16500000655651092529 
