ncols        19
nrows        32
xllcorner    299175.080884210533
yllcorner    1429348.617231579265
cellsize     910.138494736842
NODATA_value nan
0.0 0 0 0 0 0 0 0 0 0 0 0 0 0 0 0 0 0 0 
0 0 0 0 0 0 0 0 0 0 0 0 0 0 0 0 0 0 0 
0 0 0 0 0 0 0 0 0 0 0 0 0 0 0 0 0 0 0 
0 0 0 0 0 0 0 0 0 0 0 0 0 0 0 0 0 0 0 
0 0 0 0 0 0 0 0 0 0 0 0 0 0 0 0 0 0 0 
0 0 0 0 0 0 0 0 0 0 0 0 0 0 0 0 0 0 0 
0 0 0 0 0 0 0 0 0 0 0 0 0 0 0 0 0 0 0 
0 0 0 0 0 0 0 0 0 0 0 0 0 0 0 0 0 0 0 
0 0 0 0 0 0 0 0 0 0 0 0 0 0 0 0 0 0 0 
0 0 0 0 0 0 0 0 0 0 0 0 0 0 0 0 0 0 0 
0 0 0 0 0 0 0 0 0 0 0 0 0 0 0 0 0 0 0 
0 0 0 0 0 0 0 0 0 0 0 0 0 0 0 0 0 0 0 
0 0 0 0 0 0 1.4299941385060152171e-21 5.031344585404440295e-08 5.031344585404440295e-08 8.5968686391879600706e-08 1.3846420188201591372e-07 3.274170410350052407e-07 3.1935886823930559331e-08 0 0 0 0 0 0 
0 0 0 0 0 0 3.3642956042551075413e-14 1.1837062835693359375 1.1837062835693359375 2.0225543975830078125 3.2575974464416503906 7.7030224800109863281 0.75134408473968505859 0 0 0 0 0 0 
0 0 0 0 0 0 3.3642956042551075413e-14 1.1837062835693359375 1.1837062835693359375 2.0225543975830078125 3.2575974464416503906 7.7030224800109863281 0.75134414434432983398 0 0 0 0 0 0 
0 0 0 0 0 0 0 0 0 7.0076241901265157175e-14 2.4655885696411132812 8.9053659439086914062 2.3860285282135009766 5.3190657212098813034e-08 0 0 0 0 0 
0 0 0 0 0 0 0 0 0 6.532532219154230102e-14 2.2984304428100585938 2.5438244342803955078 8.634654998779296875 1.2947976589202880859 4.0704467352270512492e-08 0 0 0 0 
0 0 0 0 0 0 0 0 0 0 8.2911040771675714733e-14 2.9171729087829589844 12.846235275268554688 2.1088628768920898438 1.0024366378784179688 0 0 0 0 
0 0 0 0 0 0 0 0 0 0 1.7282514666334264364e-14 0.60807442665100097656 7.3293027877807617188 1.4254844188690185547 0 0 0 0 0 
0 0 0 0 0 0 0 0 0 0 1.847562325298004321e-14 0.65005320310592651367 6.3859925270080566406 0.67104256153106689453 0 0 0 0 0 
0 0 0 0 0 0 0 0 0 0 0 5.141749181915462874e-14 1.8090921640396118164 0 0 0 0 0 0 
0 0 0 0 0 0 0 0 0 0 0 5.5250458207015476497e-14 1.9439526796340942383 0 0 0 0 0 0 
0 0 0 0 0 0 0 0 0 0 0 0 0 0 0 0 0 0 0 
0 0 0 0 0 0 0 0 0 0 0 0 0 0 0 0 0 0 0 
0 0 0 0 0 0 0 0 0 0 0 0 0 0 0 0 0 0 0 
0 0 0 0 0 0 0 0 0 0 0 0 0 0 0 0 0 0 0 
0 0 0 0 0 0 0 0 0 0 0 0 0 0 0 0 0 0 0 
0 0 0 0 0 0 0 0 0 0 0 0 0 0 0 0 0 0 0 
0 0 0 0 0 0 0 0 0 0 0 0 0 0 0 0 0 0 0 
0 0 0 0 0 0 0 0 0 0 0 0 0 0 0 0 0 0 0 
0 0 0 0 0 0 0 0 0 0 0 0 0 0 0 0 0 0 0 
0 0 0 0 0 0 0 0 0 0 0 0 0 0 0 0 0 0 0 
