ncols        19
nrows        32
xllcorner    299175.080884210533
yllcorner    1429348.617231579265
cellsize     910.138494736842
NODATA_value nan
55.5889892578125 54.198699951171875 56.883823394775390625 54.17374420166015625 53.479686737060546875 33.46484375 24.682481765747070312 24.682481765747070312 36.323589324951171875 41.34174346923828125 44.863040924072265625 45.791896820068359375 47.7736968994140625 47.6089630126953125 44.2984619140625 47.466678619384765625 48.09375762939453125 34.2443389892578125 34.2443389892578125 
61.8712310791015625 53.31983184814453125 49.69225311279296875 53.148227691650390625 54.32363128662109375 41.076061248779296875 25.7032928466796875 25.7032928466796875 36.541698455810546875 47.466678619384765625 52.806671142578125 45.644519805908203125 51.592746734619140625 50.849735260009765625 55.48667144775390625 51.962352752685546875 52.130130767822265625 43.051544189453125 43.051544189453125 
47.335681915283203125 48.717914581298828125 47.61994171142578125 51.830902099609375 50.302402496337890625 47.587039947509765625 29.85992431640625 29.859926223754882812 44.451740264892578125 54.08649444580078125 60.686038970947265625 60.30991363525390625 49.044330596923828125 55.130084991455078125 54.62465667724609375 50.65108489990234375 56.12918853759765625 51.62841796875 51.62841796875 
44.206775665283203125 45.781368255615234375 44.585010528564453125 49.86419677734375 48.4048309326171875 52.443149566650390625 42.451084136962890625 42.451084136962890625 46.83697509765625 56.180919647216796875 56.0001068115234375 52.2984466552734375 49.044330596923828125 55.4994659423828125 52.2142181396484375 51.367527008056640625 51.296627044677734375 51.962352752685546875 51.96234893798828125 
40.9438629150390625 41.7627105712890625 40.783901214599609375 41.8493499755859375 37.74755096435546875 39.581180572509765625 49.3501739501953125 49.3501739501953125 42.31446075439453125 45.08049774169921875 46.6969757080078125 46.396877288818359375 46.088108062744140625 39.645030975341796875 21.566949844360351562 13.479964256286621094 14.07306671142578125 25.875499725341796875 25.875499725341796875 
43.76116180419921875 40.057956695556640625 40.643280029296875 44.85272216796875 44.40059661865234375 37.4618072509765625 46.847751617431640625 46.847751617431640625 35.333675384521484375 39.029125213623046875 36.837375640869140625 36.206684112548828125 29.362215042114257812 21.482692718505859375 16.729724884033203125 12.496511459350585938 15.299908638000488281 22.064226150512695312 22.064226150512695312 
44.34951019287109375 47.31391143798828125 46.54668426513671875 45.340755462646484375 41.34174346923828125 44.15589141845703125 40.391387939453125 40.391387939453125 24.327009201049804688 25.7922210693359375 22.064226150512695312 22.283773422241210938 21.07117462158203125 19.336984634399414062 24.4111785888671875 29.254238128662109375 31.55649566650390625 22.464082717895507812 22.464082717895507812 
49.990634918212890625 54.851535797119140625 45.67607879638671875 42.12003326416015625 43.90245819091796875 39.029125213623046875 32.92218780517578125 32.92218780517578125 17.056453704833984375 13.598429679870605469 14.295152664184570312 17.749608993530273438 20.610513687133789062 19.336984634399414062 24.4111785888671875 29.254238128662109375 31.55649566650390625 22.464082717895507812 22.464082717895507812 
49.990634918212890625 54.851535797119140625 45.67607879638671875 42.12003326416015625 43.90245819091796875 39.029125213623046875 32.92218780517578125 32.92218780517578125 17.056453704833984375 13.598429679870605469 14.295152664184570312 17.749608993530273438 20.610513687133789062 22.458917617797851562 31.951313018798828125 37.47043609619140625 37.851993560791015625 27.899003982543945312 27.899003982543945312 
60.67205047607421875 59.75699615478515625 52.806671142578125 52.904022216796875 50.95522308349609375 39.15514373779296875 30.54138946533203125 30.54138946533203125 17.369558334350585938 12.370542526245117188 12.682028770446777344 14.504032135009765625 12.790536880493164062 14.354521751403808594 23.713125228881835938 27.49721527099609375 33.09700775146484375 30.205686569213867188 30.205686569213867188 
67.0793304443359375 59.56467437744140625 52.08213043212890625 48.39369964599609375 44.77016448974609375 39.947418212890625 26.3747711181640625 26.3747711181640625 12.935664176940917969 10.584947586059570312 10.403722763061523438 12.175555229187011719 12.502268791198730469 12.917806625366210938 18.398767471313476562 23.130701065063476562 27.119945526123046875 26.920848846435546875 26.920848846435546875 
60.005191802978515625 51.914508819580078125 42.568538665771484375 42.0425262451171875 34.848873138427734375 27.232578277587890625 22.997928619384765625 22.997926712036132812 9.6892194747924804688 8.5013675689697265625 8.7697811126708984375 12.362002372741699219 20.169206619262695312 21.776533126831054688 25.941118240356445312 29.681697845458984375 33.272754669189453125 31.440448760986328125 31.440448760986328125 
56.2974700927734375 47.718730926513671875 41.303676605224609375 37.878154754638671875 30.032312393188476562 21.192821502685546875 17.872644424438476562 10.329724311828613281 10.329724311828613281 9.96526336669921875 9.0842437744140625 12.114033699035644531 27.1324310302734375 33.565166473388671875 31.775236129760742188 35.333675384521484375 33.68129730224609375 41.151798248291015625 41.151798248291015625 
50.313976287841796875 44.22711944580078125 41.028789520263671875 37.7214813232421875 33.449436187744140625 22.892263412475585938 17.839750289916992188 11.391705513000488281 11.391705513000488281 9.8285341262817382812 7.77837371826171875 10.516923904418945312 23.019123077392578125 28.74013519287109375 32.224689483642578125 43.190547943115234375 37.7214813232421875 41.85900115966796875 41.85900115966796875 
53.07483673095703125 53.738910675048828125 53.578277587890625 49.32744598388671875 39.417476654052734375 32.336181640625 30.205686569213867188 12.522435188293457031 12.522435188293457031 9.2787351608276367188 5.3381257057189941406 5.3381252288818359375 12.350619316101074219 14.699032783508300781 19.737348556518554688 29.362215042114257812 40.18729400634765625 40.465862274169921875 30.422067642211914062 
40.4286041259765625 40.699466705322265625 36.8289031982421875 34.86492919921875 39.9566192626953125 43.90245819091796875 38.89455413818359375 17.477878570556640625 17.477878570556640625 12.45629119873046875 9.0905199050903320312 5.3381252288818359375 5.3381257057189941406 7.2308406829833984375 10.974602699279785156 21.731454849243164062 29.66802978515625 35.957439422607421875 27.41503143310546875 
42.090953826904296875 36.7103729248046875 27.7069549560546875 30.205686569213867188 37.851993560791015625 38.89455413818359375 44.646633148193359375 26.846569061279296875 26.846569061279296875 12.525319099426269531 8.139331817626953125 8.014728546142578125 14.611294746398925781 8.9678592681884765625 10.594702720642089844 19.319185256958007812 29.66802978515625 35.957439422607421875 27.41503143310546875 
40.493816375732421875 36.7103729248046875 27.7069549560546875 30.205686569213867188 37.851993560791015625 38.89455413818359375 44.646633148193359375 26.846569061279296875 26.846569061279296875 12.525319099426269531 8.139331817626953125 8.014728546142578125 14.611294746398925781 8.9678592681884765625 10.594702720642089844 19.319185256958007812 28.222066879272460938 33.449436187744140625 25.409069061279296875 
40.493816375732421875 39.029125213623046875 34.03209686279296875 34.149845123291015625 38.105594635009765625 38.635700225830078125 41.56127166748046875 38.493621826171875 38.493621826171875 17.21823883056640625 9.3301534652709960938 8.09261322021484375 14.611294746398925781 10.838988304138183594 14.060112953186035156 25.141357421875 28.43077850341796875 27.5162200927734375 25.780345916748046875 
42.42177581787109375 47.183338165283203125 44.206775665283203125 38.635700225830078125 40.465862274169921875 39.353992462158203125 36.7103729248046875 34.394481658935546875 34.394481658935546875 22.829099655151367188 12.885129928588867188 8.7355184555053710938 10.050525665283203125 11.276874542236328125 18.36490631103515625 28.43077850341796875 24.8707427978515625 20.786851882934570312 21.566949844360351562 
46.858554840087890625 52.636714935302734375 52.806671142578125 43.912555694580078125 36.71881866455078125 39.75472259521484375 36.956329345703125 28.839565277099609375 28.839565277099609375 15.987801551818847656 10.806593894958496094 5.33812713623046875 7.1332721710205078125 11.862840652465820312 26.551479339599609375 27.33309173583984375 22.232524871826171875 19.403888702392578125 21.339725494384765625 
43.912555694580078125 44.206775665283203125 43.469905853271484375 38.635700225830078125 34.632892608642578125 34.86492919921875 34.632892608642578125 27.969760894775390625 27.969760894775390625 20.62000274658203125 20.544176101684570312 34.354907989501953125 12.864376068115234375 11.489172935485839844 16.01728057861328125 19.587938308715820312 20.016527175903320312 17.770053863525390625 18.984043121337890625 
46.858554840087890625 44.044208526611328125 34.165576934814453125 33.696804046630859375 33.58061981201171875 30.959135055541992188 31.073396682739257812 25.089315414428710938 25.089315414428710938 31.152204513549804688 36.0652313232421875 35.957439422607421875 24.620038986206054688 15.215588569641113281 14.069826126098632812 18.0587921142578125 18.092088699340820312 20.206394195556640625 22.160970687866210938 
47.883815765380859375 39.417476654052734375 32.246959686279296875 30.33812713623046875 39.727275848388671875 36.4408721923828125 36.811946868896484375 28.8594970703125 28.8594970703125 35.0904388427734375 47.4229736328125 38.369731903076171875 26.809505462646484375 18.267902374267578125 17.238077163696289062 21.942638397216796875 23.040332794189453125 28.105333328247070312 33.058929443359375 
30.32415771484375 28.529146194458007812 31.789875030517578125 35.932613372802734375 35.685253143310546875 33.68129730224609375 28.306671142578125 31.680265426635742188 31.680265426635742188 34.283786773681640625 31.09487152099609375 29.234033584594726562 21.30535125732421875 18.4114837646484375 25.00856781005859375 35.932613372802734375 34.2206878662109375 35.0904388427734375 34.98555755615234375 
26.3747711181640625 31.195270538330078125 34.98555755615234375 35.228057861328125 34.386562347412109375 29.681697845458984375 28.0988616943359375 29.88744354248046875 29.88744354248046875 28.919366836547851562 30.8808135986328125 30.450105667114257812 22.191608428955078125 21.344635009765625 28.647630691528320312 32.77092742919921875 31.93660736083984375 38.07051849365234375 40.755733489990234375 
29.052850723266601562 31.066240310668945312 28.8462066650390625 25.845729827880859375 30.317174911499023438 29.681697845458984375 28.0988616943359375 29.88744354248046875 29.88744354248046875 28.919366836547851562 30.8808135986328125 30.450105667114257812 22.191608428955078125 21.344635009765625 28.647630691528320312 32.77092742919921875 31.93660736083984375 38.07051849365234375 40.755733489990234375 
29.052850723266601562 31.066240310668945312 28.8462066650390625 25.845729827880859375 30.317174911499023438 33.503391265869140625 26.253591537475585938 26.908452987670898438 26.939455032348632812 26.939455032348632812 25.899339675903320312 25.141357421875 20.511087417602539062 22.57297515869140625 27.1324310302734375 29.173511505126953125 27.834842681884765625 31.789875030517578125 37.0585784912109375 
33.2038726806640625 34.537326812744140625 32.306415557861328125 25.391521453857421875 28.529146194458007812 37.47906494140625 29.254238128662109375 30.018482208251953125 27.402406692504882812 27.402406692504882812 24.349430084228515625 22.57297515869140625 19.394952774047851562 19.13324737548828125 23.12537384033203125 29.914979934692382812 29.281190872192382812 33.88353729248046875 39.326812744140625 
29.457019805908203125 29.039472579956054688 35.106601715087890625 32.808673858642578125 36.811946868896484375 38.369731903076171875 38.5024871826171875 34.0477752685546875 30.018482208251953125 30.018482208251953125 30.555459976196289062 28.345804214477539062 24.287830352783203125 20.945405960083007812 22.02362060546875 30.122343063354492188 31.907201766967773438 35.082355499267578125 34.921169281005859375 
21.786565780639648438 22.505502700805664062 27.6177825927734375 29.133235931396484375 30.866594314575195312 39.81884765625 44.925075531005859375 25.857629776000976562 23.184019088745117188 23.184019088745117188 30.661169052124023438 32.351078033447265625 30.094615936279296875 22.787084579467773438 19.929149627685546875 23.528200149536132812 28.839565277099609375 28.726902008056640625 31.60012054443359375 
22.422746658325195312 22.57297515869140625 25.379835128784179688 25.56752777099609375 27.370880126953125 36.820423126220703125 52.904022216796875 24.259885787963867188 21.408626556396484375 21.408626556396484375 28.404607772827148438 30.959135055541992188 24.501279830932617188 17.663988113403320312 16.698934555053710938 16.861211776733398438 20.276300430297851562 25.875499725341796875 27.320505142211914062 
