ncols        19
nrows        32
xllcorner    299175.080884210533
yllcorner    1429348.617231579265
cellsize     910.138494736842
0.091764114797115325928 0.094362922012805938721 0.091765575110912322998 0.091764181852340698242 0.09435507655143737793 0.091751866042613983154 0.09235753864049911499 0.097841426730155944824 0.09173679351806640625 0.094329960644245147705 0.094337336719036102295 0.0943449363112449646 0.089166656136512756348 0.094365634024143218994 0.091779410839080810547 0.091789312660694122314 0.17397417128086090088 0.17398463189601898193 0.17399483919143676758 
0.091766461730003356934 0.094365671277046203613 0.094366542994976043701 0.091766014695167541504 0.094355002045631408691 0.094345957040786743164 0.094337545335292816162 0.097379043698310852051 0.16373319923877716064 0.16831031441688537598 0.168315887451171875 0.16374222934246063232 0.16832846403121948242 0.094360746443271636963 0.094374768435955047607 0.094386562705039978027 0.094392567873001098633 0.17398095130920410156 0.16908521950244903564 
0.094367481768131256104 0.094368398189544677734 0.094369314610958099365 0.094366393983364105225 0.094354920089244842529 0.09174798429012298584 0.16373851895332336426 0.16655823588371276855 0.16372944414615631104 0.16830554604530334473 0.1683114171028137207 0.16831763088703155518 0.16832469403743743896 0.16375260055065155029 0.16376124322414398193 0.16376878321170806885 0.16835640370845794678 0.16907230019569396973 0.17398887872695922852 
0.09697552025318145752 0.091772094368934631348 0.09177293628454208374 0.094368480145931243896 0.1637509465217590332 0.16374325752258300781 0.16373616456985473633 0.16399867832660675049 0.16598485410213470459 0.16372400522232055664 0.16830703616142272949 0.16831354796886444092 0.16374166309833526611 0.16374973952770233154 0.16375876963138580322 0.16376665234565734863 0.16835424304008483887 0.169068947434425354 0.16907989978790283203 
0.096979103982448577881 0.091774232685565948486 0.09177449345588684082 0.094370119273662567139 0.1637525409460067749 0.16374538838863372803 0.16831815242767333984 0.16831317543983459473 0.1659720689058303833 0.16830646991729736328 0.16373364627361297607 0.16373854875564575195 0.16374418139457702637 0.16375061869621276855 0.16375809907913208008 0.15918660163879394531 0.15906463563442230225 0.16367058455944061279 0.16378191113471984863 
0.091776840388774871826 0.094375811517238616943 0.16376315057277679443 0.16834330558776855469 0.16375471651554107666 0.16374880075454711914 0.16832374036312103271 0.16832068562507629395 0.16595950722694396973 0.16831676661968231201 0.16374130547046661377 0.1545823514461517334 0.15917265415191650391 0.15912047028541564941 0.15912362933158874512 0.16367323696613311768 0.16370664536952972412 0.15915840864181518555 0.15920311212539672852 
0.094379641115665435791 0.16834805905818939209 0.1637640148401260376 0.16834437847137451172 0.16375705599784851074 0.16375233232975006104 0.16832929849624633789 0.16832844913005828857 0.16374708712100982666 0.16596870124340057373 0.16374923288822174072 0.15458680689334869385 0.15917699038982391357 0.1591224372386932373 0.15912412106990814209 0.16367255151271820068 0.15919089317321777344 0.15919794142246246338 0.15920522809028625488 
0.16835492849349975586 0.16835331916809082031 0.16376830637454986572 0.16376630961894989014 0.1637630164623260498 0.16375979781150817871 0.16833935678005218506 0.16375821828842163086 0.15918131172657012939 0.16108043491840362549 0.15915174782276153564 0.15904177725315093994 0.15911059081554412842 0.15908901393413543701 0.15908908843994140625 0.15918533504009246826 0.15919202566146850586 0.15919961035251617432 0.15920773148536682129 
0.16836115717887878418 0.16835899651050567627 0.16377295553684234619 0.16377115249633789062 0.16376961767673492432 0.1637681126594543457 0.159188881516456604 0.15919101238250732422 0.15919362008571624756 0.16420510411262512207 0.16814680397510528564 0.15447160601615905762 0.16358844935894012451 0.16358770430088043213 0.16362197697162628174 0.15918625891208648682 0.16377311944961547852 0.15920147299766540527 0.15921039879322052002 
0.17295885086059570312 0.16378124058246612549 0.16377878189086914062 0.16836127638816833496 0.1683610081672668457 0.16377742588520050049 0.15919901430606842041 0.15920375287532806396 0.15951259434223175049 0.16147099435329437256 0.16808819770812988281 0.16359509527683258057 0.16359338164329528809 0.16359178721904754639 0.16359022259712219238 0.15461282432079315186 0.15919484198093414307 0.15920327603816986084 0.16379551589488983154 
0.16838131844997406006 0.16837787628173828125 0.16378885507583618164 0.1637865900993347168 0.16378606855869293213 0.16378605365753173828 0.15920652449131011963 0.15904524922370910645 0.16819298267364501953 0.15904700756072998047 0.16813677549362182617 0.1680869758129119873 0.15900178253650665283 0.15900179743766784668 0.15904024243354797363 0.15904007852077484131 0.16359528899192810059 0.15921068191528320312 0.15922138094902038574 
0.16839765012264251709 0.16839352250099182129 0.16380210220813751221 0.16379915177822113037 0.16379724442958831787 0.16379590332508087158 0.15921352803707122803 0.15921573340892791748 0.15915888547897338867 0.16815759241580963135 0.16360059380531311035 0.16354414820671081543 0.16354408860206604004 0.16378724575042724609 0.16378428041934967041 0.1637849956750869751 0.1592117995023727417 0.15922150015830993652 0.16381758451461791992 
0.16841498017311096191 0.1684102863073348999 0.16381627321243286133 0.16381242871284484863 0.16380906105041503906 0.15922304987907409668 0.15922139585018157959 0.15904860198497772217 0.15904882550239562988 0.16354499757289886475 0.16808831691741943359 0.16415046155452728271 0.16354505717754364014 0.1636002659797668457 0.15921320021152496338 0.15921474993228912354 0.16380690038204193115 0.16381826996803283691 0.16383144259452819824 
0.16843391954898834229 0.16842857003211975098 0.16383178532123565674 0.16382686793804168701 0.16382177174091339111 0.16381740570068359375 0.1638139188289642334 0.15922912955284118652 0.16354501247406005859 0.17717544734477996826 0.18625850975513458252 0.17262986302375793457 0.17262986302375793457 0.15900188684463500977 0.15904942154884338379 0.15922783315181732178 0.15923638641834259033 0.16383270919322967529 0.16384604573249816895 
0.16845525801181793213 0.1684490889310836792 0.16384920477867126465 0.16384321451187133789 0.16383577883243560791 0.16382928192615509033 0.15923845767974853516 0.15923629701137542725 0.15923413634300231934 0.15902036428451538086 0.14537249505519866943 0.14537249505519866943 0.14537249505519866943 0.17262986302375793457 0.16354519128799438477 0.15450111031532287598 0.1592508852481842041 0.15925973653793334961 0.16386164724826812744 
0.16388265788555145264 0.16387629508972167969 0.16387008130550384521 0.16386258602142333984 0.16385270655155181885 0.1638434678316116333 0.15924893319606781006 0.15924482047557830811 0.15924072265625 0.15900187194347381592 0.14537249505519866943 0.18625853955745697021 0.14537249505519866943 0.19080139696598052979 0.18625853955745697021 0.1590595543384552002 0.16385692358016967773 0.15927483141422271729 0.16387856006622314453 
0.16389617323875427246 0.16388963162899017334 0.16388313472270965576 0.15928366780281066895 0.15927395224571228027 0.16385400295257568359 0.15925729274749755859 0.15925210714340209961 0.15905575454235076904 0.15900187194347381592 0.18625853955745697021 0.18628859519958496094 0.14537249505519866943 0.19080139696598052979 0.18625853955745697021 0.15906186401844024658 0.1638647913932800293 0.15928061306476593018 0.15929071605205535889 
0.16390573978424072266 0.16849918663501739502 0.16849200427532196045 0.15929226577281951904 0.15928193926811218262 0.15927265584468841553 0.1638536304235458374 0.16384735703468322754 0.15922200679779052734 0.15450258553028106689 0.17262986302375793457 0.17262986302375793457 0.18625850975513458252 0.1953442990779876709 0.17262986302375793457 0.16354532539844512939 0.16378466784954071045 0.15928235650062561035 0.15929163992404937744 
0.1639156341552734375 0.16390927135944366455 0.16390307247638702393 0.16389505565166473389 0.16388271749019622803 0.1638717353343963623 0.16386212408542633057 0.16844992339611053467 0.16384886205196380615 0.15925656259059906006 0.15445879101753234863 0.15445880591869354248 0.18171565234661102295 0.1953442990779876709 0.17717275023460388184 0.15906436741352081299 0.16387195885181427002 0.1592842787504196167 0.16374091804027557373 
0.15932342410087585449 0.15931859612464904785 0.16390971839427947998 0.16390213370323181152 0.15929661691188812256 0.15928699076175689697 0.15927845239639282227 0.15468685328960418701 0.15926615893840789795 0.15467828512191772461 0.15467852354049682617 0.15900120139122009277 0.18625850975513458252 0.17262986302375793457 0.15900200605392456055 0.15469495952129364014 0.14798445999622344971 0.14794808626174926758 0.14776691794395446777 
0.15932759642601013184 0.15932354331016540527 0.15931956470012664795 0.15931345522403717041 0.15930302441120147705 0.15929348766803741455 0.15928499400615692139 0.15927834808826446533 0.15468685328960418701 0.16354517638683319092 0.16354520618915557861 0.15609192848205566406 0.19209824502468109131 0.16452932357788085938 0.1476545184850692749 0.14798720180988311768 0.14371977746486663818 0.15206275880336761475 0.15198077261447906494 
0.15933173894882202148 0.1593284904956817627 0.1593252718448638916 0.15931981801986694336 0.15930950641632080078 0.16389414668083190918 0.15929175913333892822 0.15928471088409423828 0.16386961936950683594 0.15468841791152954102 0.15468864142894744873 0.14370751380920410156 0.14765566587448120117 0.16031059622764587402 0.15187323093414306641 0.15187323093414306641 0.15227101743221282959 0.1519743800163269043 0.15205347537994384766 
0.15933366119861602783 0.15933154523372650146 0.1593294292688369751 0.1593246161937713623 0.15931442379951477051 0.15930487215518951416 0.14372684061527252197 0.14798839390277862549 0.14798030257225036621 0.14797492325305938721 0.143707275390625 0.147977486252784729 0.14798089861869812012 0.14349883794784545898 0.14765448868274688721 0.14773768186569213867 0.15227423608303070068 0.14799928665161132812 0.14800569415092468262 
0.15933501720428466797 0.15015329420566558838 0.14376375079154968262 0.14803475141525268555 0.1480229794979095459 0.14801174402236938477 0.14800108969211578369 0.14799113571643829346 0.14798182249069213867 0.14797556400299072266 0.14370778203010559082 0.14797803759574890137 0.14798150956630706787 0.14798687398433685303 0.1434358060359954834 0.14799694716930389404 0.14372882246971130371 0.14373116195201873779 0.1437374800443649292 
0.14804551005363464355 0.13949920237064361572 0.14377026259899139404 0.14804278314113616943 0.14802953600883483887 0.14801666140556335449 0.14800506830215454102 0.14799384772777557373 0.14798329770565032959 0.14797616004943847656 0.14797617495059967041 0.14371050894260406494 0.14798207581043243408 0.27411282062530517578 0.14372290670871734619 0.1479978412389755249 0.14800171554088592529 0.14800566434860229492 0.1480140984058380127 
0.14377363026142120361 0.14377538859844207764 0.1437772214412689209 0.14377439022064208984 0.14803683757781982422 0.14374911785125732422 0.14800906181335449219 0.14799652993679046631 0.14798477292060852051 0.14797677099704742432 0.14797674119472503662 0.14371100068092346191 0.14798268675804138184 0.26817584037780761719 0.14372338354587554932 0.14799875020980834961 0.14800378680229187012 0.14800877869129180908 0.1480185389518737793 
0.14799879491329193115 0.14805917441844940186 0.14377373456954956055 0.14806030690670013428 0.15232685208320617676 0.14802895486354827881 0.14801394939422607422 0.14372847974300384521 0.14371694624423980713 0.14797742664813995361 0.14797732234001159668 0.14371150732040405273 0.1479832381010055542 0.27082607150077819824 0.14372386038303375244 0.14799961447715759277 0.14800582826137542725 0.1480121314525604248 0.14802290499210357666 
0.14378209412097930908 0.14804191887378692627 0.148001059889793396 0.14369122684001922607 0.14804004132747650146 0.15231658518314361572 0.14801888167858123779 0.14800204336643218994 0.14798769354820251465 0.14797803759574890137 0.14370988309383392334 0.14798037707805633545 0.16352756321430206299 0.14870978891849517822 0.14799456298351287842 0.14800050854682922363 0.14800798892974853516 0.14801551401615142822 0.15230824053287506104 
0.14378158748149871826 0.14378678798675537109 0.14807210862636566162 0.14799092710018157959 0.14377991855144500732 0.14376808702945709229 0.14375622570514678955 0.14374302327632904053 0.14373214542865753174 0.14372490346431732178 0.14372518658638000488 0.14372627437114715576 0.18141210079193115234 0.15827676653861999512 0.14373770356178283691 0.14801561832427978516 0.14802236855030059814 0.14802926778793334961 0.14804123342037200928 
0.14805743098258972168 0.14371491968631744385 0.14807070791721343994 0.14807273447513580322 0.14806412160396575928 0.14377771317958831787 0.14804659783840179443 0.14803513884544372559 0.14802609384059906006 0.14374651014804840088 0.14802059531211853027 0.14802160859107971191 0.1437492072582244873 0.2259693443775177002 0.14375653862953186035 0.14803694188594818115 0.14804239571094512939 0.1480487436056137085 0.14805959165096282959 
0.14351259171962738037 0.1476860344409942627 0.1480572819709777832 0.14807352423667907715 0.14807012677192687988 0.14378748834133148193 0.14806267619132995605 0.14805518090724945068 0.1523335576057434082 0.14793911576271057129 0.14494571089744567871 0.14804859459400177002 0.14377281069755554199 0.16005285084247589111 0.14805556833744049072 0.15234491229057312012 0.15235061943531036377 0.14807011187076568604 0.14807943999767303467 
0.14782603085041046143 0.14781565964221954346 0.15235692262649536133 0.14794188737869262695 0.14784522354602813721 0.14797486364841461182 0.14379836618900299072 0.14379568397998809814 0.14806330204010009766 0.15045371651649475098 0.14802879095077514648 0.14379772543907165527 0.1480805128812789917 0.16469344496726989746 0.14888626337051391602 0.16449989378452301025 0.15635748207569122314 0.14803284406661987305 0.14810234308242797852 
