ncols        19
nrows        32
xllcorner    299175.080884210533
yllcorner    1429348.617231579265
cellsize     910.138494736842
NODATA_value nan
0.48205852508544921875 0.48431926965713500977 0.49221718311309814453 0.49438440799713134766 0.49420115351676940918 0.4772783815860748291 0.47399607300758361816 0.47399607300758361816 0.48151603341102600098 0.48078814148902893066 0.48020949959754943848 0.48035216331481933594 0.48587298393249511719 0.48567166924476623535 0.48693138360977172852 0.48588195443153381348 0.48586404323577880859 0.47753009200096130371 0.47753009200096130371 
0.47953769564628601074 0.48427912592887878418 0.48599830269813537598 0.49422049522399902344 0.49415221810340881348 0.48120570182800292969 0.47388041019439697266 0.47388041019439697266 0.48189648985862731934 0.48588195443153381348 0.48428249359130859375 0.48035550117492675781 0.48422449827194213867 0.49436390399932861328 0.49226704239845275879 0.48428583145141601562 0.48428583145141601562 0.48123338818550109863 0.48123338818550109863 
0.48046609759330749512 0.48584279417991638184 0.48587745428085327148 0.49452331662178039551 0.48577901721000671387 0.48672065138816833496 0.47485363483428955078 0.47485363483428955078 0.48692351579666137695 0.49231350421905517578 0.48947978019714355469 0.48948204517364501953 0.48601734638214111328 0.49227949976921081543 0.49235886335372924805 0.48428359627723693848 0.48208072781562805176 0.4842846989631652832 0.4842846989631652832 
0.48117357492446899414 0.48683944344520568848 0.4872207343578338623 0.49463832378387451172 0.48585397005081176758 0.48589426279067993164 0.48108050227165222168 0.48108050227165222168 0.48709285259246826172 0.49224209785461425781 0.49224889278411865234 0.4842846989631652832 0.48601734638214111328 0.49233391880989074707 0.49241441488265991211 0.49238607287406921387 0.48428249359130859375 0.48428583145141601562 0.48428583145141601562 
0.48121789097785949707 0.48076379299163818359 0.48129212856292724609 0.48704800009727478027 0.48145949840545654297 0.48168015480041503906 0.48581817746162414551 0.48581817746162414551 0.48109269142150878906 0.48112037777900695801 0.48032784461975097656 0.48033669590950012207 0.48034554719924926758 0.47745972871780395508 0.47311395406723022461 0.48085016012191772461 0.48070070147514343262 0.47368621826171875 0.47368621826171875 
0.48092544078826904297 0.47743993997573852539 0.48129212856292724609 0.48591214418411254883 0.48574545979499816895 0.48178219795227050781 0.48589536547660827637 0.48589536547660827637 0.47738718986511230469 0.47734102606773376465 0.47545099258422851562 0.47525835037231445312 0.47363933920860290527 0.47310307621955871582 0.47567984461784362793 0.48257049918174743652 0.47817158699035644531 0.47318151593208312988 0.47318151593208312988 
0.48116469383239746094 0.48030573129653930664 0.48033225536346435547 0.48035991191864013672 0.48105391860008239746 0.4869403541088104248 0.48162248730659484863 0.48162248730659484863 0.4737975001335144043 0.4738706052303314209 0.47318151593208312988 0.47348994016647338867 0.47327303886413574219 0.4737091362476348877 0.47301700711250305176 0.47365131974220275879 0.47391533851623535156 0.47307366132736206055 0.47307366132736206055 
0.48579245805740356445 0.48425683379173278809 0.47709268331527709961 0.47729817032814025879 0.48091548681259155273 0.47734102606773376465 0.47467216849327087402 0.47467216849327087402 0.47824975848197937012 0.48182770609855651855 0.47901460528373718262 0.47491705417633056641 0.47337439656257629395 0.4737091362476348877 0.47301700711250305176 0.47365131974220275879 0.47391533851623535156 0.47307366132736206055 0.47307366132736206055 
0.48579245805740356445 0.48425683379173278809 0.47709268331527709961 0.47729817032814025879 0.48091548681259155273 0.47734102606773376465 0.47467216849327087402 0.47467216849327087402 0.47824975848197937012 0.48182770609855651855 0.47901460528373718262 0.47491705417633056641 0.47337439656257629395 0.47294405102729797363 0.47497501969337463379 0.47749602794647216797 0.47745972871780395508 0.47367751598358154297 0.47367751598358154297 
0.48216950893402099609 0.48216176033020019531 0.47933015227317810059 0.47928160429000854492 0.48575106263160705566 0.4773267209529876709 0.47332644462585449219 0.47332644462585449219 0.47780838608741760254 0.48253270983695983887 0.48170676827430725098 0.47841715812683105469 0.481868743896484375 0.47908189892768859863 0.47303989529609680176 0.47372984886169433594 0.47511065006256103516 0.47374841570854187012 0.47374841570854187012 
0.47952887415885925293 0.48216065764427185059 0.47929483652114868164 0.48025816679000854492 0.48085457086563110352 0.47724100947380065918 0.47297888994216918945 0.47297888994216918945 0.48406174778938293457 0.49018132686614990234 0.48977741599082946777 0.48378762602806091309 0.4835593104362487793 0.48220726847648620605 0.47443395853042602539 0.47292661666870117188 0.47299632430076599121 0.47300285100936889648 0.47300285100936889648 
0.48207184672355651855 0.47929704189300537109 0.47751030325889587402 0.48074609041213989258 0.47746634483337402344 0.47351282835006713867 0.4738203883171081543 0.4738203883171081543 0.49605149030685424805 0.50138431787490844727 0.49901288747787475586 0.48504915833473205566 0.47565466165542602539 0.47393280267715454102 0.47379857301712036133 0.47360444068908691406 0.47398298978805541992 0.47392407059669494629 0.47392407059669494629 
0.48208737373352050781 0.476657867431640625 0.47758948802947998047 0.48145285248756408691 0.47508439421653747559 0.47376367449760437012 0.47707292437553405762 0.49008312821388244629 0.49008312821388244629 0.49215936660766601562 0.49550354480743408203 0.48701772093772888184 0.47352373600006103516 0.47505265474319458008 0.47512266039848327637 0.47741028666496276855 0.47503843903541564941 0.47737181186676025391 0.47737181186676025391 
0.47931140661239624023 0.47726517915725708008 0.47760379314422607422 0.47776216268539428711 0.47506797313690185547 0.47312375903129577637 0.47647789120674133301 0.48745301365852355957 0.48745301365852355957 0.49294421076774597168 0.50366264581680297852 0.49835953116416931152 0.47416201233863830566 0.4733994603157043457 0.47505813837051391602 0.48096197843551635742 0.47747182846069335938 0.47755649685859680176 0.47755649685859680176 
0.47927829623222351074 0.4792639613151550293 0.4792683720588684082 0.48021394014358520508 0.47729817032814025879 0.4750417172908782959 0.47374841570854187012 0.4858315885066986084 0.4858315885066986084 0.49715149402618408203 0.4675076901912689209 0.4675076901912689209 0.48861271142959594727 0.48258382081985473633 0.47500345110893249512 0.47363933920860290527 0.4774322509765625 0.47741687297821044922 0.47372332215309143066 
0.47541597485542297363 0.47539845108985900879 0.47519707679748535156 0.47517299652099609375 0.47755980491638183594 0.48091548681259155273 0.47766315937042236328 0.47620698809623718262 0.47620698809623718262 0.49011585116386413574 0.51176756620407104492 0.4675076901912689209 0.4675076901912689209 0.49848231673240661621 0.48823371529579162598 0.47360116243362426758 0.47380730509757995605 0.47528243064880371094 0.47298759222030639648 
0.47703447937965393066 0.47520911693572998047 0.47311830520629882812 0.47374841570854187012 0.47745972871780395508 0.47766315937042236328 0.48114696145057678223 0.47291135787963867188 0.47291135787963867188 0.48890644311904907227 0.50973302125930786133 0.52977168560028076172 0.54574376344680786133 0.51068222522735595703 0.48910123109817504883 0.47569957375526428223 0.47380730509757995605 0.47528243064880371094 0.47298759222030639648 
0.47750481963157653809 0.47520911693572998047 0.47311830520629882812 0.47374841570854187012 0.47745972871780395508 0.47766315937042236328 0.48114696145057678223 0.47291135787963867188 0.47291135787963867188 0.48890644311904907227 0.50973302125930786133 0.52977168560028076172 0.54574376344680786133 0.51068222522735595703 0.48910123109817504883 0.47569957375526428223 0.47346270084381103516 0.47506797313690185547 0.47299414873123168945 
0.47750481963157653809 0.47765105962753295898 0.47499251365661621094 0.47526162862777709961 0.47773137688636779785 0.47768735885620117188 0.47734102606773376465 0.47707402706146240234 0.47707402706146240234 0.47703775763511657715 0.50499230623245239258 0.51120811700820922852 0.54574376344680786133 0.52160018682479858398 0.48866108059883117676 0.47323378920555114746 0.4734376072883605957 0.47355535626411437988 0.47369933128356933594 
0.47752019762992858887 0.48046943545341491699 0.48117357492446899414 0.47768735885620117188 0.47741687297821044922 0.4754816591739654541 0.47520911693572998047 0.47494655847549438477 0.47494655847549438477 0.47329592704772949219 0.48559227585792541504 0.50310397148132324219 0.48897737264633178711 0.49516022205352783203 0.47869485616683959961 0.4734376072883605957 0.47299957275390625 0.47388914227485656738 0.47357827425003051758 
0.48032230138778686523 0.48428359627723693848 0.48428249359130859375 0.48119017481803894043 0.4754619300365447998 0.47545754909515380859 0.47518393397331237793 0.47338637709617614746 0.47338637709617614746 0.4800414741039276123 0.49398726224899291992 0.4675076901912689209 0.50354903936386108398 0.48654022812843322754 0.47359681129455566406 0.47342452406883239746 0.47320437431335449219 0.47474539279937744141 0.47362732887268066406 
0.48119017481803894043 0.48117357492446899414 0.48094427585601806641 0.47738277912139892578 0.47491484880447387695 0.47488424181938171387 0.47491484880447387695 0.47474977374076843262 0.47474977374076843262 0.47597238421440124512 0.47594499588012695312 0.47684228420257568359 0.49355408549308776855 0.49054375290870666504 0.47964814305305480957 0.47524741291999816895 0.47453665733337402344 0.47644278407096862793 0.47467651963233947754 
0.48032230138778686523 0.4809055030345916748 0.47718277573585510254 0.47724649310111999512 0.47726300358772277832 0.47488096356391906738 0.47486346960067749023 0.4756787717342376709 0.4756787717342376709 0.47726738452911376953 0.47732013463973999023 0.47694990038871765137 0.47404739260673522949 0.48075163364410400391 0.48347136378288269043 0.47806259989738464355 0.47754329442977905273 0.47539079189300537109 0.47381168603897094727 
0.48007905483245849609 0.47729817032814025879 0.4744962155818939209 0.47472244501113891602 0.48095312714576721191 0.4772739708423614502 0.47722673416137695312 0.47494986653327941895 0.47494986653327941895 0.47743886709213256836 0.48010337352752685547 0.47740918397903442383 0.47367751598358154297 0.47662273049354553223 0.47885912656784057617 0.47474756836891174316 0.47393059730529785156 0.47529119253158569336 0.47763347625732421875 
0.47353246808052062988 0.47342452406883239746 0.47483941912651062012 0.47768187522888183594 0.47770828008651733398 0.47503843903541564941 0.47362405061721801758 0.47485581040382385254 0.47485581040382385254 0.47716739773750305176 0.47460985183715820312 0.47494328022003173828 0.47544771432876586914 0.47820901870727539062 0.47434437274932861328 0.47768187522888183594 0.47784799337387084961 0.47743886709213256836 0.47515767812728881836 
0.47297888994216918945 0.47344088554382324219 0.47486785054206848145 0.47512704133987426758 0.47523319721221923828 0.47360444068908691406 0.47365131974220275879 0.47504609823226928711 0.47504609823226928711 0.47498923540115356445 0.47464156150817871094 0.4747060239315032959 0.47476616501808166504 0.47577625513076782227 0.47482848167419433594 0.47736960649490356445 0.47780618071556091309 0.47742676734924316406 0.47715419530868530273 
0.47297126054763793945 0.47327849268913269043 0.4729614555835723877 0.47319456934928894043 0.47329699993133544922 0.47360444068908691406 0.47365131974220275879 0.47504609823226928711 0.47504609823226928711 0.47498923540115356445 0.47464156150817871094 0.4747060239315032959 0.47476616501808166504 0.47577625513076782227 0.47482848167419433594 0.47736960649490356445 0.47780618071556091309 0.47742676734924316406 0.47715419530868530273 
0.47297126054763793945 0.47327849268913269043 0.4729614555835723877 0.47319456934928894043 0.47329699993133544922 0.47396445274353027344 0.47295385599136352539 0.47366440296173095703 0.47354772686958312988 0.47354772686958312988 0.4729767143726348877 0.47323378920555114746 0.47547069191932678223 0.47454211115837097168 0.47352373600006103516 0.47490283846855163574 0.47509312629699707031 0.47483941912651062012 0.47719594836235046387 
0.47344961762428283691 0.47354227304458618164 0.4733460545539855957 0.47328066825866699219 0.47296801209449768066 0.47539189457893371582 0.47365131974220275879 0.47477161884307861328 0.47359788417816162109 0.47359788417816162109 0.4733231663703918457 0.47454211115837097168 0.47650092840194702148 0.47690925002098083496 0.47393280267715454102 0.47478911280632019043 0.47488641738891601562 0.47756418585777282715 0.48135530948638916016 
0.47298216819763183594 0.47297236323356628418 0.47485253214836120605 0.47468855977058410645 0.47722673416137695312 0.47740918397903442383 0.47769835591316223145 0.47719925642013549805 0.47477161884307861328 0.47477161884307861328 0.47468963265419006348 0.47487330436706542969 0.4744110107421875 0.47572475671768188477 0.4747530519962310791 0.47475522756576538086 0.47482192516326904297 0.48162358999252319336 0.48201301693916320801 
0.47468090057373046875 0.47404739260673522949 0.47298216819763183594 0.47351500391960144043 0.47347357869148254395 0.47725528478622436523 0.48084461688995361328 0.47389787435531616211 0.47378113865852355957 0.47378113865852355957 0.47467324137687683105 0.47475522756576538086 0.47501328587532043457 0.47392624616622924805 0.47574228048324584961 0.47377893328666687012 0.47338637709617614746 0.47521349787712097168 0.47783806920051574707 
0.47401574254035949707 0.47375386953353881836 0.47312048077583312988 0.47314882278442382812 0.47339510917663574219 0.47492906451225280762 0.48566606640815734863 0.4733231663703918457 0.47448530793190002441 0.47448530793190002441 0.47347685694694519043 0.47488096356391906738 0.47401791810989379883 0.4769553840160369873 0.47978177666664123535 0.47919553518295288086 0.47540828585624694824 0.47368621826171875 0.47358044981956481934 
