ncols 31
nrows 31
xllcorner 0.0
yllcorner 0.0
cellsize 1000.0
8.500000000000000000e+01 8.500000000000000000e+01 8.500000000000000000e+01 8.500000000000000000e+01 8.500000000000000000e+01 8.500000000000000000e+01 8.500000000000000000e+01 8.500000000000000000e+01 8.500000000000000000e+01 8.500000000000000000e+01 8.500000000000000000e+01 8.500000000000000000e+01 8.500000000000000000e+01 8.500000000000000000e+01 8.500000000000000000e+01 8.500000000000000000e+01 8.500000000000000000e+01 8.500000000000000000e+01 8.500000000000000000e+01 8.500000000000000000e+01 8.500000000000000000e+01 8.500000000000000000e+01 8.500000000000000000e+01 8.500000000000000000e+01 8.500000000000000000e+01 8.500000000000000000e+01 8.500000000000000000e+01 8.500000000000000000e+01 8.500000000000000000e+01 8.500000000000000000e+01 8.500000000000000000e+01
8.500000000000000000e+01 8.500000000000000000e+01 8.500000000000000000e+01 8.500000000000000000e+01 8.500000000000000000e+01 8.500000000000000000e+01 8.500000000000000000e+01 8.500000000000000000e+01 8.500000000000000000e+01 8.500000000000000000e+01 8.500000000000000000e+01 8.500000000000000000e+01 8.500000000000000000e+01 8.500000000000000000e+01 8.500000000000000000e+01 8.500000000000000000e+01 8.500000000000000000e+01 8.500000000000000000e+01 8.500000000000000000e+01 8.500000000000000000e+01 8.500000000000000000e+01 8.500000000000000000e+01 8.500000000000000000e+01 8.500000000000000000e+01 8.500000000000000000e+01 8.500000000000000000e+01 8.500000000000000000e+01 8.500000000000000000e+01 8.500000000000000000e+01 8.500000000000000000e+01 8.500000000000000000e+01
8.500000000000000000e+01 8.500000000000000000e+01 8.500000000000000000e+01 8.500000000000000000e+01 8.500000000000000000e+01 8.500000000000000000e+01 8.500000000000000000e+01 8.500000000000000000e+01 8.500000000000000000e+01 8.500000000000000000e+01 8.500000000000000000e+01 8.500000000000000000e+01 8.500000000000000000e+01 8.500000000000000000e+01 8.500000000000000000e+01 8.500000000000000000e+01 8.500000000000000000e+01 8.500000000000000000e+01 8.500000000000000000e+01 8.500000000000000000e+01 8.500000000000000000e+01 8.500000000000000000e+01 8.500000000000000000e+01 8.500000000000000000e+01 8.500000000000000000e+01 8.500000000000000000e+01 8.500000000000000000e+01 8.500000000000000000e+01 8.500000000000000000e+01 8.500000000000000000e+01 8.500000000000000000e+01
8.500000000000000000e+01 8.500000000000000000e+01 8.500000000000000000e+01 8.500000000000000000e+01 8.500000000000000000e+01 8.500000000000000000e+01 8.500000000000000000e+01 8.500000000000000000e+01 8.500000000000000000e+01 8.500000000000000000e+01 8.500000000000000000e+01 8.500000000000000000e+01 8.500000000000000000e+01 8.500000000000000000e+01 8.500000000000000000e+01 8.500000000000000000e+01 8.500000000000000000e+01 8.500000000000000000e+01 8.500000000000000000e+01 8.500000000000000000e+01 8.500000000000000000e+01 8.500000000000000000e+01 8.500000000000000000e+01 8.500000000000000000e+01 8.500000000000000000e+01 8.500000000000000000e+01 8.500000000000000000e+01 8.500000000000000000e+01 8.500000000000000000e+01 8.500000000000000000e+01 8.500000000000000000e+01
8.500000000000000000e+01 8.500000000000000000e+01 8.500000000000000000e+01 8.500000000000000000e+01 8.500000000000000000e+01 8.500000000000000000e+01 8.500000000000000000e+01 8.500000000000000000e+01 8.500000000000000000e+01 8.500000000000000000e+01 8.500000000000000000e+01 8.500000000000000000e+01 8.500000000000000000e+01 8.500000000000000000e+01 8.500000000000000000e+01 8.500000000000000000e+01 8.500000000000000000e+01 8.500000000000000000e+01 8.500000000000000000e+01 8.500000000000000000e+01 8.500000000000000000e+01 8.500000000000000000e+01 8.500000000000000000e+01 8.500000000000000000e+01 8.500000000000000000e+01 8.500000000000000000e+01 8.500000000000000000e+01 8.500000000000000000e+01 8.500000000000000000e+01 8.500000000000000000e+01 8.500000000000000000e+01
8.500000000000000000e+01 8.500000000000000000e+01 8.500000000000000000e+01 8.500000000000000000e+01 8.500000000000000000e+01 8.500000000000000000e+01 8.500000000000000000e+01 8.500000000000000000e+01 8.500000000000000000e+01 8.500000000000000000e+01 8.500000000000000000e+01 8.500000000000000000e+01 8.500000000000000000e+01 8.500000000000000000e+01 8.500000000000000000e+01 8.500000000000000000e+01 8.500000000000000000e+01 8.500000000000000000e+01 8.500000000000000000e+01 8.500000000000000000e+01 8.500000000000000000e+01 8.500000000000000000e+01 8.500000000000000000e+01 8.500000000000000000e+01 8.500000000000000000e+01 8.500000000000000000e+01 8.500000000000000000e+01 8.500000000000000000e+01 8.500000000000000000e+01 8.500000000000000000e+01 8.500000000000000000e+01
8.500000000000000000e+01 8.500000000000000000e+01 8.500000000000000000e+01 8.500000000000000000e+01 8.500000000000000000e+01 8.500000000000000000e+01 8.500000000000000000e+01 8.500000000000000000e+01 8.500000000000000000e+01 8.500000000000000000e+01 8.500000000000000000e+01 8.500000000000000000e+01 8.500000000000000000e+01 8.500000000000000000e+01 8.500000000000000000e+01 8.500000000000000000e+01 8.500000000000000000e+01 8.500000000000000000e+01 8.500000000000000000e+01 8.500000000000000000e+01 8.500000000000000000e+01 8.500000000000000000e+01 8.500000000000000000e+01 8.500000000000000000e+01 8.500000000000000000e+01 8.500000000000000000e+01 8.500000000000000000e+01 8.500000000000000000e+01 8.500000000000000000e+01 8.500000000000000000e+01 8.500000000000000000e+01
8.500000000000000000e+01 8.500000000000000000e+01 8.500000000000000000e+01 8.500000000000000000e+01 8.500000000000000000e+01 8.500000000000000000e+01 8.500000000000000000e+01 8.500000000000000000e+01 8.500000000000000000e+01 8.500000000000000000e+01 8.500000000000000000e+01 8.500000000000000000e+01 8.500000000000000000e+01 8.500000000000000000e+01 8.500000000000000000e+01 8.500000000000000000e+01 8.500000000000000000e+01 8.500000000000000000e+01 8.500000000000000000e+01 8.500000000000000000e+01 8.500000000000000000e+01 8.500000000000000000e+01 8.500000000000000000e+01 8.500000000000000000e+01 8.500000000000000000e+01 8.500000000000000000e+01 8.500000000000000000e+01 8.500000000000000000e+01 8.500000000000000000e+01 8.500000000000000000e+01 8.500000000000000000e+01
8.500000000000000000e+01 8.500000000000000000e+01 8.500000000000000000e+01 8.500000000000000000e+01 8.500000000000000000e+01 8.500000000000000000e+01 8.500000000000000000e+01 8.500000000000000000e+01 8.500000000000000000e+01 8.500000000000000000e+01 8.500000000000000000e+01 8.500000000000000000e+01 8.500000000000000000e+01 8.500000000000000000e+01 8.500000000000000000e+01 8.500000000000000000e+01 8.500000000000000000e+01 8.500000000000000000e+01 8.500000000000000000e+01 8.500000000000000000e+01 8.500000000000000000e+01 8.500000000000000000e+01 8.500000000000000000e+01 8.500000000000000000e+01 8.500000000000000000e+01 8.500000000000000000e+01 8.500000000000000000e+01 8.500000000000000000e+01 8.500000000000000000e+01 8.500000000000000000e+01 8.500000000000000000e+01
8.500000000000000000e+01 8.500000000000000000e+01 8.500000000000000000e+01 8.500000000000000000e+01 8.500000000000000000e+01 8.500000000000000000e+01 8.500000000000000000e+01 8.500000000000000000e+01 8.500000000000000000e+01 8.500000000000000000e+01 8.500000000000000000e+01 8.500000000000000000e+01 8.500000000000000000e+01 8.500000000000000000e+01 8.500000000000000000e+01 8.500000000000000000e+01 8.500000000000000000e+01 8.500000000000000000e+01 8.500000000000000000e+01 8.500000000000000000e+01 8.500000000000000000e+01 8.500000000000000000e+01 8.500000000000000000e+01 8.500000000000000000e+01 8.500000000000000000e+01 8.500000000000000000e+01 8.500000000000000000e+01 8.500000000000000000e+01 8.500000000000000000e+01 8.500000000000000000e+01 8.500000000000000000e+01
8.500000000000000000e+01 8.500000000000000000e+01 8.500000000000000000e+01 8.500000000000000000e+01 8.500000000000000000e+01 8.500000000000000000e+01 8.500000000000000000e+01 8.500000000000000000e+01 8.500000000000000000e+01 8.500000000000000000e+01 8.500000000000000000e+01 8.500000000000000000e+01 8.500000000000000000e+01 8.500000000000000000e+01 8.500000000000000000e+01 8.500000000000000000e+01 8.500000000000000000e+01 8.500000000000000000e+01 8.500000000000000000e+01 8.500000000000000000e+01 8.500000000000000000e+01 8.500000000000000000e+01 8.500000000000000000e+01 8.500000000000000000e+01 8.500000000000000000e+01 8.500000000000000000e+01 8.500000000000000000e+01 8.500000000000000000e+01 8.500000000000000000e+01 8.500000000000000000e+01 8.500000000000000000e+01
8.500000000000000000e+01 8.500000000000000000e+01 8.500000000000000000e+01 8.500000000000000000e+01 8.500000000000000000e+01 8.500000000000000000e+01 8.500000000000000000e+01 8.500000000000000000e+01 8.500000000000000000e+01 8.500000000000000000e+01 8.500000000000000000e+01 8.500000000000000000e+01 8.500000000000000000e+01 8.500000000000000000e+01 8.500000000000000000e+01 8.500000000000000000e+01 8.500000000000000000e+01 8.500000000000000000e+01 8.500000000000000000e+01 8.500000000000000000e+01 8.500000000000000000e+01 8.500000000000000000e+01 8.500000000000000000e+01 8.500000000000000000e+01 8.500000000000000000e+01 8.500000000000000000e+01 8.500000000000000000e+01 8.500000000000000000e+01 8.500000000000000000e+01 8.500000000000000000e+01 8.500000000000000000e+01
8.500000000000000000e+01 8.500000000000000000e+01 8.500000000000000000e+01 8.500000000000000000e+01 8.500000000000000000e+01 8.500000000000000000e+01 8.500000000000000000e+01 8.500000000000000000e+01 8.500000000000000000e+01 8.500000000000000000e+01 8.500000000000000000e+01 8.500000000000000000e+01 8.500000000000000000e+01 8.500000000000000000e+01 8.500000000000000000e+01 8.500000000000000000e+01 8.500000000000000000e+01 8.500000000000000000e+01 8.500000000000000000e+01 8.500000000000000000e+01 8.500000000000000000e+01 8.500000000000000000e+01 8.500000000000000000e+01 8.500000000000000000e+01 8.500000000000000000e+01 8.500000000000000000e+01 8.500000000000000000e+01 8.500000000000000000e+01 8.500000000000000000e+01 8.500000000000000000e+01 8.500000000000000000e+01
8.500000000000000000e+01 8.500000000000000000e+01 8.500000000000000000e+01 8.500000000000000000e+01 8.500000000000000000e+01 8.500000000000000000e+01 8.500000000000000000e+01 8.500000000000000000e+01 8.500000000000000000e+01 8.500000000000000000e+01 8.500000000000000000e+01 8.500000000000000000e+01 8.500000000000000000e+01 8.500000000000000000e+01 8.500000000000000000e+01 8.500000000000000000e+01 8.500000000000000000e+01 8.500000000000000000e+01 8.500000000000000000e+01 8.500000000000000000e+01 8.500000000000000000e+01 8.500000000000000000e+01 8.500000000000000000e+01 8.500000000000000000e+01 8.500000000000000000e+01 8.500000000000000000e+01 8.500000000000000000e+01 8.500000000000000000e+01 8.500000000000000000e+01 8.500000000000000000e+01 8.500000000000000000e+01
8.500000000000000000e+01 8.500000000000000000e+01 8.500000000000000000e+01 8.500000000000000000e+01 8.500000000000000000e+01 8.500000000000000000e+01 8.500000000000000000e+01 8.500000000000000000e+01 8.500000000000000000e+01 8.500000000000000000e+01 8.500000000000000000e+01 8.500000000000000000e+01 8.500000000000000000e+01 8.500000000000000000e+01 8.500000000000000000e+01 8.500000000000000000e+01 8.500000000000000000e+01 8.500000000000000000e+01 8.500000000000000000e+01 8.500000000000000000e+01 8.500000000000000000e+01 8.500000000000000000e+01 8.500000000000000000e+01 8.500000000000000000e+01 8.500000000000000000e+01 8.500000000000000000e+01 8.500000000000000000e+01 8.500000000000000000e+01 8.500000000000000000e+01 8.500000000000000000e+01 8.500000000000000000e+01
8.500000000000000000e+01 8.500000000000000000e+01 8.500000000000000000e+01 8.500000000000000000e+01 8.500000000000000000e+01 8.500000000000000000e+01 8.500000000000000000e+01 8.500000000000000000e+01 8.500000000000000000e+01 8.500000000000000000e+01 8.500000000000000000e+01 8.500000000000000000e+01 8.500000000000000000e+01 8.500000000000000000e+01 8.500000000000000000e+01 8.500000000000000000e+01 8.500000000000000000e+01 8.500000000000000000e+01 8.500000000000000000e+01 8.500000000000000000e+01 8.500000000000000000e+01 8.500000000000000000e+01 8.500000000000000000e+01 8.500000000000000000e+01 8.500000000000000000e+01 8.500000000000000000e+01 8.500000000000000000e+01 8.500000000000000000e+01 8.500000000000000000e+01 8.500000000000000000e+01 8.500000000000000000e+01
8.500000000000000000e+01 8.500000000000000000e+01 8.500000000000000000e+01 8.500000000000000000e+01 8.500000000000000000e+01 8.500000000000000000e+01 8.500000000000000000e+01 8.500000000000000000e+01 8.500000000000000000e+01 8.500000000000000000e+01 8.500000000000000000e+01 8.500000000000000000e+01 8.500000000000000000e+01 8.500000000000000000e+01 8.500000000000000000e+01 8.500000000000000000e+01 8.500000000000000000e+01 8.500000000000000000e+01 8.500000000000000000e+01 8.500000000000000000e+01 8.500000000000000000e+01 8.500000000000000000e+01 8.500000000000000000e+01 8.500000000000000000e+01 8.500000000000000000e+01 8.500000000000000000e+01 8.500000000000000000e+01 8.500000000000000000e+01 8.500000000000000000e+01 8.500000000000000000e+01 8.500000000000000000e+01
8.500000000000000000e+01 8.500000000000000000e+01 8.500000000000000000e+01 8.500000000000000000e+01 8.500000000000000000e+01 8.500000000000000000e+01 8.500000000000000000e+01 8.500000000000000000e+01 8.500000000000000000e+01 8.500000000000000000e+01 8.500000000000000000e+01 8.500000000000000000e+01 8.500000000000000000e+01 8.500000000000000000e+01 8.500000000000000000e+01 8.500000000000000000e+01 8.500000000000000000e+01 8.500000000000000000e+01 8.500000000000000000e+01 8.500000000000000000e+01 8.500000000000000000e+01 8.500000000000000000e+01 8.500000000000000000e+01 8.500000000000000000e+01 8.500000000000000000e+01 8.500000000000000000e+01 8.500000000000000000e+01 8.500000000000000000e+01 8.500000000000000000e+01 8.500000000000000000e+01 8.500000000000000000e+01
8.500000000000000000e+01 8.500000000000000000e+01 8.500000000000000000e+01 8.500000000000000000e+01 8.500000000000000000e+01 8.500000000000000000e+01 8.500000000000000000e+01 8.500000000000000000e+01 8.500000000000000000e+01 8.500000000000000000e+01 8.500000000000000000e+01 8.500000000000000000e+01 8.500000000000000000e+01 8.500000000000000000e+01 8.500000000000000000e+01 8.500000000000000000e+01 8.500000000000000000e+01 8.500000000000000000e+01 8.500000000000000000e+01 8.500000000000000000e+01 8.500000000000000000e+01 8.500000000000000000e+01 8.500000000000000000e+01 8.500000000000000000e+01 8.500000000000000000e+01 8.500000000000000000e+01 8.500000000000000000e+01 8.500000000000000000e+01 8.500000000000000000e+01 8.500000000000000000e+01 8.500000000000000000e+01
8.500000000000000000e+01 8.500000000000000000e+01 8.500000000000000000e+01 8.500000000000000000e+01 8.500000000000000000e+01 8.500000000000000000e+01 8.500000000000000000e+01 8.500000000000000000e+01 8.500000000000000000e+01 8.500000000000000000e+01 8.500000000000000000e+01 8.500000000000000000e+01 8.500000000000000000e+01 8.500000000000000000e+01 8.500000000000000000e+01 8.500000000000000000e+01 8.500000000000000000e+01 8.500000000000000000e+01 8.500000000000000000e+01 8.500000000000000000e+01 8.500000000000000000e+01 8.500000000000000000e+01 8.500000000000000000e+01 8.500000000000000000e+01 8.500000000000000000e+01 8.500000000000000000e+01 8.500000000000000000e+01 8.500000000000000000e+01 8.500000000000000000e+01 8.500000000000000000e+01 8.500000000000000000e+01
8.500000000000000000e+01 8.500000000000000000e+01 8.500000000000000000e+01 8.500000000000000000e+01 8.500000000000000000e+01 8.500000000000000000e+01 8.500000000000000000e+01 8.500000000000000000e+01 8.500000000000000000e+01 8.500000000000000000e+01 8.500000000000000000e+01 8.500000000000000000e+01 8.500000000000000000e+01 8.500000000000000000e+01 8.500000000000000000e+01 8.500000000000000000e+01 8.500000000000000000e+01 8.500000000000000000e+01 8.500000000000000000e+01 8.500000000000000000e+01 8.500000000000000000e+01 8.500000000000000000e+01 8.500000000000000000e+01 8.500000000000000000e+01 8.500000000000000000e+01 8.500000000000000000e+01 8.500000000000000000e+01 8.500000000000000000e+01 8.500000000000000000e+01 8.500000000000000000e+01 8.500000000000000000e+01
8.500000000000000000e+01 8.500000000000000000e+01 8.500000000000000000e+01 8.500000000000000000e+01 8.500000000000000000e+01 8.500000000000000000e+01 8.500000000000000000e+01 8.500000000000000000e+01 8.500000000000000000e+01 8.500000000000000000e+01 8.500000000000000000e+01 8.500000000000000000e+01 8.500000000000000000e+01 8.500000000000000000e+01 8.500000000000000000e+01 8.500000000000000000e+01 8.500000000000000000e+01 8.500000000000000000e+01 8.500000000000000000e+01 8.500000000000000000e+01 8.500000000000000000e+01 8.500000000000000000e+01 8.500000000000000000e+01 8.500000000000000000e+01 8.500000000000000000e+01 8.500000000000000000e+01 8.500000000000000000e+01 8.500000000000000000e+01 8.500000000000000000e+01 8.500000000000000000e+01 8.500000000000000000e+01
8.500000000000000000e+01 8.500000000000000000e+01 8.500000000000000000e+01 8.500000000000000000e+01 8.500000000000000000e+01 8.500000000000000000e+01 8.500000000000000000e+01 8.500000000000000000e+01 8.500000000000000000e+01 8.500000000000000000e+01 8.500000000000000000e+01 8.500000000000000000e+01 8.500000000000000000e+01 8.500000000000000000e+01 8.500000000000000000e+01 8.500000000000000000e+01 8.500000000000000000e+01 8.500000000000000000e+01 8.500000000000000000e+01 8.500000000000000000e+01 8.500000000000000000e+01 8.500000000000000000e+01 8.500000000000000000e+01 8.500000000000000000e+01 8.500000000000000000e+01 8.500000000000000000e+01 8.500000000000000000e+01 8.500000000000000000e+01 8.500000000000000000e+01 8.500000000000000000e+01 8.500000000000000000e+01
8.500000000000000000e+01 8.500000000000000000e+01 8.500000000000000000e+01 8.500000000000000000e+01 8.500000000000000000e+01 8.500000000000000000e+01 8.500000000000000000e+01 8.500000000000000000e+01 8.500000000000000000e+01 8.500000000000000000e+01 8.500000000000000000e+01 8.500000000000000000e+01 8.500000000000000000e+01 8.500000000000000000e+01 8.500000000000000000e+01 8.500000000000000000e+01 8.500000000000000000e+01 8.500000000000000000e+01 8.500000000000000000e+01 8.500000000000000000e+01 8.500000000000000000e+01 8.500000000000000000e+01 8.500000000000000000e+01 8.500000000000000000e+01 8.500000000000000000e+01 8.500000000000000000e+01 8.500000000000000000e+01 8.500000000000000000e+01 8.500000000000000000e+01 8.500000000000000000e+01 8.500000000000000000e+01
8.500000000000000000e+01 8.500000000000000000e+01 8.500000000000000000e+01 8.500000000000000000e+01 8.500000000000000000e+01 8.500000000000000000e+01 8.500000000000000000e+01 8.500000000000000000e+01 8.500000000000000000e+01 8.500000000000000000e+01 8.500000000000000000e+01 8.500000000000000000e+01 8.500000000000000000e+01 8.500000000000000000e+01 8.500000000000000000e+01 8.500000000000000000e+01 8.500000000000000000e+01 8.500000000000000000e+01 8.500000000000000000e+01 8.500000000000000000e+01 8.500000000000000000e+01 8.500000000000000000e+01 8.500000000000000000e+01 8.500000000000000000e+01 8.500000000000000000e+01 8.500000000000000000e+01 8.500000000000000000e+01 8.500000000000000000e+01 8.500000000000000000e+01 8.500000000000000000e+01 8.500000000000000000e+01
8.500000000000000000e+01 8.500000000000000000e+01 8.500000000000000000e+01 8.500000000000000000e+01 8.500000000000000000e+01 8.500000000000000000e+01 8.500000000000000000e+01 8.500000000000000000e+01 8.500000000000000000e+01 8.500000000000000000e+01 8.500000000000000000e+01 8.500000000000000000e+01 8.500000000000000000e+01 8.500000000000000000e+01 8.500000000000000000e+01 8.500000000000000000e+01 8.500000000000000000e+01 8.500000000000000000e+01 8.500000000000000000e+01 8.500000000000000000e+01 8.500000000000000000e+01 8.500000000000000000e+01 8.500000000000000000e+01 8.500000000000000000e+01 8.500000000000000000e+01 8.500000000000000000e+01 8.500000000000000000e+01 8.500000000000000000e+01 8.500000000000000000e+01 8.500000000000000000e+01 8.500000000000000000e+01
8.500000000000000000e+01 8.500000000000000000e+01 8.500000000000000000e+01 8.500000000000000000e+01 8.500000000000000000e+01 8.500000000000000000e+01 8.500000000000000000e+01 8.500000000000000000e+01 8.500000000000000000e+01 8.500000000000000000e+01 8.500000000000000000e+01 8.500000000000000000e+01 8.500000000000000000e+01 8.500000000000000000e+01 8.500000000000000000e+01 8.500000000000000000e+01 8.500000000000000000e+01 8.500000000000000000e+01 8.500000000000000000e+01 8.500000000000000000e+01 8.500000000000000000e+01 8.500000000000000000e+01 8.500000000000000000e+01 8.500000000000000000e+01 8.500000000000000000e+01 8.500000000000000000e+01 8.500000000000000000e+01 8.500000000000000000e+01 8.500000000000000000e+01 8.500000000000000000e+01 8.500000000000000000e+01
8.500000000000000000e+01 8.500000000000000000e+01 8.500000000000000000e+01 8.500000000000000000e+01 8.500000000000000000e+01 8.500000000000000000e+01 8.500000000000000000e+01 8.500000000000000000e+01 8.500000000000000000e+01 8.500000000000000000e+01 8.500000000000000000e+01 8.500000000000000000e+01 8.500000000000000000e+01 8.500000000000000000e+01 8.500000000000000000e+01 8.500000000000000000e+01 8.500000000000000000e+01 8.500000000000000000e+01 8.500000000000000000e+01 8.500000000000000000e+01 8.500000000000000000e+01 8.500000000000000000e+01 8.500000000000000000e+01 8.500000000000000000e+01 8.500000000000000000e+01 8.500000000000000000e+01 8.500000000000000000e+01 8.500000000000000000e+01 8.500000000000000000e+01 8.500000000000000000e+01 8.500000000000000000e+01
8.500000000000000000e+01 8.500000000000000000e+01 8.500000000000000000e+01 8.500000000000000000e+01 8.500000000000000000e+01 8.500000000000000000e+01 8.500000000000000000e+01 8.500000000000000000e+01 8.500000000000000000e+01 8.500000000000000000e+01 8.500000000000000000e+01 8.500000000000000000e+01 8.500000000000000000e+01 8.500000000000000000e+01 8.500000000000000000e+01 8.500000000000000000e+01 8.500000000000000000e+01 8.500000000000000000e+01 8.500000000000000000e+01 8.500000000000000000e+01 8.500000000000000000e+01 8.500000000000000000e+01 8.500000000000000000e+01 8.500000000000000000e+01 8.500000000000000000e+01 8.500000000000000000e+01 8.500000000000000000e+01 8.500000000000000000e+01 8.500000000000000000e+01 8.500000000000000000e+01 8.500000000000000000e+01
8.500000000000000000e+01 8.500000000000000000e+01 8.500000000000000000e+01 8.500000000000000000e+01 8.500000000000000000e+01 8.500000000000000000e+01 8.500000000000000000e+01 8.500000000000000000e+01 8.500000000000000000e+01 8.500000000000000000e+01 8.500000000000000000e+01 8.500000000000000000e+01 8.500000000000000000e+01 8.500000000000000000e+01 8.500000000000000000e+01 8.500000000000000000e+01 8.500000000000000000e+01 8.500000000000000000e+01 8.500000000000000000e+01 8.500000000000000000e+01 8.500000000000000000e+01 8.500000000000000000e+01 8.500000000000000000e+01 8.500000000000000000e+01 8.500000000000000000e+01 8.500000000000000000e+01 8.500000000000000000e+01 8.500000000000000000e+01 8.500000000000000000e+01 8.500000000000000000e+01 8.500000000000000000e+01
8.500000000000000000e+01 8.500000000000000000e+01 8.500000000000000000e+01 8.500000000000000000e+01 8.500000000000000000e+01 8.500000000000000000e+01 8.500000000000000000e+01 8.500000000000000000e+01 8.500000000000000000e+01 8.500000000000000000e+01 8.500000000000000000e+01 8.500000000000000000e+01 8.500000000000000000e+01 8.500000000000000000e+01 8.500000000000000000e+01 8.500000000000000000e+01 8.500000000000000000e+01 8.500000000000000000e+01 8.500000000000000000e+01 8.500000000000000000e+01 8.500000000000000000e+01 8.500000000000000000e+01 8.500000000000000000e+01 8.500000000000000000e+01 8.500000000000000000e+01 8.500000000000000000e+01 8.500000000000000000e+01 8.500000000000000000e+01 8.500000000000000000e+01 8.500000000000000000e+01 8.500000000000000000e+01
