ncols 21
nrows 3
xllcorner 0.0
yllcorner 0.0
cellsize 1000.0
1.000000000000000000e+02 9.900000000000000000e+01 9.800000000000000000e+01 9.700000000000000000e+01 9.600000000000000000e+01 9.500000000000000000e+01 9.500000000000000000e+01 9.500000000000000000e+01 9.500000000000000000e+01 9.500000000000000000e+01 9.500000000000000000e+01 9.500000000000000000e+01 9.500000000000000000e+01 9.500000000000000000e+01 9.500000000000000000e+01 9.500000000000000000e+01 9.600000000000000000e+01 9.700000000000000000e+01 9.800000000000000000e+01 9.900000000000000000e+01 1.000000000000000000e+02
1.000000000000000000e+02 9.900000000000000000e+01 9.800000000000000000e+01 9.700000000000000000e+01 9.600000000000000000e+01 9.500000000000000000e+01 9.500000000000000000e+01 9.500000000000000000e+01 9.500000000000000000e+01 9.500000000000000000e+01 9.500000000000000000e+01 9.500000000000000000e+01 9.500000000000000000e+01 9.500000000000000000e+01 9.500000000000000000e+01 9.500000000000000000e+01 9.600000000000000000e+01 9.700000000000000000e+01 9.800000000000000000e+01 9.900000000000000000e+01 1.000000000000000000e+02
1.000000000000000000e+02 9.900000000000000000e+01 9.800000000000000000e+01 9.700000000000000000e+01 9.600000000000000000e+01 9.500000000000000000e+01 9.500000000000000000e+01 9.500000000000000000e+01 9.500000000000000000e+01 9.500000000000000000e+01 9.500000000000000000e+01 9.500000000000000000e+01 9.500000000000000000e+01 9.500000000000000000e+01 9.500000000000000000e+01 9.500000000000000000e+01 9.600000000000000000e+01 9.700000000000000000e+01 9.800000000000000000e+01 9.900000000000000000e+01 1.000000000000000000e+02
